example/ios/1917.cube
# Created by Benjamin (IWLTBAP): https://luts.iwltbap.com
# Copyright: (C) Copyright 2019 Triune Films and IWLTBAP SAS
# Cannot be resold, shared or otherwise redistributed
TITLE "Triune Films Cinematic LUTs V4 (Arri Alexa Log-C)"
LUT_3D_SIZE 33
0.000000 0.000000 0.000000
0.000521 0.000230 0.000222
0.001076 0.000475 0.000459
0.003922 0.001174 0.001089
0.010082 0.001903 0.001610
0.028238 0.003012 0.001891
0.058287 0.004821 0.002439
0.098453 0.007262 0.002823
0.142331 0.010123 0.002623
0.193509 0.014197 0.002108
0.250636 0.017283 0.002014
0.312837 0.017722 0.001849
0.372655 0.017294 0.001740
0.429242 0.016159 0.001717
0.482488 0.017127 0.002280
0.532376 0.019671 0.002538
0.580683 0.024804 0.003156
0.627958 0.031648 0.004088
0.673785 0.039810 0.006466
0.717324 0.049271 0.009449
0.754898 0.058186 0.013270
0.777013 0.063268 0.016402
0.783612 0.064082 0.018889
0.789681 0.064903 0.021053
0.795685 0.066220 0.022334
0.801718 0.067744 0.023478
0.807782 0.069050 0.025020
0.813805 0.070658 0.025485
0.819842 0.072174 0.026033
0.825919 0.073411 0.027426
0.831940 0.075088 0.027824
0.837963 0.076737 0.028154
0.843991 0.078353 0.028407
0.000620 0.000850 0.000628
0.001172 0.001463 0.000437
0.001727 0.001708 0.000674
0.005538 0.002621 0.001311
0.012731 0.003563 0.001799
0.033073 0.005171 0.001942
0.063521 0.007341 0.002340
0.103577 0.009965 0.002532
0.147087 0.013194 0.002370
0.197556 0.017331 0.001892
0.253998 0.020442 0.001795
0.315367 0.020770 0.001695
0.374708 0.019626 0.001602
0.431173 0.018005 0.001511
0.484142 0.018597 0.002081
0.533961 0.021540 0.002530
0.582167 0.027280 0.003002
0.629335 0.034187 0.004032
0.675072 0.042705 0.006428
0.718564 0.052557 0.009580
0.756200 0.061625 0.013155
0.778356 0.066701 0.016229
0.784978 0.067514 0.018741
0.791052 0.068335 0.020916
0.797056 0.069651 0.022196
0.803097 0.071198 0.023303
0.809160 0.072504 0.024844
0.815184 0.074113 0.025309
0.821221 0.075628 0.025857
0.827283 0.076926 0.027287
0.833303 0.078604 0.027686
0.839327 0.080253 0.028017
0.845354 0.081869 0.028269
0.001270 0.001740 0.001285
0.001821 0.002353 0.001094
0.002398 0.002994 0.000894
0.006314 0.003936 0.001533
0.014422 0.005078 0.002032
0.037033 0.007147 0.002091
0.068943 0.009682 0.002333
0.108872 0.012669 0.002349
0.151862 0.016278 0.002117
0.201601 0.020510 0.001677
0.257227 0.023750 0.001581
0.317727 0.024561 0.001488
0.376753 0.023157 0.001448
0.433017 0.020651 0.001399
0.485734 0.020217 0.001951
0.535564 0.023326 0.002437
0.583691 0.029524 0.002887
0.630744 0.036715 0.003986
0.676399 0.045626 0.006342
0.719800 0.055859 0.009697
0.757463 0.064979 0.013190
0.779658 0.070140 0.016114
0.786322 0.070957 0.018539
0.792406 0.071789 0.020707
0.798420 0.073082 0.022044
0.804464 0.074629 0.023158
0.810539 0.075958 0.024669
0.816563 0.077567 0.025133
0.822599 0.079087 0.025669
0.828658 0.080406 0.027052
0.834663 0.082145 0.027489
0.840690 0.083768 0.027879
0.846718 0.085384 0.028132
0.002716 0.005934 0.002915
0.003574 0.006409 0.002667
0.004112 0.006956 0.002465
0.006514 0.008455 0.002102
0.015674 0.009178 0.002614
0.040801 0.012137 0.002493
0.079847 0.016211 0.002276
0.117743 0.018581 0.002048
0.161474 0.022008 0.001549
0.207981 0.026102 0.001300
0.260103 0.028277 0.001316
0.318633 0.029009 0.001276
0.378133 0.027705 0.001243
0.434263 0.024660 0.001375
0.486299 0.023940 0.001780
0.535817 0.025704 0.002294
0.584399 0.032155 0.002751
0.632040 0.039572 0.003787
0.677670 0.048829 0.006062
0.720683 0.059102 0.009554
0.757959 0.068104 0.013200
0.780518 0.073448 0.015970
0.787607 0.074514 0.018210
0.793701 0.075569 0.019896
0.799727 0.076791 0.021357
0.805807 0.078096 0.022910
0.811873 0.079507 0.024278
0.817890 0.081065 0.024912
0.823917 0.082645 0.025317
0.829930 0.084338 0.025849
0.835934 0.086076 0.026286
0.841937 0.087739 0.026710
0.848036 0.088964 0.027902
0.003666 0.015847 0.004524
0.004597 0.016293 0.004261
0.005523 0.016737 0.004001
0.007042 0.016614 0.003400
0.016937 0.019119 0.003508
0.044836 0.022909 0.003264
0.083262 0.027929 0.002378
0.127208 0.033277 0.001624
0.170087 0.037990 0.000829
0.216353 0.042026 0.000607
0.267359 0.043291 0.000669
0.323163 0.039877 0.000939
0.380503 0.033541 0.000960
0.436073 0.028859 0.001352
0.487579 0.027299 0.001606
0.536744 0.027920 0.002202
0.585513 0.034822 0.002594
0.633343 0.042430 0.003583
0.678930 0.052056 0.005822
0.721881 0.062494 0.009124
0.759072 0.071718 0.012905
0.781716 0.076927 0.015738
0.788898 0.078047 0.017935
0.794980 0.079184 0.019471
0.801053 0.080387 0.020889
0.807131 0.081704 0.022417
0.813172 0.083260 0.023454
0.819221 0.084610 0.024488
0.825237 0.086156 0.025089
0.831239 0.087893 0.025524
0.837244 0.089631 0.025961
0.843242 0.091312 0.026333
0.849250 0.092925 0.026829
0.005503 0.033724 0.007841
0.006905 0.034421 0.007267
0.008307 0.035118 0.006692
0.009813 0.035775 0.006053
0.019936 0.038023 0.005203
0.047080 0.041696 0.005455
0.088117 0.048581 0.003781
0.133505 0.055891 0.001900
0.178517 0.063140 0.000480
0.227118 0.067420 0.000108
0.278303 0.067503 0.000146
0.332842 0.064902 0.000511
0.386922 0.055699 0.000692
0.440322 0.043167 0.000997
0.489949 0.033389 0.001329
0.538137 0.031950 0.002032
0.586711 0.038850 0.002506
0.634674 0.046364 0.003479
0.680237 0.056056 0.005553
0.723151 0.066507 0.008736
0.760421 0.075782 0.012340
0.783081 0.080961 0.015038
0.790309 0.082178 0.017054
0.796402 0.083313 0.018696
0.802475 0.084547 0.020109
0.808535 0.085809 0.021688
0.814591 0.087227 0.022905
0.820608 0.088767 0.023517
0.826609 0.090400 0.023925
0.832470 0.092056 0.024457
0.838522 0.093490 0.025568
0.844524 0.095140 0.025996
0.850534 0.096743 0.026517
0.008709 0.062608 0.010367
0.010731 0.063603 0.009754
0.012753 0.064599 0.009141
0.014783 0.065599 0.008525
0.022311 0.065107 0.007551
0.049123 0.067382 0.007043
0.090126 0.072857 0.006527
0.135273 0.082317 0.003553
0.183406 0.091308 0.000927
0.234725 0.098473 0.000000
0.288695 0.100717 0.000000
0.343624 0.098281 0.000029
0.397319 0.093243 0.000074
0.449866 0.080936 0.000594
0.498728 0.063964 0.001001
0.543994 0.046501 0.001602
0.589194 0.045095 0.002254
0.635427 0.050710 0.003320
0.681167 0.060018 0.005071
0.724392 0.070629 0.008221
0.761671 0.079845 0.011727
0.784414 0.085089 0.014235
0.791701 0.086324 0.016000
0.797820 0.087299 0.017953
0.803898 0.088525 0.019416
0.809957 0.089854 0.020949
0.815967 0.091339 0.021872
0.821977 0.092917 0.022414
0.828025 0.094319 0.023393
0.833879 0.096018 0.023829
0.839748 0.097663 0.024389
0.845743 0.099325 0.024772
0.851756 0.100908 0.025348
0.013037 0.094093 0.011408
0.017075 0.094576 0.010760
0.020530 0.095166 0.010002
0.023984 0.095756 0.009244
0.028197 0.096167 0.008507
0.051316 0.097207 0.008637
0.096224 0.099994 0.008094
0.136641 0.108626 0.006006
0.183771 0.120781 0.002546
0.237079 0.130240 0.000275
0.295545 0.136086 0.000000
0.353507 0.135140 0.000000
0.407662 0.132682 0.000000
0.459021 0.127833 0.000159
0.508364 0.117524 0.000838
0.555911 0.097925 0.001144
0.599763 0.078719 0.002006
0.641744 0.068506 0.003141
0.683385 0.068371 0.004400
0.725444 0.075386 0.007422
0.762885 0.084092 0.010934
0.785718 0.089305 0.013313
0.793003 0.090596 0.014934
0.799181 0.091638 0.016519
0.805270 0.092800 0.018103
0.811308 0.094219 0.019382
0.817327 0.095568 0.020404
0.823316 0.097070 0.021051
0.829368 0.098441 0.022102
0.835231 0.100096 0.022647
0.841096 0.101818 0.022994
0.846971 0.103557 0.023277
0.852967 0.105214 0.023673
0.028931 0.125225 0.009572
0.035825 0.125240 0.009922
0.041960 0.125340 0.009669
0.048095 0.125439 0.009417
0.054230 0.125541 0.009170
0.062414 0.125841 0.009305
0.100551 0.128084 0.009542
0.142156 0.136799 0.007729
0.182802 0.148551 0.004920
0.236493 0.162802 0.001551
0.297914 0.172919 0.000099
0.358346 0.176054 0.000000
0.415808 0.174385 0.000022
0.468719 0.172636 0.000181
0.518715 0.166839 0.000651
0.566518 0.158256 0.001447
0.612705 0.145169 0.001832
0.656033 0.126872 0.002557
0.696122 0.110476 0.003656
0.734458 0.102910 0.005525
0.768531 0.100996 0.008925
0.788914 0.099299 0.011524
0.795054 0.097327 0.013482
0.800705 0.096909 0.014980
0.806582 0.097432 0.016125
0.812612 0.098759 0.017166
0.818633 0.100098 0.018213
0.824648 0.101472 0.019175
0.830644 0.102940 0.019906
0.836501 0.104636 0.020364
0.842376 0.106374 0.020647
0.848250 0.108113 0.020931
0.854125 0.109851 0.021214
0.080821 0.159195 0.011080
0.085470 0.159364 0.011057
0.090119 0.159532 0.011034
0.095818 0.159627 0.011202
0.101102 0.158472 0.011521
0.105330 0.158763 0.011514
0.111583 0.159177 0.011514
0.147438 0.163345 0.010823
0.184869 0.177970 0.007570
0.235574 0.196565 0.004334
0.297681 0.211626 0.001511
0.360904 0.222778 0.000116
0.421067 0.224925 0.000047
0.476352 0.222252 0.000124
0.527470 0.219762 0.000941
0.575803 0.214659 0.001642
0.621998 0.210248 0.002061
0.666540 0.204838 0.003583
0.710099 0.196001 0.004774
0.751104 0.185140 0.005891
0.785679 0.171674 0.007917
0.805482 0.158026 0.009205
0.810254 0.147148 0.010430
0.814478 0.139726 0.011441
0.819015 0.134687 0.012310
0.823755 0.132571 0.013367
0.828752 0.132047 0.014510
0.834283 0.132336 0.015533
0.839913 0.133101 0.015949
0.845194 0.135179 0.016651
0.850624 0.137562 0.017318
0.856055 0.138334 0.017767
0.861471 0.138328 0.018642
0.138106 0.198556 0.014558
0.140634 0.198901 0.014558
0.143958 0.199092 0.014497
0.147282 0.199284 0.014436
0.150254 0.199156 0.014354
0.151646 0.198168 0.014190
0.154871 0.198474 0.014075
0.160219 0.198937 0.013880
0.193962 0.206057 0.012010
0.235923 0.228036 0.007615
0.295475 0.252764 0.003571
0.361981 0.268682 0.000824
0.423271 0.279025 0.000158
0.479511 0.281664 0.000449
0.531497 0.279233 0.000865
0.581026 0.276490 0.001944
0.628717 0.274375 0.002974
0.674376 0.272857 0.003958
0.718897 0.270227 0.005600
0.761315 0.267631 0.007090
0.799026 0.264095 0.008973
0.821963 0.258265 0.010820
0.828201 0.250666 0.011830
0.833096 0.244163 0.012909
0.838067 0.238630 0.014185
0.842677 0.234392 0.015525
0.847487 0.231679 0.016385
0.852869 0.232246 0.017097
0.858282 0.232802 0.017819
0.862837 0.232870 0.018855
0.867800 0.235068 0.019898
0.872841 0.236855 0.020551
0.877916 0.237978 0.021822
0.187143 0.242220 0.016494
0.189234 0.242496 0.016441
0.191325 0.242772 0.016387
0.193416 0.243048 0.016333
0.195538 0.243330 0.016282
0.197532 0.243416 0.016143
0.199550 0.243527 0.016005
0.201841 0.243910 0.015875
0.206757 0.244715 0.015703
0.247907 0.255597 0.012409
0.295941 0.288145 0.007328
0.358649 0.313287 0.004036
0.423941 0.329333 0.002079
0.480282 0.339049 0.001704
0.531634 0.341791 0.001732
0.582137 0.340121 0.003156
0.631701 0.337964 0.004060
0.679579 0.337609 0.005115
0.724595 0.335661 0.006374
0.768395 0.334162 0.007805
0.807380 0.333059 0.009518
0.832369 0.330770 0.011122
0.839516 0.326842 0.011822
0.845095 0.323993 0.012623
0.850774 0.321415 0.013380
0.855655 0.319186 0.013937
0.860820 0.318894 0.014768
0.866027 0.319505 0.015225
0.871239 0.319047 0.015842
0.875592 0.319141 0.016727
0.880174 0.320494 0.017598
0.884812 0.321753 0.018528
0.889587 0.322800 0.019451
0.233820 0.288580 0.019116
0.235658 0.288893 0.019055
0.237496 0.289207 0.018994
0.239334 0.289521 0.018933
0.241253 0.289820 0.018815
0.243444 0.290203 0.018616
0.245634 0.290586 0.018417
0.247825 0.290969 0.018217
0.250034 0.291346 0.018127
0.259919 0.292575 0.017878
0.310716 0.311768 0.013840
0.359817 0.352924 0.008951
0.421109 0.373591 0.006155
0.481526 0.388712 0.005070
0.533062 0.397820 0.003741
0.581575 0.401354 0.004032
0.630287 0.400617 0.005269
0.679741 0.399450 0.006151
0.726752 0.398338 0.007686
0.771538 0.396916 0.009367
0.812850 0.396634 0.010972
0.839896 0.395383 0.012121
0.848076 0.392719 0.012324
0.853848 0.391048 0.012557
0.859637 0.389657 0.013024
0.864445 0.387920 0.013526
0.869467 0.387817 0.014145
0.874531 0.387767 0.014475
0.879607 0.387441 0.014927
0.883900 0.387727 0.016115
0.888235 0.387866 0.016900
0.892657 0.388666 0.017838
0.897087 0.389449 0.018868
0.281194 0.335494 0.030035
0.283024 0.335831 0.029599
0.284855 0.336168 0.029162
0.286689 0.336502 0.028813
0.288539 0.336825 0.028729
0.290669 0.337246 0.028163
0.292798 0.337667 0.027596
0.294937 0.338085 0.027129
0.297111 0.338493 0.026940
0.299615 0.338405 0.026266
0.325432 0.343903 0.024058
0.374017 0.373750 0.017803
0.423019 0.415452 0.012287
0.478715 0.430860 0.010445
0.534086 0.443138 0.008865
0.583132 0.453204 0.007376
0.629672 0.457862 0.007216
0.676683 0.458387 0.007871
0.724753 0.457716 0.009009
0.771070 0.456578 0.010779
0.814135 0.456201 0.012132
0.844404 0.455121 0.013088
0.854616 0.453551 0.013631
0.860613 0.452075 0.013943
0.866600 0.451523 0.014158
0.871357 0.450061 0.014541
0.876231 0.450043 0.014978
0.881033 0.449277 0.015414
0.885924 0.449213 0.015911
0.890237 0.448850 0.016685
0.894576 0.448820 0.017471
0.898924 0.449269 0.018328
0.903252 0.449759 0.019225
0.326839 0.380228 0.058444
0.328647 0.380565 0.057233
0.330455 0.380902 0.056023
0.332242 0.381226 0.055199
0.334030 0.381548 0.054417
0.336060 0.381924 0.053130
0.338090 0.382299 0.051844
0.340154 0.382688 0.050798
0.342229 0.383081 0.049768
0.344369 0.383393 0.048277
0.349005 0.383777 0.045383
0.394243 0.396931 0.029536
0.435194 0.437313 0.022259
0.481008 0.472964 0.017129
0.530524 0.483130 0.016282
0.583328 0.494103 0.015088
0.631106 0.505450 0.012450
0.676372 0.510966 0.011077
0.722191 0.512558 0.010824
0.768626 0.512458 0.011880
0.812633 0.512314 0.013109
0.845343 0.512155 0.014355
0.858501 0.510635 0.014779
0.864675 0.509634 0.014969
0.870838 0.508852 0.015210
0.875721 0.507305 0.015692
0.880654 0.507228 0.016197
0.885547 0.506677 0.016689
0.890434 0.506708 0.017148
0.894907 0.506028 0.017875
0.899418 0.505997 0.018619
0.903914 0.505983 0.019387
0.908331 0.505449 0.020210
0.370083 0.422479 0.107023
0.371769 0.422808 0.105637
0.373516 0.423133 0.104251
0.375308 0.423454 0.102865
0.377102 0.423776 0.101477
0.378963 0.424136 0.099999
0.380897 0.424514 0.098429
0.382881 0.424905 0.096798
0.384870 0.425298 0.095155
0.387022 0.425750 0.093156
0.389123 0.426097 0.091109
0.403612 0.428608 0.076406
0.455931 0.454728 0.036868
0.491088 0.496248 0.027346
0.532759 0.524091 0.023716
0.579298 0.532362 0.023530
0.630594 0.543184 0.021613
0.677612 0.554974 0.017733
0.722178 0.561529 0.015291
0.767069 0.564300 0.014642
0.810417 0.565126 0.014381
0.845660 0.565706 0.015528
0.862099 0.565318 0.015882
0.868217 0.563766 0.015938
0.874473 0.563855 0.016084
0.879318 0.562062 0.016493
0.884187 0.561136 0.016929
0.889131 0.560779 0.017443
0.894148 0.560618 0.018079
0.898795 0.560405 0.018775
0.903436 0.560190 0.019472
0.908058 0.560008 0.020151
0.912599 0.559218 0.020802
0.410981 0.462819 0.161555
0.412622 0.463150 0.160379
0.414292 0.463487 0.159168
0.415962 0.463824 0.157958
0.417632 0.464162 0.156747
0.419363 0.464522 0.155433
0.421094 0.464882 0.154031
0.422825 0.465242 0.152630
0.424563 0.465604 0.151228
0.426058 0.465545 0.149000
0.428142 0.466020 0.147338
0.431990 0.466785 0.143947
0.466632 0.475379 0.106261
0.508575 0.510534 0.045914
0.540739 0.548987 0.034698
0.581520 0.572913 0.031787
0.627081 0.580195 0.031359
0.676292 0.590422 0.029482
0.722627 0.602709 0.023637
0.767134 0.610161 0.019026
0.809594 0.614317 0.017183
0.846343 0.615854 0.016988
0.866717 0.616164 0.017174
0.873026 0.615099 0.017188
0.879161 0.614626 0.017218
0.884013 0.614138 0.017497
0.888739 0.612777 0.017749
0.893588 0.612357 0.018261
0.898475 0.612173 0.018881
0.903014 0.611907 0.019561
0.907549 0.611639 0.020243
0.912088 0.611371 0.020811
0.916630 0.611103 0.021332
0.447888 0.500914 0.212753
0.449489 0.501235 0.211673
0.451089 0.501557 0.210593
0.452690 0.501878 0.209513
0.454295 0.502201 0.208426
0.456026 0.502561 0.207239
0.457757 0.502921 0.206052
0.459488 0.503281 0.204865
0.461224 0.503643 0.203667
0.462872 0.503799 0.201930
0.464499 0.503934 0.200164
0.465991 0.503925 0.198201
0.475746 0.505907 0.189931
0.524876 0.525578 0.128716
0.556227 0.563844 0.058476
0.587795 0.599672 0.042137
0.627382 0.619731 0.040258
0.672492 0.626761 0.039884
0.720856 0.636178 0.036334
0.767013 0.649099 0.028344
0.809514 0.657522 0.022284
0.847415 0.662787 0.019453
0.871417 0.664056 0.018961
0.878798 0.663679 0.018978
0.884740 0.663192 0.019027
0.889261 0.662712 0.019139
0.893762 0.662284 0.019286
0.898435 0.662100 0.019669
0.903091 0.661764 0.020050
0.907489 0.661117 0.020551
0.911947 0.660850 0.021005
0.916488 0.660590 0.021274
0.921030 0.660330 0.021542
0.481295 0.536744 0.261063
0.482850 0.537081 0.260129
0.484404 0.537418 0.259195
0.485959 0.537754 0.258257
0.487507 0.538076 0.257261
0.489139 0.538405 0.256211
0.490770 0.538735 0.255162
0.492405 0.539065 0.254109
0.494092 0.539412 0.252997
0.495854 0.539841 0.251856
0.497615 0.540270 0.250715
0.499222 0.540522 0.249314
0.501111 0.540195 0.246012
0.527443 0.546277 0.225585
0.573358 0.576379 0.156067
0.600293 0.614257 0.078121
0.630987 0.647298 0.049384
0.670591 0.665499 0.048053
0.716423 0.672974 0.046725
0.765550 0.681355 0.041910
0.808552 0.694550 0.033718
0.847027 0.702986 0.026747
0.875557 0.708457 0.023147
0.885392 0.709162 0.022213
0.891029 0.709157 0.021667
0.895229 0.709120 0.021465
0.899532 0.708896 0.021470
0.903894 0.708714 0.021550
0.908252 0.708483 0.021626
0.912583 0.707362 0.021612
0.917010 0.707155 0.021895
0.921437 0.706949 0.022179
0.925864 0.706742 0.022462
0.511352 0.571244 0.308379
0.512823 0.571574 0.307552
0.514302 0.571907 0.306713
0.515810 0.572251 0.305832
0.517320 0.572596 0.304951
0.518890 0.572964 0.304078
0.520466 0.573326 0.303186
0.522059 0.573671 0.302228
0.523654 0.574017 0.301271
0.525316 0.574415 0.300298
0.526984 0.574814 0.299308
0.528427 0.574914 0.297843
0.529929 0.575078 0.296463
0.537104 0.576484 0.291124
0.583317 0.591514 0.253131
0.616829 0.625908 0.185069
0.640867 0.662519 0.099830
0.671986 0.693254 0.056297
0.712652 0.710959 0.053065
0.760320 0.718323 0.050662
0.806780 0.726698 0.050985
0.844624 0.738768 0.049575
0.875999 0.747240 0.041016
0.890671 0.750370 0.036213
0.896137 0.751207 0.034245
0.900326 0.751363 0.032619
0.904454 0.751303 0.031412
0.908586 0.751290 0.030226
0.912745 0.751535 0.029161
0.916938 0.750783 0.028291
0.921214 0.750718 0.027841
0.925471 0.750437 0.027329
0.929753 0.750445 0.026900
0.537836 0.604023 0.353403
0.539290 0.604362 0.352693
0.540745 0.604699 0.351965
0.542200 0.605036 0.351238
0.543656 0.605373 0.350511
0.545184 0.605738 0.349725
0.546716 0.606098 0.348921
0.548248 0.606457 0.348117
0.549782 0.606819 0.347312
0.551413 0.607234 0.346431
0.553052 0.607648 0.345534
0.554520 0.607836 0.344321
0.555978 0.608009 0.343082
0.557248 0.607755 0.341084
0.580931 0.614360 0.327310
0.631347 0.639366 0.276090
0.656635 0.674528 0.209190
0.679571 0.709536 0.115777
0.712694 0.738455 0.062728
0.754965 0.755439 0.056646
0.801591 0.762676 0.055463
0.841928 0.770939 0.065988
0.873810 0.781011 0.075163
0.893445 0.786870 0.068905
0.899822 0.788539 0.065968
0.903832 0.788223 0.061782
0.907901 0.788842 0.058525
0.912024 0.789593 0.055654
0.916229 0.790129 0.053218
0.920267 0.790560 0.050247
0.924304 0.790989 0.047267
0.928357 0.790838 0.044452
0.932530 0.790951 0.042955
0.560078 0.633153 0.393022
0.561526 0.633529 0.392447
0.562973 0.633896 0.391856
0.564421 0.634241 0.391212
0.565869 0.634587 0.390569
0.567370 0.634985 0.389949
0.568874 0.635379 0.389306
0.570382 0.635762 0.388601
0.571893 0.636147 0.387897
0.573464 0.636615 0.387208
0.575040 0.637069 0.386484
0.576633 0.637491 0.385672
0.578230 0.637916 0.384863
0.579516 0.637905 0.383414
0.590494 0.640594 0.376718
0.635869 0.656094 0.348775
0.671618 0.686279 0.291136
0.692867 0.722563 0.217124
0.717195 0.755904 0.118924
0.752449 0.782394 0.064850
0.794700 0.796999 0.059681
0.836640 0.803556 0.059580
0.870752 0.810844 0.085040
0.893709 0.817363 0.096254
0.903266 0.820116 0.096478
0.907104 0.820760 0.094634
0.910880 0.820818 0.091018
0.914748 0.821806 0.088429
0.918616 0.822794 0.085841
0.922151 0.823441 0.082789
0.925873 0.824077 0.079404
0.929596 0.824713 0.076018
0.933318 0.825349 0.072633
0.575005 0.653620 0.420212
0.576468 0.654011 0.419753
0.577924 0.654394 0.419241
0.579372 0.654770 0.418666
0.580820 0.655146 0.418092
0.582306 0.655575 0.417564
0.583799 0.655989 0.416992
0.585300 0.656387 0.416371
0.586803 0.656788 0.415752
0.588373 0.657263 0.415186
0.589944 0.657734 0.414559
0.591514 0.658201 0.413869
0.593088 0.658670 0.413182
0.594726 0.659168 0.412539
0.598607 0.660338 0.410828
0.633042 0.671895 0.393792
0.679819 0.697081 0.348367
0.702251 0.731049 0.280207
0.723720 0.767237 0.195130
0.752582 0.797660 0.096779
0.791017 0.818401 0.064540
0.830824 0.829430 0.061524
0.865420 0.836334 0.070238
0.891837 0.841368 0.102869
0.905411 0.844461 0.113641
0.909694 0.845440 0.115771
0.913478 0.846420 0.114936
0.917261 0.847401 0.114101
0.921045 0.848381 0.113267
0.924038 0.848943 0.112306
0.927262 0.849594 0.109763
0.930487 0.850245 0.107220
0.933711 0.850896 0.104678
0.580566 0.661420 0.430382
0.582029 0.661811 0.429922
0.583492 0.662202 0.429462
0.584954 0.662592 0.428998
0.586402 0.662968 0.428424
0.587888 0.663397 0.427895
0.589374 0.663825 0.427367
0.590861 0.664252 0.426832
0.592364 0.664653 0.426214
0.593934 0.665128 0.425647
0.595505 0.665603 0.425080
0.597075 0.666077 0.424504
0.598648 0.666546 0.423817
0.600287 0.667044 0.423173
0.601926 0.667541 0.422530
0.627221 0.676073 0.411411
0.677525 0.699339 0.376119
0.704573 0.731920 0.313192
0.725229 0.768979 0.232147
0.751627 0.802049 0.132445
0.786687 0.826176 0.070764
0.825010 0.839866 0.063369
0.860683 0.847706 0.063797
0.887598 0.853541 0.095006
0.904651 0.857453 0.117350
0.910746 0.858871 0.121573
0.914514 0.859675 0.123917
0.918283 0.860482 0.126211
0.922067 0.861462 0.125376
0.924991 0.861997 0.124858
0.927901 0.862526 0.124345
0.930822 0.863058 0.123768
0.934046 0.863709 0.121225
0.584503 0.666942 0.437581
0.585965 0.667333 0.437121
0.587428 0.667724 0.436662
0.588891 0.668115 0.436202
0.590354 0.668505 0.435738
0.591840 0.668934 0.435210
0.593326 0.669363 0.434681
0.594812 0.669792 0.434153
0.596301 0.670222 0.433620
0.597871 0.670696 0.433053
0.599442 0.671171 0.432487
0.601012 0.671646 0.431920
0.602585 0.672122 0.431346
0.604224 0.672619 0.430702
0.605863 0.673117 0.430059
0.624250 0.679222 0.422403
0.672220 0.699422 0.394257
0.705183 0.731478 0.334888
0.725535 0.768357 0.256191
0.750425 0.803205 0.158424
0.783761 0.829141 0.077858
0.820304 0.844601 0.064458
0.855037 0.852845 0.063811
0.883555 0.858914 0.088300
0.902359 0.863078 0.114425
0.911214 0.865025 0.123923
0.914997 0.865833 0.126276
0.918765 0.866637 0.128620
0.922534 0.867444 0.130914
0.925458 0.867979 0.130395
0.928368 0.868508 0.129882
0.931279 0.869036 0.129369
0.934199 0.869569 0.128793
0.588298 0.672687 0.444669
0.589746 0.673115 0.444284
0.591209 0.673506 0.443824
0.592672 0.673896 0.443365
0.594136 0.674288 0.442906
0.595659 0.674746 0.442457
0.597145 0.675175 0.441929
0.598631 0.675604 0.441400
0.600118 0.676035 0.440873
0.601660 0.676517 0.440363
0.603230 0.676992 0.439797
0.604800 0.677467 0.439230
0.606370 0.677945 0.438663
0.607938 0.678485 0.438083
0.609577 0.678982 0.437440
0.622705 0.683431 0.432141
0.664560 0.700142 0.410514
0.706102 0.732997 0.353069
0.726765 0.769505 0.276515
0.750683 0.804922 0.181989
0.782117 0.832615 0.089560
0.817690 0.849337 0.066274
0.850711 0.858118 0.063962
0.878072 0.863930 0.081563
0.898553 0.868432 0.109924
0.910991 0.871142 0.126825
0.915079 0.872013 0.129577
0.918847 0.872817 0.131921
0.922615 0.873621 0.134265
0.925131 0.873226 0.145499
0.928041 0.873755 0.144985
0.930952 0.874284 0.144472
0.933863 0.874812 0.143959
0.592090 0.678439 0.451754
0.593537 0.678868 0.451371
0.594985 0.679296 0.450986
0.596448 0.679687 0.450526
0.597912 0.680079 0.450067
0.599436 0.680538 0.449623
0.600959 0.680996 0.449175
0.602445 0.681425 0.448646
0.603932 0.681856 0.448118
0.605472 0.682338 0.447613
0.607013 0.682820 0.447103
0.608583 0.683295 0.446537
0.610153 0.683773 0.445970
0.611716 0.684317 0.445395
0.613284 0.684857 0.444815
0.624433 0.688672 0.440408
0.663216 0.704268 0.421324
0.707484 0.735676 0.368855
0.729114 0.772333 0.292426
0.751915 0.807837 0.201739
0.781916 0.836427 0.103390
