example/ios/1917.cube
# Created by Benjamin (IWLTBAP): https://luts.iwltbap.com
# Copyright: (C) Copyright 2019 Triune Films and IWLTBAP SAS
# Cannot be resold, shared or otherwise redistributed
TITLE "Triune Films Cinematic LUTs V4 (Arri Alexa Log-C)"
LUT_3D_SIZE 9
0.000000 0.000000 0.000000
0.010082 0.001903 0.001610
0.142331 0.010123 0.002623
0.372655 0.017294 0.001740
0.580683 0.024804 0.003156
0.754898 0.058186 0.013270
0.795685 0.066220 0.022334
0.819842 0.072174 0.026033
0.843991 0.078353 0.028407
0.003666 0.015847 0.004524
0.016937 0.019119 0.003508
0.170087 0.037990 0.000829
0.380503 0.033541 0.000960
0.585513 0.034822 0.002594
0.759072 0.071718 0.012905
0.801053 0.080387 0.020889
0.825237 0.086156 0.025089
0.849250 0.092925 0.026829
0.028931 0.125225 0.009572
0.054230 0.125541 0.009170
0.182802 0.148551 0.004920
0.415808 0.174385 0.000022
0.612705 0.145169 0.001832
0.768531 0.100996 0.008925
0.806582 0.097432 0.016125
0.830644 0.102940 0.019906
0.854125 0.109851 0.021214
0.233820 0.288580 0.019116
0.241253 0.289820 0.018815
0.250034 0.291346 0.018127
0.421109 0.373591 0.006155
0.630287 0.400617 0.005269
0.812850 0.396634 0.010972
0.859637 0.389657 0.013024
0.879607 0.387441 0.014927
0.897087 0.389449 0.018868
0.410981 0.462819 0.161555
0.417632 0.464162 0.156747
0.424563 0.465604 0.151228
0.466632 0.475379 0.106261
0.627081 0.580195 0.031359
0.809594 0.614317 0.017183
0.879161 0.614626 0.017218
0.898475 0.612173 0.018881
0.916630 0.611103 0.021332
0.537836 0.604023 0.353403
0.543656 0.605373 0.350511
0.549782 0.606819 0.347312
0.555978 0.608009 0.343082
0.656635 0.674528 0.209190
0.801591 0.762676 0.055463
0.899822 0.788539 0.065968
0.916229 0.790129 0.053218
0.932530 0.790951 0.042955
0.584503 0.666942 0.437581
0.590354 0.668505 0.435738
0.596301 0.670222 0.433620
0.602585 0.672122 0.431346
0.672220 0.699422 0.394257
0.783761 0.829141 0.077858
0.902359 0.863078 0.114425
0.922534 0.867444 0.130914
0.934199 0.869569 0.128793
0.599672 0.689944 0.465924
0.605464 0.691659 0.464390
0.611561 0.693497 0.462610
0.617720 0.695431 0.460584
0.666426 0.715212 0.438923
0.783859 0.845081 0.131257
0.889924 0.885119 0.100512
0.922822 0.892164 0.144260
0.932805 0.890483 0.190190
0.613495 0.714752 0.492401
0.619225 0.716683 0.491052
0.625231 0.718829 0.489488
0.631358 0.721097 0.487676
0.674299 0.740504 0.469433
0.790143 0.864347 0.192981
0.877916 0.907321 0.090416
0.915078 0.914598 0.148096
0.927124 0.905121 0.266541
0.000081 0.000156 0.000156
0.006318 0.003390 0.003702
0.148293 0.004985 0.005186
0.375511 0.002621 0.003379
0.582218 0.013352 0.008964
0.755744 0.045925 0.029639
0.795743 0.055231 0.042812
0.819425 0.061276 0.049571
0.843521 0.068162 0.053191
0.002328 0.016241 0.010770
0.007312 0.021155 0.008652
0.175577 0.022057 0.003192
0.385833 0.006849 0.001805
0.588070 0.020392 0.008291
0.760258 0.059653 0.028768
0.801357 0.068674 0.042419
0.825526 0.075559 0.048124
0.849483 0.082249 0.052507
0.009790 0.124503 0.015165
0.024983 0.126273 0.010706
0.181710 0.148470 0.003362
0.422460 0.162397 0.001276
0.617407 0.104613 0.005948
0.770003 0.089008 0.022833
0.807561 0.086652 0.037036
0.831580 0.093069 0.042537
0.855034 0.100463 0.045374
0.226089 0.287686 0.019181
0.234126 0.288941 0.018583
0.242712 0.290293 0.017637
0.419629 0.373704 0.006821
0.631630 0.398623 0.010224
0.814839 0.393651 0.017009
0.861551 0.385991 0.022940
0.881026 0.383782 0.028119
0.898024 0.386706 0.035845
0.407523 0.462382 0.167137
0.413908 0.463341 0.162098
0.421206 0.464870 0.157021
0.464014 0.475147 0.116566
0.626276 0.579912 0.035402
0.809842 0.613722 0.027585
0.879558 0.614214 0.028233
0.898929 0.611919 0.030065
0.917032 0.610826 0.032895
0.535544 0.603750 0.356425
0.541394 0.605130 0.353595
0.547675 0.606728 0.350459
0.553801 0.607640 0.345930
0.656163 0.673130 0.220561
0.801063 0.762743 0.065077
0.899561 0.788177 0.083247
0.915974 0.789778 0.071024
0.932429 0.790971 0.060320
0.582449 0.666667 0.440155
0.588362 0.668291 0.438375
0.594615 0.670100 0.436347
0.601081 0.672091 0.434014
0.671018 0.699100 0.398286
0.782641 0.828709 0.093443
0.902097 0.863117 0.133348
0.922411 0.867475 0.148558
0.934199 0.869661 0.146932
0.597559 0.689577 0.468436
0.603503 0.691384 0.467086
0.609846 0.693344 0.465336
0.616282 0.695370 0.463280
0.665121 0.715092 0.442176
0.783363 0.844568 0.154173
0.889328 0.885108 0.120582
0.922638 0.892256 0.162823
0.932623 0.890636 0.207165
0.611473 0.714324 0.495158
0.617326 0.716346 0.493932
0.623486 0.718524 0.492337
0.629890 0.720945 0.490589
0.673153 0.740448 0.472876
0.789807 0.863437 0.214304
0.877247 0.907299 0.111296
0.914832 0.914598 0.168168
0.926970 0.905549 0.281701
0.004695 0.005334 0.006127
0.005129 0.009236 0.027972
0.113158 0.015281 0.059491
0.364934 0.000540 0.070438
0.567192 0.003495 0.088209
0.737988 0.015705 0.092767
0.778502 0.020954 0.102172
0.802058 0.024745 0.104431
0.823581 0.028494 0.107620
0.009680 0.015964 0.022929
0.008525 0.020838 0.041528
0.123244 0.020666 0.070197
0.372995 0.000000 0.067968
0.572361 0.004236 0.084072
0.742045 0.019380 0.090488
0.782703 0.025662 0.100744
0.806495 0.030465 0.103832
0.828563 0.035752 0.106498
0.002064 0.129925 0.113269
0.000731 0.132743 0.115657
0.128491 0.147724 0.123900
0.428475 0.105918 0.094961
0.603060 0.026063 0.072301
0.747445 0.026646 0.084110
0.789034 0.035583 0.096843
0.812956 0.041612 0.100951
0.835600 0.048138 0.105935
0.179904 0.282006 0.031793
0.189629 0.283256 0.030597
0.199703 0.284902 0.029990
0.412339 0.371723 0.009774
0.637419 0.389518 0.074811
0.820889 0.378978 0.107389
0.866114 0.370662 0.122925
0.883951 0.368097 0.130226
0.899918 0.372616 0.138873
0.402213 0.460423 0.170706
0.408963 0.461690 0.166561
0.416339 0.463280 0.161901
0.457935 0.472791 0.125851
0.625175 0.578607 0.039936
0.808878 0.611819 0.043248
0.879608 0.611878 0.047347
0.899003 0.609495 0.050270
0.917073 0.607937 0.054400
0.532573 0.602750 0.358096
0.538247 0.604070 0.355404
0.544037 0.605110 0.351831
0.550532 0.606500 0.348044
0.654633 0.670562 0.229091
0.800276 0.761938 0.076064
0.899321 0.787057 0.100560
0.915866 0.789819 0.091432
0.932179 0.790817 0.081421
0.580238 0.666422 0.442607
0.586308 0.668107 0.440979
0.592498 0.669885 0.438984
0.599057 0.671878 0.436713
0.669077 0.698492 0.402795
0.781751 0.828384 0.112759
0.900824 0.862964 0.150077
0.922258 0.867598 0.165524
0.934108 0.869723 0.164034
0.595410 0.689331 0.470948
0.601509 0.691169 0.469658
0.607701 0.693039 0.467941
0.614290 0.695155 0.465947
0.663216 0.714804 0.445630
0.782719 0.843816 0.177624
0.888880 0.885119 0.140870
0.922394 0.892257 0.180403
0.932500 0.890667 0.223555
0.609509 0.714140 0.497792
0.615393 0.716131 0.496597
0.621461 0.718247 0.495156
0.627898 0.720640 0.493408
0.671443 0.740272 0.476546
0.789727 0.862775 0.233172
0.876667 0.907216 0.134159
0.914494 0.914628 0.187412
0.926725 0.905885 0.295669
0.012971 0.036897 0.136039
0.014463 0.040283 0.148999
0.051723 0.052679 0.184758
0.288370 0.085345 0.209111
0.521174 0.018497 0.230976
0.702114 0.023934 0.251994
0.746304 0.027666 0.256012
0.771722 0.029860 0.257990
0.795919 0.032512 0.259552
0.015673 0.052673 0.141400
0.016305 0.056232 0.153037
0.047237 0.068966 0.193328
0.293154 0.093845 0.214523
0.524855 0.019173 0.232368
0.706063 0.025412 0.251819
0.750442 0.029758 0.256259
0.775832 0.032480 0.258460
0.799420 0.035381 0.260660
0.019623 0.074163 0.149206
0.019964 0.077226 0.158173
0.030620 0.087360 0.197001
0.292706 0.102638 0.219221
0.528422 0.020122 0.232816
0.709957 0.027229 0.250996
0.755416 0.032379 0.255626
0.780731 0.035483 0.257690
0.805516 0.039978 0.260949
0.007643 0.317809 0.301132
0.006808 0.318329 0.301955
0.004990 0.318557 0.302655
0.347056 0.361208 0.357502
0.635493 0.354651 0.349242
0.819656 0.313057 0.316452
0.864264 0.287082 0.308332
0.880259 0.282622 0.306942
0.893095 0.296789 0.314750
0.246124 0.446671 0.276181
0.252993 0.447079 0.274614
0.258262 0.447270 0.274343
0.332434 0.460596 0.277600
0.598753 0.572937 0.306837
0.808448 0.601219 0.320086
0.885242 0.596795 0.317129
0.903772 0.592871 0.315165
0.919845 0.591609 0.313883
0.497041 0.593022 0.369391
0.504306 0.594847 0.368043
0.511425 0.596281 0.365905
0.517561 0.597354 0.363500
0.644370 0.653762 0.291710
0.789875 0.757145 0.173705
0.899299 0.783633 0.202983
0.916880 0.784647 0.204361
0.931906 0.784950 0.206906
0.571700 0.665064 0.448389
0.578193 0.666824 0.446883
0.584808 0.668763 0.445271
0.591473 0.670870 0.443730
0.659359 0.695804 0.416950
0.777374 0.825636 0.194531
0.898770 0.863187 0.206098
0.921494 0.868148 0.219986
0.933583 0.870292 0.221044
0.589997 0.688434 0.475125
0.596301 0.690289 0.473857
0.602822 0.692296 0.472492
0.609640 0.694573 0.470754
0.656886 0.713111 0.453278
0.780476 0.840943 0.225402
0.885579 0.884691 0.186860
0.921597 0.892561 0.222995
0.932077 0.891090 0.265990
0.604910 0.713430 0.501921
0.610925 0.715440 0.500858
0.617231 0.717613 0.499605
0.623685 0.720035 0.498208
0.664767 0.738148 0.484169
0.788928 0.860266 0.269859
0.873453 0.906649 0.180450
0.913662 0.914671 0.226715
0.925965 0.906184 0.327117
0.054781 0.098252 0.238251
0.059655 0.100334 0.240966
0.069623 0.104056 0.245746
0.243180 0.143420 0.313922
0.439200 0.172129 0.338876
0.621392 0.166368 0.376850
0.673203 0.157035 0.387906
0.702992 0.147008 0.391045
0.731253 0.134519 0.392811
0.054568 0.110811 0.246955
0.059709 0.112852 0.249434
0.068228 0.115929 0.253251
0.246164 0.158990 0.323859
0.440415 0.177198 0.341270
0.624021 0.171029 0.379002
0.675985 0.161989 0.389983
0.706041 0.151941 0.392911
0.733680 0.140035 0.394451
0.053934 0.123432 0.255258
0.057884 0.124869 0.257568
0.063299 0.126759 0.259962
0.242687 0.173911 0.332403
0.441429 0.181999 0.343320
0.625438 0.176215 0.381159
0.679974 0.165495 0.391366
0.709858 0.156087 0.394505
0.737770 0.146194 0.396649
0.068383 0.274005 0.355755
0.069184 0.274924 0.357339
0.069521 0.276268 0.359305
0.122301 0.305376 0.412410
0.506828 0.297690 0.431795
0.650505 0.204915 0.398797
0.707371 0.183152 0.401205
0.738206 0.177984 0.405464
0.776153 0.188527 0.415988
0.067812 0.527410 0.515258
0.075270 0.527580 0.515738
0.083041 0.527427 0.516025
0.099362 0.527711 0.517585
0.543585 0.563053 0.576784
0.789287 0.571321 0.573914
0.873146 0.559377 0.556014
0.891094 0.556077 0.550541
0.903641 0.558113 0.550819
0.324706 0.611810 0.509272
0.328630 0.611684 0.508798
0.332887 0.611484 0.508284
0.338040 0.611551 0.508944
0.530314 0.634495 0.530710
0.748225 0.734154 0.558710
0.886788 0.771180 0.558741
0.908155 0.770592 0.551596
0.923420 0.769694 0.547052
0.442716 0.675450 0.533174
0.448078 0.675887 0.532911
0.453745 0.676453 0.532781
0.462885 0.677708 0.532982
0.546769 0.693519 0.538452
0.758906 0.796822 0.539614
0.881390 0.857959 0.529780
0.913912 0.866991 0.534400
0.927101 0.869583 0.536775
0.476753 0.696405 0.545096
0.482198 0.696957 0.544909
0.487073 0.697667 0.545215
0.495991 0.699172 0.545343
0.550963 0.710642 0.548019
0.768830 0.811103 0.541688
0.868893 0.877980 0.521194
0.912755 0.890229 0.533699
0.927666 0.893340 0.538444
0.503868 0.720099 0.563081
0.509077 0.720761 0.562898
0.514644 0.721787 0.563028
0.522411 0.723825 0.564080
0.569675 0.735081 0.565233
0.783832 0.832843 0.550268
0.859586 0.898035 0.523958
0.904043 0.911204 0.536339
0.922555 0.914086 0.557109
0.113527 0.159406 0.314446
0.118287 0.161401 0.316713
0.123451 0.163652 0.319348
0.189760 0.204105 0.369760
0.439146 0.241192 0.434075
0.569925 0.263333 0.460657
0.614300 0.272238 0.475953
0.636362 0.276714 0.483369
0.656900 0.280129 0.489583
0.113092 0.170273 0.321922
0.117673 0.172080 0.324125
0.122378 0.173966 0.326331
0.188207 0.213924 0.375729
0.442078 0.248600 0.439035
0.571954 0.268611 0.463428
0.616239 0.277230 0.478489
0.638324 0.281541 0.485871
0.658317 0.284605 0.491679
0.113411 0.181593 0.330813
0.117670 0.182895 0.332225
0.122138 0.184699 0.334194
0.185367 0.223939 0.381888
0.443215 0.256966 0.444735
0.572534 0.273410 0.465547
0.618629 0.282321 0.481298
0.640647 0.286495 0.488553
0.660007 0.288932 0.493761
0.111725 0.192898 0.339596
0.116159 0.194393 0.341144
0.121131 0.195844 0.342798
0.169564 0.224248 0.376721
0.442559 0.276111 0.458513
0.569506 0.276931 0.465966
0.622077 0.286667 0.483512
0.644015 0.290708 0.490559
0.664254 0.294554 0.496520
0.069738 0.506158 0.574714
0.069880 0.507582 0.576552
0.070702 0.509368 0.578948
0.072874 0.510007 0.581218
0.455503 0.554902 0.648330
0.678050 0.564510 0.664346
0.750316 0.550547 0.655890
0.772653 0.548557 0.653615
0.795119 0.551355 0.653396
0.284798 0.681696 0.677700
0.288610 0.682168 0.678399
0.292329 0.682560 0.679023
0.294762 0.682229 0.679553
0.418241 0.703498 0.707654
0.678904 0.715273 0.740103
0.849336 0.741373 0.748743
0.881797 0.742251 0.746585
0.900571 0.741482 0.741694
0.393790 0.749582 0.693881
0.397569 0.749835 0.694059
0.401565 0.750136 0.694262
0.405446 0.750291 0.694384
0.446425 0.754745 0.699591
0.681110 0.777611 0.737550
0.835424 0.834099 0.754977
0.894684 0.853244 0.757806
0.913648 0.856260 0.754212
0.421515 0.765155 0.695808
0.425505 0.765446 0.695962
0.429641 0.765774 0.696115
0.433654 0.766742 0.697431
0.459494 0.770505 0.700786
0.692391 0.806917 0.746104
0.834137 0.860812 0.754876
0.892411 0.880899 0.753269
0.914483 0.886633 0.753630
0.444584 0.783261 0.702898
0.448868 0.783733 0.703224
0.453582 0.784313 0.703610
0.458167 0.784875 0.703921
0.485266 0.790490 0.709195
0.705807 0.833291 0.756106
0.834885 0.881019 0.753953
0.887847 0.900841 0.752280
0.909054 0.905444 0.756731
0.150916 0.199855 0.361857
0.154697 0.201500 0.363433
0.159657 0.204028 0.366472
0.209063 0.237351 0.405614
0.451221 0.311725 0.514936
0.570633 0.316950 0.514781
0.606128 0.322717 0.523386
0.622393 0.327279 0.529798
0.638119 0.330696 0.535398
0.151464 0.209782 0.368907
0.155293 0.211441 0.370869
0.159030 0.212975 0.372486
0.208247 0.246500 0.411727
0.453391 0.322148 0.521177
0.573150 0.322915 0.518400
0.608334 0.328230 0.526532
0.624623 0.332694 0.532887
0.639983 0.335922 0.538239
0.151636 0.219848 0.376727
0.155332 0.221431 0.378575
0.159486 0.223445 0.380680
0.204457 0.253163 0.415369
0.453406 0.333437 0.527722
0.575205 0.329423 0.522612
0.610965 0.334227 0.530145
0.627209 0.338311 0.536219
0.642163 0.341113 0.541149
0.151193 0.230349 0.385281
0.155065 0.232060 0.387341
0.159118 0.233859 0.389238
0.186699 0.250252 0.408080
0.441231 0.345032 0.532645
0.573788 0.334960 0.525690
0.614087 0.340116 0.533726
0.630211 0.343951 0.539528
0.644877 0.346227 0.544026
0.135836 0.481218 0.588202
0.137872 0.483039 0.590423
0.140897 0.483921 0.591752
0.145177 0.482552 0.591188
0.396643 0.522910 0.653429
0.642939 0.552949 0.681843
0.700919 0.536212 0.669981
0.716410 0.534395 0.668677
0.734424 0.539353 0.671552
0.274030 0.684220 0.724998
0.277406 0.684837 0.725846
0.280482 0.685201 0.726627
0.283315 0.685425 0.727422
0.375887 0.706473 0.758432
0.662466 0.728362 0.788535
0.782309 0.733131 0.785979
0.805224 0.732964 0.785954
0.826872 0.734725 0.786657
0.386414 0.780577 0.771218
0.389887 0.781206 0.771765
0.393372 0.781868 0.772418
0.395772 0.781910 0.773450
0.411500 0.785856 0.777632
0.658589 0.815521 0.822056
0.786313 0.814874 0.823859
0.861569 0.833392 0.836477
0.893836 0.838968 0.840090
0.422774 0.815467 0.787870
0.426349 0.816063 0.788384
0.429912 0.816730 0.788942
0.433554 0.817622 0.789773
0.444686 0.820954 0.792762
0.675023 0.848163 0.829807
0.799734 0.852954 0.832961
0.865075 0.870837 0.841959
0.899973 0.881524 0.847142
0.438835 0.835833 0.795969
0.442784 0.836367 0.796445
0.446483 0.836939 0.796833
0.450465 0.837670 0.797361
0.461815 0.840440 0.799546
0.685099 0.864958 0.832440
0.804536 0.873873 0.836973
0.862933 0.889878 0.841241
0.894930 0.899176 0.845117
0.160885 0.210777 0.374559
0.164626 0.212254 0.376188
0.169339 0.215063 0.379153
0.213558 0.244788 0.414107
0.448358 0.324959 0.527925
0.573153 0.331598 0.530544
0.606845 0.336414 0.536936
0.622130 0.339871 0.541862
0.636846 0.343670 0.547288
0.161681 0.221041 0.382281
0.165296 0.222755 0.384178
0.168792 0.224016 0.385440
0.212975 0.253516 0.419860
0.449975 0.335187 0.533745
0.575873 0.337975 0.534668
0.609328 0.342116 0.540370
0.624490 0.345479 0.545080
0.638929 0.349003 0.550291
0.162591 0.231701 0.390982
0.166057 0.233234 0.392667
0.169526 0.234647 0.394082
0.209890 0.260540 0.423817
0.449209 0.346015 0.539650
0.578445 0.344860 0.539333
0.612183 0.348527 0.544452
0.627218 0.351548 0.548912
0.641229 0.354643 0.553694
0.162652 0.242398 0.400047
0.166271 0.244076 0.401879
0.170167 0.245581 0.403359
0.193136 0.258533 0.417969
0.435509 0.356267 0.542904
0.577890 0.352361 0.544623
0.615593 0.355641 0.549209
0.630198 0.358021 0.553057
0.643936 0.360816 0.557539
0.154161 0.472187 0.585970
0.156916 0.472458 0.586536
0.160976 0.472157 0.586703
0.166026 0.470204 0.585741
0.377649 0.509383 0.648696
0.634150 0.546135 0.684675
0.691057 0.530363 0.671962
0.706204 0.527602 0.669713
0.721483 0.530489 0.671388
0.278871 0.683027 0.740606
0.282359 0.683581 0.741461
0.285847 0.684287 0.742500
0.288315 0.683869 0.742981
0.368302 0.701967 0.771896
0.653830 0.727770 0.800447
0.770735 0.735284 0.798614
0.791297 0.734083 0.797259
0.809838 0.735049 0.797864
0.386047 0.785119 0.793182
0.389556 0.785691 0.793819
0.393048 0.786444 0.794555
0.396590 0.787354 0.795581
0.409861 0.790447 0.799731
0.660520 0.826421 0.849814
0.787912 0.824736 0.852253
0.837492 0.827307 0.849985
0.862800 0.831511 0.853194
0.425141 0.826133 0.812669
0.428755 0.826850 0.813231
0.432312 0.827526 0.813869
0.435993 0.828484 0.814756
0.445705 0.831484 0.817256
0.663613 0.863563 0.856561
0.790747 0.863932 0.866790
0.843720 0.866133 0.866940
0.883731 0.874907 0.874197
0.439106 0.847327 0.822354
0.443442 0.848048 0.822895
0.447415 0.848752 0.823515
0.451231 0.849924 0.825073
0.462744 0.852941 0.827717
0.674585 0.881773 0.861316
0.797129 0.884870 0.869385
0.847867 0.888979 0.870468
0.883384 0.896409 0.875018
0.169800 0.221283 0.386597
0.173203 0.222420 0.387887
0.177341 0.224446 0.390128
0.220289 0.253171 0.423788
0.446183 0.334546 0.536347
0.577501 0.346230 0.545866
0.609121 0.350085 0.550700
0.622355 0.351648 0.553608
0.636444 0.354553 0.557861
0.170626 0.231636 0.394500
0.174028 0.232895 0.396004
0.177402 0.234185 0.397387
0.219716 0.261428 0.428912
0.447146 0.344361 0.541775
0.580190 0.352907 0.550209
0.612004 0.356340 0.554596
0.625175 0.357869 0.557349
0.638806 0.360286 0.561143
0.171150 0.241291 0.402198
0.174854 0.243125 0.404213
0.178290 0.244628 0.405688
0.217033 0.268353 0.433011
0.446633 0.354645 0.547346
0.582970 0.360129 0.555058
0.615287 0.363271 0.559107
0.628336 0.364616 0.561644
0.641911 0.366921 0.565385
0.171975 0.251618 0.410898
0.175260 0.252964 0.412365
0.179189 0.254534 0.413906
0.200490 0.266396 0.427127
0.433779 0.364260 0.550026
0.582924 0.369200 0.561114
0.619217 0.371004 0.564388
0.632142 0.372102 0.566619
0.646392 0.375754 0.571401
0.168945 0.469865 0.588141
0.173587 0.470060 0.589016
0.178230 0.469868 0.589285
0.183223 0.468306 0.588575
0.378161 0.507287 0.650660
0.629867 0.548270 0.691001
0.687274 0.537496 0.681244
0.702155 0.531915 0.676389
0.717268 0.532729 0.676746
0.284950 0.683587 0.749412
0.288529 0.684081 0.750300
0.291999 0.684781 0.751343
0.294621 0.684311 0.751820
0.366597 0.700444 0.778681
0.652122 0.728434 0.806458
0.767348 0.737927 0.805544
0.786476 0.737293 0.804422
0.804324 0.737034 0.804339
0.389399 0.789620 0.806993
0.392893 0.790265 0.807637
0.396445 0.791002 0.808434
0.398420 0.790362 0.808581
0.412641 0.794488 0.813353
0.661341 0.830153 0.862795
0.787566 0.829237 0.865985
0.834165 0.830292 0.862381
0.856464 0.832495 0.864105
0.426753 0.832465 0.828753
0.430489 0.833049 0.829367
0.434195 0.833846 0.830073
0.437779 0.834765 0.830841
0.446934 0.837082 0.833177
0.660184 0.870436 0.873403
0.792057 0.871777 0.886668
0.844016 0.870241 0.884088
0.872491 0.871590 0.882789
0.439642 0.853345 0.838314
0.443782 0.853973 0.838894
0.447801 0.854682 0.839568
0.453215 0.856067 0.840908
0.464209 0.859234 0.844392
0.670653 0.889187 0.878573
0.792058 0.893808 0.890839
0.843021 0.894688 0.890769
0.872986 0.896210 0.891113
