example/ios/1917.cube
# Created by Benjamin (IWLTBAP): https://luts.iwltbap.com
# Copyright: (C) Copyright 2019 Triune Films and IWLTBAP SAS
# Cannot be resold, shared or otherwise redistributed
TITLE "Triune Films Cinematic LUTs V4 (Arri Alexa Log-C)"
LUT_3D_SIZE 5
0.000000 0.000000 0.000000
0.142331 0.010123 0.002623
0.580683 0.024804 0.003156
0.795685 0.066220 0.022334
0.843991 0.078353 0.028407
0.028931 0.125225 0.009572
0.182802 0.148551 0.004920
0.612705 0.145169 0.001832
0.806582 0.097432 0.016125
0.854125 0.109851 0.021214
0.410981 0.462819 0.161555
0.424563 0.465604 0.151228
0.627081 0.580195 0.031359
0.879161 0.614626 0.017218
0.916630 0.611103 0.021332
0.584503 0.666942 0.437581
0.596301 0.670222 0.433620
0.672220 0.699422 0.394257
0.902359 0.863078 0.114425
0.934199 0.869569 0.128793
0.613495 0.714752 0.492401
0.625231 0.718829 0.489488
0.674299 0.740504 0.469433
0.877916 0.907321 0.090416
0.927124 0.905121 0.266541
0.004695 0.005334 0.006127
0.113158 0.015281 0.059491
0.567192 0.003495 0.088209
0.778502 0.020954 0.102172
0.823581 0.028494 0.107620
0.002064 0.129925 0.113269
0.128491 0.147724 0.123900
0.603060 0.026063 0.072301
0.789034 0.035583 0.096843
0.835600 0.048138 0.105935
0.402213 0.460423 0.170706
0.416339 0.463280 0.161901
0.625175 0.578607 0.039936
0.879608 0.611878 0.047347
0.917073 0.607937 0.054400
0.580238 0.666422 0.442607
0.592498 0.669885 0.438984
0.669077 0.698492 0.402795
0.900824 0.862964 0.150077
0.934108 0.869723 0.164034
0.609509 0.714140 0.497792
0.621461 0.718247 0.495156
0.671443 0.740272 0.476546
0.876667 0.907216 0.134159
0.926725 0.905885 0.295669
0.054781 0.098252 0.238251
0.069623 0.104056 0.245746
0.439200 0.172129 0.338876
0.673203 0.157035 0.387906
0.731253 0.134519 0.392811
0.053934 0.123432 0.255258
0.063299 0.126759 0.259962
0.441429 0.181999 0.343320
0.679974 0.165495 0.391366
0.737770 0.146194 0.396649
0.067812 0.527410 0.515258
0.083041 0.527427 0.516025
0.543585 0.563053 0.576784
0.873146 0.559377 0.556014
0.903641 0.558113 0.550819
0.442716 0.675450 0.533174
0.453745 0.676453 0.532781
0.546769 0.693519 0.538452
0.881390 0.857959 0.529780
0.927101 0.869583 0.536775
0.503868 0.720099 0.563081
0.514644 0.721787 0.563028
0.569675 0.735081 0.565233
0.859586 0.898035 0.523958
0.922555 0.914086 0.557109
0.150916 0.199855 0.361857
0.159657 0.204028 0.366472
0.451221 0.311725 0.514936
0.606128 0.322717 0.523386
0.638119 0.330696 0.535398
0.151636 0.219848 0.376727
0.159486 0.223445 0.380680
0.453406 0.333437 0.527722
0.610965 0.334227 0.530145
0.642163 0.341113 0.541149
0.135836 0.481218 0.588202
0.140897 0.483921 0.591752
0.396643 0.522910 0.653429
0.700919 0.536212 0.669981
0.734424 0.539353 0.671552
0.386414 0.780577 0.771218
0.393372 0.781868 0.772418
0.411500 0.785856 0.777632
0.786313 0.814874 0.823859
0.893836 0.838968 0.840090
0.438835 0.835833 0.795969
0.446483 0.836939 0.796833
0.461815 0.840440 0.799546
0.804536 0.873873 0.836973
0.894930 0.899176 0.845117
0.169800 0.221283 0.386597
0.177341 0.224446 0.390128
0.446183 0.334546 0.536347
0.609121 0.350085 0.550700
0.636444 0.354553 0.557861
0.171150 0.241291 0.402198
0.178290 0.244628 0.405688
0.446633 0.354645 0.547346
0.615287 0.363271 0.559107
0.641911 0.366921 0.565385
0.168945 0.469865 0.588141
0.178230 0.469868 0.589285
0.378161 0.507287 0.650660
0.687274 0.537496 0.681244
0.717268 0.532729 0.676746
0.389399 0.789620 0.806993
0.396445 0.791002 0.808434
0.412641 0.794488 0.813353
0.787566 0.829237 0.865985
0.856464 0.832495 0.864105
0.439642 0.853345 0.838314
0.447801 0.854682 0.839568
0.464209 0.859234 0.844392
0.792058 0.893808 0.890839
0.872986 0.896210 0.891113
