example/ios/Bridges.cube
# Created by Benjamin (IWLTBAP): https://luts.iwltbap.com
# Copyright: (C) Copyright 2019 Triune Films and IWLTBAP SAS
# Cannot be resold, shared or otherwise redistributed
TITLE "Triune Films Cinematic LUTs V4 (Arri Alexa Log-C)"
LUT_3D_SIZE 5
0.000000 0.000000 0.000000
0.066995 0.002568 0.000420
0.571821 0.051276 0.015775
0.852940 0.102382 0.049408
0.916363 0.112682 0.056531
0.008466 0.049997 0.000676
0.077962 0.090163 0.001283
0.588119 0.175396 0.010098
0.855440 0.150201 0.043746
0.918047 0.159746 0.050362
0.200593 0.450791 0.073149
0.217735 0.458633 0.076819
0.558820 0.591512 0.079560
0.911444 0.622387 0.018436
0.973510 0.621221 0.015307
0.285173 0.650755 0.179130
0.304564 0.656975 0.181396
0.433842 0.703679 0.194723
0.869878 0.902965 0.081804
0.955391 0.927935 0.041823
0.276489 0.682159 0.186646
0.296991 0.688656 0.188943
0.388528 0.719807 0.197651
0.827722 0.922503 0.128820
0.912048 0.944397 0.268829
0.000053 0.003634 0.026705
0.048489 0.002602 0.071523
0.555076 0.000939 0.117935
0.845947 0.007632 0.135972
0.907611 0.009754 0.137660
0.000000 0.073165 0.064462
0.053372 0.085372 0.092006
0.585999 0.069796 0.110058
0.853325 0.041046 0.126932
0.913657 0.051763 0.133128
0.185208 0.442788 0.074632
0.204313 0.451624 0.078854
0.557566 0.589852 0.088760
0.912473 0.619541 0.057402
0.974390 0.618003 0.058970
0.278701 0.651974 0.188258
0.298161 0.658135 0.190556
0.428823 0.703980 0.205532
0.866829 0.901986 0.109055
0.955392 0.928119 0.073425
0.270910 0.684918 0.197186
0.291324 0.691169 0.199453
0.384112 0.721506 0.209338
0.826757 0.922272 0.153383
0.912267 0.945044 0.297205
0.003209 0.118296 0.382394
0.008244 0.126195 0.402187
0.428791 0.039989 0.460933
0.694254 0.033396 0.513163
0.765522 0.036039 0.528970
0.003332 0.139438 0.395795
0.007027 0.143925 0.406036
0.432073 0.047119 0.465131
0.701183 0.045949 0.515403
0.770222 0.056488 0.532040
0.037166 0.555178 0.555187
0.046129 0.555458 0.555507
0.536840 0.588359 0.617035
0.897382 0.566151 0.572533
0.948064 0.569500 0.574937
0.197903 0.715354 0.484826
0.219038 0.715541 0.481975
0.353143 0.730765 0.490383
0.854214 0.900526 0.471071
0.955254 0.928072 0.488570
0.188079 0.746174 0.471866
0.218157 0.747575 0.471754
0.312509 0.758631 0.477293
0.816859 0.928370 0.449491
0.932966 0.971185 0.480133
0.011764 0.276107 0.630619
0.018001 0.283041 0.640989
0.477651 0.354935 0.789711
0.672749 0.242472 0.726275
0.706064 0.248892 0.731261
0.013533 0.299159 0.640519
0.019531 0.303928 0.647449
0.477902 0.381839 0.794883
0.677962 0.255744 0.731108
0.708715 0.260166 0.734360
0.163439 0.554382 0.737245
0.172182 0.556129 0.740038
0.426484 0.619530 0.827508
0.775664 0.539725 0.807323
0.804334 0.546629 0.804528
0.245830 0.835455 0.809920
0.259308 0.836136 0.810172
0.296227 0.838538 0.812939
0.813721 0.856180 0.841448
0.913984 0.873445 0.862216
0.250539 0.898309 0.831550
0.265392 0.898809 0.831379
0.301428 0.901336 0.832240
0.819467 0.935780 0.846783
0.925456 0.966361 0.858092
0.023376 0.312683 0.675659
0.031268 0.317261 0.681621
0.472859 0.415937 0.814758
0.692779 0.303809 0.770000
0.718536 0.297058 0.764618
0.027683 0.334303 0.683762
0.036441 0.338522 0.689322
0.470361 0.435970 0.817561
0.700661 0.326332 0.775735
0.724031 0.313269 0.768908
0.188076 0.553819 0.763687
0.195986 0.555393 0.766096
0.408044 0.614217 0.841189
0.764559 0.558921 0.825598
0.798581 0.554206 0.824931
0.269891 0.855623 0.858310
0.281920 0.856513 0.858927
0.314294 0.859061 0.862636
0.831741 0.882170 0.898254
0.899153 0.878756 0.897979
0.271668 0.924316 0.881136
0.287596 0.924988 0.881352
0.334944 0.928656 0.884264
0.839179 0.960875 0.913563
0.922058 0.961456 0.916534
