example/ios/Bridges.cube
# Created by Benjamin (IWLTBAP): https://luts.iwltbap.com
# Copyright: (C) Copyright 2019 Triune Films and IWLTBAP SAS
# Cannot be resold, shared or otherwise redistributed
TITLE "Triune Films Cinematic LUTs V4 (Arri Alexa Log-C)"
LUT_3D_SIZE 9
0.000000 0.000000 0.000000
0.010548 0.000166 0.000095
0.066995 0.002568 0.000420
0.311414 0.017865 0.003757
0.571821 0.051276 0.015775
0.798258 0.095493 0.037404
0.852940 0.102382 0.049408
0.884781 0.107534 0.053298
0.916363 0.112682 0.056531
0.001254 0.010023 0.000244
0.009747 0.010746 0.000369
0.082996 0.017023 0.000500
0.317254 0.031396 0.003188
0.573355 0.072449 0.015111
0.798750 0.118435 0.037111
0.854580 0.124782 0.048829
0.886393 0.129260 0.053692
0.917558 0.134954 0.055806
0.008466 0.049997 0.000676
0.012675 0.052723 0.000745
0.077962 0.090163 0.001283
0.351451 0.155482 0.002906
0.588119 0.175396 0.010098
0.801563 0.160693 0.030927
0.855440 0.150201 0.043746
0.887008 0.154388 0.048705
0.918047 0.159746 0.050362
0.040978 0.231790 0.004805
0.048369 0.235690 0.005131
0.060084 0.241195 0.005640
0.342423 0.359034 0.014488
0.613057 0.398266 0.012222
0.832187 0.397841 0.012478
0.890368 0.391617 0.014209
0.919710 0.390118 0.016071
0.949380 0.391509 0.017098
0.200593 0.450791 0.073149
0.209241 0.454734 0.075038
0.217735 0.458633 0.076819
0.285458 0.488988 0.090162
0.558820 0.591512 0.079560
0.822963 0.626701 0.024891
0.911444 0.622387 0.018436
0.942432 0.620840 0.016772
0.973510 0.621221 0.015307
0.286187 0.601744 0.160961
0.294907 0.604806 0.162126
0.303776 0.607965 0.163348
0.312751 0.610825 0.164496
0.502331 0.684368 0.179289
0.735374 0.785373 0.108065
0.907793 0.831883 0.036743
0.945222 0.833507 0.027813
0.977156 0.834359 0.022487
0.285173 0.650755 0.179130
0.294700 0.653878 0.180323
0.304564 0.656975 0.181396
0.314618 0.660316 0.182533
0.433842 0.703679 0.194723
0.675339 0.812506 0.169392
0.869878 0.902965 0.081804
0.925504 0.921197 0.053835
0.955391 0.927935 0.041823
0.281569 0.666473 0.183242
0.291374 0.669569 0.184467
0.301574 0.672785 0.185600
0.311814 0.676127 0.186705
0.398550 0.706512 0.195449
0.661672 0.823113 0.181408
0.842615 0.911426 0.108710
0.913117 0.940424 0.069513
0.940853 0.945883 0.106559
0.276489 0.682159 0.186646
0.286722 0.685377 0.187780
0.296991 0.688656 0.188943
0.307866 0.692088 0.190138
0.388528 0.719807 0.197651
0.656274 0.837925 0.189807
0.827722 0.922503 0.128820
0.898854 0.955158 0.087963
0.912048 0.944397 0.268829
0.000000 0.000304 0.004992
0.009606 0.000077 0.008839
0.066245 0.000160 0.011296
0.311368 0.005046 0.016964
0.572675 0.026705 0.035287
0.802101 0.073864 0.061386
0.856853 0.081668 0.072733
0.888652 0.086458 0.077871
0.920126 0.093298 0.081017
0.000000 0.009466 0.008051
0.008689 0.009602 0.008909
0.086219 0.011463 0.009949
0.319613 0.017016 0.016268
0.576489 0.047156 0.035021
0.802872 0.097918 0.060789
0.858573 0.104256 0.072915
0.890190 0.111175 0.077904
0.921318 0.117644 0.081690
0.003754 0.047126 0.002531
0.008847 0.049628 0.002593
0.076051 0.089784 0.004060
0.354881 0.149175 0.017238
0.592710 0.160842 0.033788
0.805384 0.144066 0.057006
0.859606 0.133113 0.069145
0.891126 0.138362 0.074201
0.922077 0.145106 0.077053
0.032315 0.226623 0.006284
0.040219 0.230931 0.006451
0.049478 0.235651 0.006755
0.340169 0.358478 0.017520
0.613995 0.396593 0.026928
0.833051 0.396539 0.031685
0.891296 0.389749 0.038666
0.920664 0.388268 0.043136
0.950466 0.390090 0.045213
0.193156 0.447526 0.074340
0.201947 0.451258 0.076079
0.212095 0.455984 0.078360
0.280477 0.487290 0.092671
0.558101 0.591069 0.084334
0.823545 0.626050 0.040089
0.911956 0.622020 0.037608
0.942905 0.620643 0.036824
0.973970 0.621010 0.036128
0.281397 0.600966 0.164472
0.290391 0.604181 0.165667
0.300390 0.607734 0.166983
0.310258 0.610675 0.168112
0.500653 0.684260 0.184619
0.734853 0.785305 0.117042
0.907970 0.831389 0.049471
0.945516 0.832975 0.041405
0.977209 0.834338 0.037401
0.281133 0.651030 0.183479
0.290996 0.654245 0.184673
0.301839 0.657708 0.185900
0.312623 0.661262 0.187127
0.431735 0.703912 0.200145
0.674418 0.812279 0.178270
0.869477 0.902888 0.094825
0.925291 0.921258 0.068928
0.955392 0.927997 0.057683
0.277683 0.667027 0.187929
0.287852 0.670273 0.189215
0.298973 0.673766 0.190501
0.309946 0.677291 0.191667
0.396699 0.707177 0.201013
0.661135 0.823135 0.190381
0.842128 0.911334 0.121226
0.912931 0.940454 0.084576
0.940883 0.946006 0.121604
0.273002 0.683204 0.191854
0.283538 0.686419 0.193018
0.294572 0.689973 0.194244
0.306029 0.693559 0.195500
0.386386 0.720574 0.203539
0.654990 0.837611 0.199159
0.827278 0.922359 0.141076
0.898608 0.955126 0.102386
0.912080 0.944703 0.282922
0.000053 0.003634 0.026705
0.003314 0.004509 0.054998
0.048489 0.002602 0.071523
0.290664 0.000008 0.095115
0.555076 0.000939 0.117935
0.789007 0.005558 0.127683
0.845947 0.007632 0.135972
0.879834 0.009199 0.136489
0.907611 0.009754 0.137660
0.000341 0.009681 0.038280
0.002828 0.011371 0.059789
0.054245 0.005621 0.082848
0.298163 0.005067 0.093786
0.559624 0.010386 0.114599
0.792085 0.018737 0.124766
0.849463 0.022394 0.133515
0.882687 0.024842 0.134742
0.909797 0.027260 0.135701
0.000000 0.073165 0.064462
0.001661 0.075292 0.066320
0.053372 0.085372 0.092006
0.359381 0.101193 0.107243
0.585999 0.069796 0.110058
0.795326 0.034281 0.116611
0.853325 0.041046 0.126932
0.886166 0.045849 0.128902
0.913657 0.051763 0.133128
0.004769 0.209994 0.010635
0.008598 0.211841 0.010734
0.013781 0.214936 0.011303
0.330247 0.353971 0.032966
0.621140 0.387872 0.088969
0.839926 0.385357 0.118430
0.898511 0.376895 0.128214
0.927939 0.374149 0.131688
0.957491 0.375954 0.133447
0.185208 0.442788 0.074632
0.193834 0.446715 0.076447
0.204313 0.451624 0.078854
0.270467 0.482082 0.093266
0.557566 0.589852 0.088760
0.822908 0.623903 0.055828
0.912473 0.619541 0.057402
0.943452 0.618166 0.058363
0.974390 0.618003 0.058970
0.278412 0.600168 0.167928
0.286942 0.603234 0.169123
0.295651 0.605888 0.170082
0.305982 0.609364 0.171266
0.498757 0.683118 0.189445
0.734482 0.784707 0.125198
0.908397 0.829945 0.062604
0.945804 0.832919 0.056184
0.977330 0.834057 0.053182
0.278701 0.651974 0.188258
0.288293 0.655009 0.189331
0.298161 0.658135 0.190556
0.309309 0.661750 0.191842
0.428823 0.703980 0.205532
0.673806 0.812242 0.187018
0.866829 0.901986 0.109055
0.925167 0.921319 0.083476
0.955392 0.928119 0.073425
0.275224 0.668401 0.192863
0.285306 0.671435 0.193996
0.295330 0.674501 0.195221
0.306850 0.678118 0.196569
0.393937 0.707681 0.206367
0.660114 0.822952 0.199483
0.841648 0.911254 0.133771
0.912655 0.940485 0.098883
0.940943 0.946190 0.136554
0.270910 0.684918 0.197186
0.281087 0.688013 0.198320
0.291324 0.691169 0.199453
0.302996 0.694693 0.200771
0.384112 0.721506 0.209338
0.654258 0.837644 0.208468
0.826757 0.922272 0.153383
0.898362 0.955126 0.116414
0.912267 0.945044 0.297205
0.002008 0.035457 0.198138
0.003737 0.039754 0.212455
0.018062 0.066475 0.298371
0.232334 0.012926 0.266553
0.491721 0.002548 0.295061
0.735995 0.003823 0.329019
0.797140 0.005382 0.336410
0.833387 0.006532 0.339039
0.865167 0.007233 0.339761
0.002299 0.045791 0.205732
0.004021 0.049543 0.217504
0.016586 0.075730 0.300553
0.238844 0.015665 0.272918
0.495222 0.007558 0.296269
0.739341 0.013268 0.328259
0.800557 0.015999 0.335635
0.836835 0.017624 0.338392
0.866954 0.019654 0.340189
0.002054 0.060135 0.213140
0.004043 0.063933 0.223882
0.011246 0.084052 0.289704
0.240159 0.019853 0.280354
0.498348 0.012625 0.296020
0.742363 0.023130 0.326208
0.805384 0.026964 0.333309
0.841132 0.028894 0.335588
0.873456 0.039081 0.339991
0.000804 0.316104 0.306488
0.002527 0.316279 0.307233
0.004168 0.316069 0.308031
0.304261 0.351234 0.380829
0.618744 0.345913 0.350099
0.834589 0.332546 0.343731
0.892367 0.315223 0.344177
0.918580 0.311378 0.344254
0.942007 0.322636 0.351475
0.028999 0.436137 0.209164
0.031603 0.434790 0.204287
0.034780 0.435189 0.203067
0.130787 0.463658 0.207914
0.547590 0.589337 0.293410
0.833328 0.608026 0.296357
0.924264 0.602699 0.298680
0.955722 0.600390 0.298808
0.982809 0.600173 0.298413
0.222428 0.581274 0.183748
0.231484 0.584543 0.185426
0.240639 0.587536 0.186923
0.248901 0.590132 0.188719
0.475262 0.675964 0.218491
0.723025 0.778314 0.180336
0.913235 0.824872 0.151200
0.952514 0.825538 0.157046
0.979194 0.825936 0.166014
0.266261 0.652349 0.201215
0.276478 0.655501 0.202045
0.286322 0.658643 0.203169
0.297004 0.662223 0.204905
0.412837 0.702071 0.219670
0.668080 0.810791 0.217003
0.862640 0.901132 0.154107
0.924036 0.921642 0.133660
0.955376 0.928691 0.127416
0.267847 0.669927 0.202451
0.277901 0.672897 0.203408
0.288233 0.676035 0.204406
0.299870 0.679656 0.205752
0.383075 0.707078 0.216085
0.655685 0.821654 0.219282
0.836006 0.909218 0.166260
0.911565 0.940545 0.136155
0.940964 0.946694 0.174814
0.264524 0.687315 0.206403
0.275025 0.690400 0.207523
0.285880 0.693615 0.208658
0.297070 0.697046 0.210141
0.372310 0.721065 0.219085
0.650299 0.836579 0.227264
0.821569 0.920201 0.180404
0.897515 0.955099 0.147245
0.914105 0.947034 0.341225
0.003209 0.118296 0.382394
0.005023 0.121104 0.389576
0.008244 0.126195 0.402187
0.161484 0.149223 0.525660
0.428791 0.039989 0.460933
0.631988 0.030242 0.496577
0.694254 0.033396 0.513163
0.730665 0.034900 0.521556
0.765522 0.036039 0.528970
0.003239 0.127920 0.387980
0.005107 0.130941 0.395671
0.007957 0.135215 0.405926
0.165036 0.166027 0.539663
0.430534 0.043700 0.463333
0.634563 0.035414 0.498028
0.697242 0.039769 0.514757
0.733599 0.041876 0.522954
0.766149 0.043401 0.529587
0.003332 0.139438 0.395795
0.005133 0.141303 0.399887
0.007027 0.143925 0.406036
0.157404 0.186483 0.553029
0.432073 0.047119 0.465131
0.636136 0.040921 0.499639
0.701183 0.045949 0.515403
0.737517 0.048652 0.524095
0.770222 0.056488 0.532040
0.012682 0.317544 0.501967
0.014881 0.318438 0.504307
0.017170 0.319719 0.506690
0.114888 0.371227 0.602825
0.532866 0.195839 0.573938
0.670963 0.081870 0.518192
0.733336 0.080674 0.525630
0.771035 0.107016 0.538764
0.819878 0.166114 0.559778
0.037166 0.555178 0.555187
0.041760 0.555447 0.555407
0.046129 0.555458 0.555507
0.056264 0.555973 0.556592
0.536840 0.588359 0.617035
0.800178 0.573386 0.576221
0.897382 0.566151 0.572533
0.926591 0.564965 0.571526
0.948064 0.569500 0.574937
0.180182 0.664017 0.514905
0.189217 0.664196 0.514386
0.197631 0.664087 0.513292
0.205872 0.664001 0.514077
0.467428 0.695661 0.544992
0.714399 0.766560 0.541675
0.913104 0.801962 0.534431
0.950244 0.801652 0.531669
0.976993 0.802046 0.531568
0.197903 0.715354 0.484826
0.208628 0.715478 0.483553
0.219038 0.715541 0.481975
0.229290 0.716062 0.481728
0.353143 0.730765 0.490383
0.659093 0.830403 0.506352
0.854214 0.900526 0.471071
0.923828 0.922095 0.481236
0.955254 0.928072 0.488570
0.194802 0.728959 0.471989
0.206628 0.729297 0.471302
0.218183 0.730029 0.471839
0.229161 0.730544 0.470867
0.313219 0.740333 0.475693
0.644481 0.846172 0.492013
0.828342 0.912901 0.454300
0.911071 0.943454 0.465633
0.944923 0.952914 0.471806
0.188079 0.746174 0.471866
0.201775 0.746623 0.471595
0.218157 0.747575 0.471754
0.235332 0.749735 0.474532
0.312509 0.758631 0.477293
0.640066 0.866465 0.478237
0.816859 0.928370 0.449491
0.899040 0.959884 0.456882
0.932966 0.971185 0.480133
0.005096 0.208980 0.538617
0.007118 0.211716 0.543648
0.009223 0.214931 0.549457
0.050202 0.279864 0.657512
0.460122 0.174938 0.671421
0.605606 0.141384 0.632833
0.655262 0.148025 0.646051
0.681472 0.150444 0.653138
0.704625 0.151430 0.658655
0.005182 0.220231 0.544543
0.007228 0.222850 0.549224
0.009261 0.225048 0.552853
0.051968 0.291248 0.661325
0.465508 0.185643 0.678490
0.608097 0.146791 0.635329
0.657584 0.153354 0.648184
0.683807 0.155802 0.655169
0.705051 0.156293 0.659662
0.005305 0.233050 0.551511
0.007339 0.234570 0.553883
0.009413 0.236550 0.557053
0.052837 0.303760 0.665134
0.467056 0.198050 0.686092
0.608994 0.151900 0.637400
0.660205 0.158779 0.650384
0.686626 0.161276 0.657195
0.705630 0.160943 0.660519
0.005344 0.246322 0.555484
0.007440 0.248436 0.558948
0.009548 0.250644 0.562974
0.037514 0.298887 0.640096
0.465279 0.235203 0.703900
0.606029 0.155846 0.637869
0.663804 0.162899 0.651444
0.690060 0.165195 0.658103
0.711480 0.171679 0.663529
0.104465 0.563387 0.681054
0.108994 0.564011 0.682274
0.114216 0.564845 0.684083
0.121891 0.564948 0.687385
0.487814 0.617285 0.767180
0.720190 0.558435 0.756524
0.805745 0.530458 0.756670
0.824420 0.531696 0.754475
0.843024 0.540326 0.752190
0.193886 0.721746 0.714604
0.198964 0.722065 0.714777
0.204007 0.722196 0.714908
0.208313 0.721575 0.715029
0.392344 0.742754 0.734310
0.692641 0.746845 0.758711
0.864580 0.757973 0.760988
0.902661 0.760284 0.762374
0.930457 0.763714 0.764390
0.230849 0.799511 0.714510
0.240568 0.799796 0.714172
0.251183 0.800166 0.713949
0.262433 0.800496 0.713738
0.345316 0.805248 0.713875
0.669623 0.838345 0.745104
0.831819 0.880100 0.749706
0.909909 0.900059 0.750507
0.944345 0.905327 0.753063
0.230030 0.818047 0.708269
0.241475 0.818560 0.707917
0.253921 0.819210 0.707618
0.266948 0.820373 0.708725
0.316669 0.823312 0.707640
0.658878 0.866640 0.739294
0.820294 0.913844 0.742388
0.905138 0.939306 0.735823
0.938113 0.946343 0.736257
0.228326 0.835713 0.708156
0.240490 0.836831 0.708055
0.257359 0.838415 0.708193
0.273519 0.839490 0.708035
0.341085 0.844919 0.710513
0.654226 0.890124 0.737223
0.819969 0.942428 0.736143
0.905031 0.968457 0.725546
0.934331 0.974073 0.729865
0.011764 0.276107 0.630619
0.014400 0.277937 0.633107
0.018001 0.283041 0.640989
0.080330 0.338790 0.714372
0.477651 0.354935 0.789711
0.638910 0.246342 0.735250
0.672749 0.242472 0.726275
0.690182 0.246674 0.728766
0.706064 0.248892 0.731261
0.012855 0.288588 0.637666
0.015594 0.290412 0.640180
0.018087 0.291546 0.641574
0.082661 0.348385 0.716755
0.479416 0.367371 0.792108
0.641837 0.253976 0.738348
0.675263 0.248951 0.728640
0.692807 0.253175 0.731004
0.707457 0.254869 0.733053
0.013533 0.299159 0.640519
0.016270 0.300836 0.642812
0.019531 0.303928 0.647449
0.077625 0.352317 0.711259
0.477902 0.381839 0.794883
0.643872 0.262371 0.741930
0.677962 0.255744 0.731108
0.695522 0.259540 0.733136
0.708715 0.260166 0.734360
0.014120 0.311150 0.643741
0.017310 0.313600 0.647356
0.020237 0.315519 0.650061
0.051129 0.341624 0.685164
0.458584 0.405197 0.798850
0.642172 0.271065 0.745597
0.681243 0.262536 0.733389
0.698244 0.265312 0.734902
0.709855 0.264514 0.735023
0.163439 0.554382 0.737245
0.168107 0.555557 0.738916
0.172182 0.556129 0.740038
0.175422 0.555333 0.740340
0.426484 0.619530 0.827508
0.701337 0.576189 0.817797
0.775664 0.539725 0.807323
0.788628 0.538954 0.805886
0.804334 0.546629 0.804528
0.215287 0.737847 0.781765
0.219894 0.738226 0.782240
0.224485 0.738474 0.782795
0.229106 0.738583 0.783507
0.374172 0.762022 0.814431
0.692960 0.770815 0.837215
0.820306 0.753066 0.835391
0.847095 0.750936 0.838809
0.867159 0.752533 0.840048
0.245830 0.835455 0.809920
0.252577 0.835786 0.809999
0.259308 0.836136 0.810172
0.265993 0.835829 0.810830
0.296227 0.838538 0.812939
0.671280 0.864787 0.838290
0.813721 0.856180 0.841448
0.881877 0.868231 0.856212
0.913984 0.873445 0.862216
0.250318 0.875946 0.825243
0.258087 0.876283 0.825272
0.265851 0.876635 0.825301
0.273801 0.877195 0.825591
0.297383 0.879571 0.826955
0.670931 0.903406 0.840789
0.818717 0.907811 0.845188
0.886118 0.925770 0.855052
0.925041 0.935740 0.862279
0.250539 0.898309 0.831550
0.258504 0.898604 0.831492
0.265392 0.898809 0.831379
0.273394 0.899178 0.831360
0.301428 0.901336 0.832240
0.673016 0.923375 0.840530
0.819467 0.935780 0.846783
0.889349 0.956348 0.854210
0.925456 0.966361 0.858092
0.016250 0.295374 0.654763
0.019288 0.297012 0.656838
0.024084 0.301982 0.664154
0.087215 0.350627 0.725420
0.473879 0.390195 0.803932
0.648460 0.281010 0.761505
0.683014 0.272563 0.750114
0.698480 0.273778 0.748727
0.712470 0.276203 0.749748
0.018781 0.307410 0.660972
0.021816 0.309100 0.663186
0.024491 0.310303 0.664666
0.089095 0.359373 0.726804
0.475106 0.401338 0.805833
0.651389 0.290662 0.764325
0.685254 0.278824 0.752172
0.700779 0.280122 0.750780
0.713969 0.282267 0.751584
0.019719 0.317885 0.663971
0.023175 0.320202 0.667199
0.026521 0.322259 0.669902
0.085919 0.365041 0.723965
0.472677 0.414312 0.807989
0.654846 0.304047 0.768179
0.687897 0.286310 0.754537
0.703292 0.286741 0.752928
0.715228 0.287756 0.753119
0.023164 0.331830 0.670322
0.026046 0.333118 0.671828
0.029759 0.335293 0.674889
0.059687 0.355797 0.701106
0.450803 0.432575 0.810639
0.656371 0.326210 0.775365
0.691109 0.294670 0.757254
0.705917 0.293527 0.755272
0.716882 0.293799 0.755008
0.176823 0.550476 0.751430
0.180215 0.550978 0.752014
0.183917 0.551437 0.752870
0.188647 0.550993 0.754681
0.403257 0.612545 0.835205
0.693244 0.578019 0.828848
0.769333 0.539880 0.815934
0.785457 0.538782 0.816059
0.798292 0.546481 0.815854
0.238112 0.745849 0.811273
0.242745 0.746368 0.811945
0.247381 0.746979 0.812762
0.251961 0.746634 0.813492
0.381686 0.769196 0.846593
0.693257 0.781523 0.866588
0.818017 0.764848 0.859309
0.843887 0.761917 0.859710
0.861342 0.762404 0.860282
0.258258 0.845873 0.838722
0.264546 0.846210 0.838893
0.270666 0.846657 0.839185
0.277035 0.847270 0.839713
0.304149 0.849526 0.842613
0.679387 0.878243 0.873270
0.826186 0.873367 0.879549
0.874073 0.869671 0.879885
0.897754 0.871361 0.884111
0.260387 0.891050 0.853530
0.267704 0.891335 0.853634
0.275426 0.891714 0.853727
0.283154 0.892342 0.854102
0.303160 0.894374 0.855322
0.659941 0.922387 0.878223
0.827580 0.920430 0.884358
0.880943 0.919002 0.886086
0.917851 0.927068 0.896913
0.258107 0.914293 0.861865
0.268077 0.914718 0.861946
0.277319 0.915158 0.862069
0.285818 0.916125 0.863273
0.317913 0.918357 0.864410
0.676871 0.944242 0.883043
0.831117 0.948026 0.886976
0.887399 0.952474 0.890684
0.922031 0.961322 0.897021
0.023376 0.312683 0.675659
0.026174 0.313643 0.676746
0.031268 0.317261 0.681621
0.098047 0.363931 0.738468
0.472859 0.415937 0.814758
0.661849 0.329193 0.783869
0.692779 0.303809 0.770000
0.704818 0.297631 0.765916
0.718536 0.297058 0.764618
0.026129 0.324592 0.681740
0.029568 0.325885 0.683312
0.032917 0.327027 0.684610
0.099775 0.372477 0.739870
0.472948 0.425906 0.816203
0.665020 0.341950 0.786783
0.696308 0.313520 0.772639
0.708101 0.306195 0.768278
0.720533 0.303444 0.766184
0.027683 0.334303 0.683762
0.032996 0.337438 0.688081
0.036441 0.338522 0.689322
0.097783 0.378754 0.738146
0.470361 0.435970 0.817561
0.667998 0.355558 0.789861
0.700661 0.326332 0.775735
0.712365 0.317667 0.771254
0.724031 0.313269 0.768908
0.032030 0.347816 0.689655
0.035411 0.348835 0.690740
0.040149 0.351086 0.693731
0.071192 0.369557 0.716468
0.449840 0.451180 0.819682
0.667364 0.376498 0.795661
0.705762 0.340273 0.779298
0.717347 0.330320 0.774636
0.732051 0.333843 0.775113
0.188076 0.553819 0.763687
0.192444 0.555002 0.765380
0.195986 0.555393 0.766096
0.199575 0.554823 0.767160
0.408044 0.614217 0.841189
0.687457 0.588238 0.836544
0.764559 0.558921 0.825598
0.782863 0.551051 0.823651
0.798581 0.554206 0.824931
0.253687 0.751644 0.827846
0.258266 0.752222 0.828605
0.262797 0.752833 0.829432
0.267726 0.752492 0.830343
0.383794 0.773942 0.862694
0.695930 0.786214 0.876410
0.816754 0.772966 0.870216
0.841679 0.770631 0.870170
0.862733 0.770501 0.871540
0.269891 0.855623 0.858310
0.275860 0.855991 0.858558
0.281920 0.856513 0.858927
0.287748 0.855621 0.858954
0.314294 0.859061 0.862636
0.690580 0.887083 0.895045
0.831741 0.882170 0.898254
0.877142 0.878536 0.896543
0.899153 0.878756 0.897979
0.272033 0.901825 0.873840
0.279047 0.902100 0.873962
0.286241 0.902500 0.874148
0.292988 0.903053 0.874455
0.312314 0.904429 0.875613
0.666578 0.932976 0.901303
0.838725 0.932545 0.908409
0.889167 0.929569 0.909045
0.913876 0.928569 0.909922
0.271668 0.924316 0.881136
0.279666 0.924638 0.881228
0.287596 0.924988 0.881352
0.305897 0.926136 0.882070
0.334944 0.928656 0.884264
0.684019 0.954280 0.905003
0.839179 0.960875 0.913563
0.895199 0.962006 0.915790
0.922058 0.961456 0.916534
