example/ios/Bridges.cube
# Created by Benjamin (IWLTBAP): https://luts.iwltbap.com
# Copyright: (C) Copyright 2019 Triune Films and IWLTBAP SAS
# Cannot be resold, shared or otherwise redistributed
TITLE "Triune Films Cinematic LUTs V4 (Arri Alexa Log-C)"
LUT_3D_SIZE 33
0.000000 0.000000 0.000000
0.001248 0.000023 0.000008
0.002579 0.000048 0.000016
0.006351 0.000110 0.000049
0.010548 0.000166 0.000095
0.018515 0.000327 0.000127
0.025790 0.000675 0.000174
0.040501 0.001240 0.000304
0.066995 0.002568 0.000420
0.114485 0.004801 0.000743
0.176212 0.007830 0.001367
0.243845 0.012360 0.002332
0.311414 0.017865 0.003757
0.379177 0.024128 0.005706
0.446316 0.031543 0.008491
0.510963 0.041095 0.012070
0.571821 0.051276 0.015775
0.631510 0.062134 0.020461
0.690616 0.074626 0.026030
0.748094 0.085805 0.032134
0.798258 0.095493 0.037404
0.827868 0.100452 0.041610
0.836796 0.100734 0.044919
0.844986 0.101120 0.047788
0.852940 0.102382 0.049408
0.860874 0.103791 0.050544
0.868915 0.104807 0.052233
0.876824 0.106260 0.052685
0.884781 0.107534 0.053298
0.892813 0.108365 0.055125
0.900641 0.109935 0.055661
0.908490 0.111380 0.056133
0.916363 0.112682 0.056531
0.000092 0.001226 0.000038
0.001180 0.001248 0.000046
0.002511 0.001273 0.000054
0.006435 0.001473 0.000079
0.010605 0.001588 0.000123
0.019040 0.001876 0.000150
0.026979 0.002322 0.000192
0.042699 0.003002 0.000312
0.070143 0.004506 0.000435
0.117613 0.006870 0.000751
0.178683 0.010213 0.001386
0.245777 0.015135 0.002401
0.313015 0.020997 0.003810
0.380517 0.027605 0.005745
0.447358 0.035526 0.008552
0.511843 0.045706 0.012115
0.572549 0.056620 0.015853
0.632152 0.067747 0.020569
0.691191 0.080309 0.026145
0.748584 0.091534 0.032249
0.798626 0.101306 0.037526
0.828346 0.105804 0.041709
0.837218 0.106290 0.045093
0.845384 0.106765 0.047987
0.853338 0.108027 0.049607
0.861287 0.109258 0.050721
0.869328 0.110268 0.052409
0.877238 0.111721 0.052861
0.885194 0.112995 0.053474
0.893174 0.113766 0.055316
0.901000 0.115335 0.055852
0.908850 0.116780 0.056324
0.916723 0.118082 0.056722
0.000188 0.002508 0.000079
0.001276 0.002531 0.000086
0.002414 0.002555 0.000094
0.006356 0.002774 0.000118
0.010693 0.003015 0.000155
0.019017 0.003409 0.000173
0.027820 0.003936 0.000215
0.044304 0.004741 0.000325
0.073304 0.006452 0.000450
0.120731 0.008902 0.000731
0.180981 0.012501 0.001368
0.247546 0.017762 0.002432
0.314615 0.024037 0.003810
0.381700 0.031061 0.005773
0.448327 0.039459 0.008570
0.512764 0.050093 0.012172
0.573330 0.061714 0.015991
0.632787 0.073369 0.020660
0.691783 0.085868 0.026231
0.749067 0.097289 0.032324
0.799065 0.107002 0.037655
0.828713 0.111617 0.041831
0.837705 0.111603 0.045156
0.845833 0.112218 0.048060
0.853767 0.113558 0.049774
0.861701 0.114846 0.050904
0.869741 0.115734 0.052586
0.877652 0.117182 0.053037
0.885606 0.118464 0.053635
0.893575 0.119270 0.055415
0.901349 0.120779 0.055966
0.909209 0.122179 0.056515
0.917083 0.123481 0.056914
0.000548 0.005934 0.000172
0.001673 0.006101 0.000179
0.002759 0.006090 0.000186
0.005457 0.006166 0.000215
0.010188 0.006289 0.000236
0.017635 0.007031 0.000229
0.029469 0.007985 0.000272
0.046142 0.008366 0.000356
0.077577 0.010102 0.000467
0.125446 0.012438 0.000645
0.182774 0.015316 0.001089
0.247651 0.020394 0.002066
0.315539 0.027060 0.003411
0.382252 0.034519 0.005462
0.447783 0.043433 0.008059
0.511970 0.054742 0.011407
0.573334 0.067125 0.015421
0.633298 0.079503 0.020171
0.692286 0.091722 0.025773
0.749046 0.103068 0.032056
0.798510 0.112453 0.037732
0.828500 0.117317 0.041922
0.838024 0.117596 0.044973
0.846182 0.118042 0.047252
0.854151 0.119249 0.049147
0.862184 0.120169 0.050904
0.870177 0.121237 0.052388
0.878062 0.122536 0.053154
0.885986 0.123917 0.053583
0.893782 0.125358 0.054258
0.901556 0.126866 0.054809
0.909358 0.128233 0.055308
0.917409 0.128947 0.056938
0.001254 0.010023 0.000244
0.002388 0.010222 0.000252
0.003521 0.010421 0.000260
0.005447 0.010388 0.000267
0.009747 0.010746 0.000369
0.017066 0.012170 0.000327
0.028136 0.013767 0.000383
0.049181 0.014989 0.000446
0.082996 0.017023 0.000500
0.131277 0.019989 0.000724
0.187540 0.023589 0.001026
0.250394 0.027283 0.001856
0.317254 0.031396 0.003188
0.383492 0.038242 0.005112
0.448084 0.047342 0.007885
0.511459 0.059325 0.011191
0.573355 0.072449 0.015111
0.633814 0.085610 0.019691
0.692753 0.097746 0.025212
0.749414 0.109259 0.031243
0.798750 0.118435 0.037111
0.828719 0.123198 0.041859
0.838358 0.123540 0.044867
0.846482 0.124111 0.046932
0.854580 0.124782 0.048829
0.862610 0.125705 0.050554
0.870537 0.126994 0.051614
0.878509 0.127978 0.052935
0.886393 0.129260 0.053692
0.894167 0.130767 0.054241
0.901941 0.132276 0.054792
0.909735 0.133668 0.055221
0.917558 0.134954 0.055806
0.002570 0.015780 0.000299
0.003719 0.016010 0.000314
0.004868 0.016239 0.000330
0.006104 0.016457 0.000346
0.009831 0.016967 0.000390
0.016187 0.017822 0.000531
0.027710 0.021557 0.000578
0.050975 0.024965 0.000635
0.089169 0.028513 0.000682
0.140415 0.032875 0.000789
0.196023 0.037666 0.001108
0.258045 0.042580 0.001498
0.321559 0.045855 0.002742
0.386479 0.050265 0.004582
0.449626 0.055309 0.007327
0.512023 0.065820 0.010495
0.573784 0.078857 0.014332
0.634437 0.091997 0.019087
0.693206 0.104423 0.024535
0.749800 0.115707 0.030456
0.799116 0.124466 0.036357
0.829015 0.129203 0.040980
0.838651 0.129678 0.044018
0.846811 0.130215 0.046195
0.854913 0.130918 0.048065
0.862865 0.131841 0.049996
0.870836 0.132926 0.051367
0.878723 0.134200 0.052140
0.886568 0.135614 0.052647
0.894340 0.136996 0.053269
0.902250 0.138039 0.054695
0.910056 0.139383 0.055195
0.917884 0.140653 0.055811
0.004348 0.023472 0.000451
0.005474 0.023641 0.000459
0.006600 0.023809 0.000466
0.007730 0.023978 0.000474
0.010039 0.024084 0.000501
0.015613 0.025792 0.000564
0.025293 0.029099 0.000733
0.049713 0.038586 0.000910
0.094091 0.046505 0.000898
0.148961 0.054813 0.000980
0.206628 0.062544 0.001188
0.267753 0.069090 0.001594
0.330813 0.075384 0.002307
0.394311 0.079736 0.003901
0.455682 0.082859 0.006660
0.515077 0.083389 0.009741
0.574970 0.088911 0.013472
0.634372 0.098813 0.017987
0.693107 0.111026 0.023393
0.750135 0.122179 0.029265
0.799491 0.130677 0.035326
0.829327 0.135350 0.039857
0.838893 0.135884 0.042978
0.847121 0.136171 0.045591
0.855239 0.136851 0.047519
0.863189 0.137854 0.049356
0.871043 0.139080 0.050470
0.878912 0.140413 0.051153
0.886872 0.141474 0.052409
0.894624 0.142922 0.052906
0.902409 0.144244 0.053584
0.910210 0.145599 0.054022
0.918048 0.146849 0.054706
0.006007 0.033251 0.000583
0.007089 0.033796 0.000593
0.008184 0.034325 0.000600
0.009279 0.034853 0.000608
0.010494 0.035355 0.000619
0.014603 0.036807 0.000619
0.024044 0.040546 0.000776
0.042539 0.050251 0.000887
0.092387 0.071050 0.001222
0.154508 0.086407 0.001288
0.216286 0.098464 0.001469
0.279261 0.105774 0.001813
0.341298 0.113331 0.002465
0.403106 0.119720 0.003396
0.463256 0.124994 0.005464
0.522490 0.127363 0.008502
0.579980 0.126320 0.012206
0.637110 0.124200 0.016432
0.693332 0.124632 0.021527
0.750001 0.129523 0.027431
0.799773 0.137024 0.033669
0.829601 0.141598 0.038454
0.839137 0.142251 0.041433
0.847274 0.142680 0.044022
0.855416 0.143260 0.046119
0.863319 0.144397 0.047633
0.871225 0.145397 0.048960
0.879056 0.146633 0.049793
0.887028 0.147647 0.051146
0.894802 0.149027 0.051786
0.902558 0.150402 0.052212
0.910316 0.151727 0.052587
0.918119 0.153075 0.053041
0.008466 0.049997 0.000676
0.009571 0.050900 0.000699
0.010605 0.051505 0.000714
0.011639 0.052111 0.000729
0.012675 0.052723 0.000745
0.014175 0.053964 0.000757
0.021396 0.059237 0.000901
0.038263 0.071324 0.001106
0.077962 0.090163 0.001283
0.152409 0.121584 0.001882
0.223849 0.140004 0.002025
0.287897 0.148891 0.002254
0.351451 0.155482 0.002906
0.413370 0.162604 0.003797
0.473483 0.167596 0.004722
0.531058 0.172761 0.006775
0.588119 0.175396 0.010098
0.644173 0.175137 0.014530
0.698991 0.171609 0.019422
0.753197 0.166018 0.024932
0.801563 0.160693 0.030927
0.830528 0.155472 0.035861
0.839623 0.151750 0.039129
0.847523 0.150338 0.041747
0.855440 0.150201 0.043746
0.863355 0.151181 0.045154
0.871266 0.152167 0.046513
0.879160 0.153205 0.047760
0.887008 0.154388 0.048705
0.894771 0.155771 0.049237
0.902529 0.157096 0.049612
0.910288 0.158421 0.049987
0.918047 0.159746 0.050362
0.011243 0.080475 0.000852
0.012316 0.081563 0.000951
0.013388 0.082650 0.001051
0.014478 0.083664 0.001116
0.015499 0.083350 0.001121
0.016770 0.084676 0.001182
0.018588 0.086557 0.001264
0.032441 0.099031 0.001380
0.065264 0.118769 0.001823
0.134495 0.147762 0.002208
0.221758 0.181872 0.002877
0.295896 0.199284 0.003545
0.361357 0.206447 0.003917
0.423078 0.210701 0.004416
0.483263 0.215786 0.005147
0.540651 0.219455 0.006273
0.596646 0.223746 0.007892
0.652313 0.226365 0.010963
0.707070 0.227416 0.015343
0.760559 0.226038 0.020924
0.808208 0.221286 0.026705
0.836986 0.213198 0.031887
0.845561 0.205416 0.035482
0.852854 0.199358 0.038452
0.860194 0.194813 0.040713
0.867505 0.191982 0.042214
0.874854 0.189958 0.043324
0.882479 0.189451 0.044767
0.890085 0.189761 0.045184
0.897624 0.190095 0.045548
0.905239 0.190851 0.045925
0.912901 0.190979 0.046335
0.920629 0.190450 0.047736
0.015498 0.126532 0.001664
0.016647 0.127482 0.001664
0.017720 0.128431 0.001664
0.018792 0.129381 0.001664
0.019826 0.129959 0.001660
0.021167 0.129677 0.001669
0.022538 0.130964 0.001676
0.024823 0.133059 0.001688
0.054613 0.152404 0.002137
0.116325 0.178847 0.002893
0.200681 0.214262 0.003944
0.295342 0.249084 0.005277
0.368585 0.263579 0.005870
0.431473 0.269445 0.005933
0.490680 0.271544 0.006436
0.548709 0.274107 0.007249
0.605426 0.277490 0.008055
0.661176 0.280144 0.009108
0.716179 0.281847 0.010922
0.769065 0.282824 0.014048
0.816681 0.282596 0.018896
0.846435 0.279374 0.024043
0.855197 0.273866 0.027643
0.862200 0.269255 0.030911
0.869335 0.265616 0.033862
0.876369 0.262419 0.035904
0.883528 0.260272 0.037157
0.891045 0.259984 0.038155
0.898611 0.259731 0.039248
0.906039 0.259176 0.039536
0.913622 0.259924 0.039843
0.921235 0.260333 0.040154
0.928922 0.260347 0.041646
0.023227 0.177642 0.002192
0.024568 0.178553 0.002284
0.025908 0.179465 0.002376
0.027249 0.180377 0.002468
0.028585 0.181295 0.002553
0.030406 0.182154 0.002599
0.032233 0.183042 0.002645
0.034125 0.184244 0.002699
0.038669 0.187028 0.002824
0.100884 0.216105 0.004280
0.182368 0.250886 0.006098
0.272286 0.287105 0.007415
0.364849 0.319522 0.009373
0.434778 0.330512 0.009679
0.495846 0.334195 0.009325
0.553608 0.335035 0.009142
0.611583 0.336170 0.009284
0.668556 0.338484 0.009937
0.723158 0.338867 0.010553
0.777049 0.339518 0.011472
0.825612 0.339937 0.013112
0.856871 0.338603 0.015286
0.865942 0.335337 0.017041
0.872956 0.333096 0.019226
0.880045 0.331176 0.021634
0.887128 0.329447 0.023258
0.894485 0.329118 0.024659
0.901897 0.329537 0.024976
0.909207 0.329161 0.026239
0.916513 0.328865 0.026415
0.924020 0.329623 0.026616
0.931553 0.330350 0.027186
0.939135 0.331019 0.028340
0.040978 0.231790 0.004805
0.042832 0.232755 0.004897
0.044685 0.233720 0.004989
0.046539 0.234685 0.005081
0.048369 0.235690 0.005131
0.051471 0.237099 0.005261
0.054572 0.238508 0.005391
0.057674 0.239917 0.005521
0.060084 0.241195 0.005640
0.075377 0.247452 0.006051
0.169334 0.290622 0.010335
0.254660 0.325314 0.013242
0.342423 0.359034 0.014488
0.427552 0.387648 0.015897
0.495157 0.395729 0.014785
0.555472 0.398155 0.013373
0.613057 0.398266 0.012222
0.671256 0.398175 0.011734
0.727320 0.398104 0.011690
0.781596 0.397624 0.012042
0.832187 0.397841 0.012478
0.865797 0.396858 0.012823
0.875961 0.394413 0.012929
0.883136 0.392885 0.013244
0.890368 0.391617 0.014209
0.897549 0.390172 0.014748
0.904982 0.390251 0.015421
0.912357 0.390303 0.015526
0.919710 0.390118 0.016071
0.927106 0.390259 0.016172
0.934481 0.390290 0.016241
0.941927 0.390902 0.016574
0.949380 0.391509 0.017098
0.074018 0.288617 0.010749
0.076607 0.289727 0.010887
0.079196 0.290838 0.011025
0.081768 0.291952 0.011182
0.084302 0.293084 0.011397
0.087733 0.294554 0.011611
0.091164 0.296025 0.011826
0.094568 0.297483 0.012028
0.097904 0.298916 0.012200
0.102338 0.300299 0.012481
0.145966 0.320499 0.015939
0.245216 0.365650 0.024224
0.325694 0.396307 0.027593
0.404535 0.425426 0.026389
0.484302 0.450139 0.024839
0.550808 0.457614 0.021206
0.611376 0.459004 0.017987
0.669586 0.458849 0.015873
0.726955 0.457991 0.014284
0.782611 0.456682 0.013513
0.834539 0.456156 0.013337
0.871072 0.454864 0.013282
0.883597 0.453119 0.013255
0.890954 0.451545 0.013233
0.898354 0.450931 0.013251
0.905665 0.449677 0.013240
0.913148 0.449853 0.013238
0.920541 0.449285 0.013243
0.928016 0.449394 0.013272
0.935471 0.449012 0.013293
0.942966 0.448956 0.013314
0.950492 0.449341 0.013342
0.958005 0.449747 0.013372
0.118489 0.345158 0.022760
0.120878 0.346254 0.023066
0.123268 0.347349 0.023373
0.125685 0.348417 0.023632
0.128111 0.349486 0.023888
0.130945 0.350803 0.024340
0.133779 0.352120 0.024792
0.136758 0.353479 0.025086
0.139767 0.354851 0.025369
0.143092 0.356319 0.025826
0.150533 0.359292 0.026705
0.230619 0.397821 0.039003
0.318594 0.434692 0.049038
0.388339 0.459515 0.049997
0.459480 0.484963 0.043028
0.536433 0.507591 0.035868
0.603273 0.515592 0.028440
0.664575 0.516909 0.023030
0.723527 0.516538 0.019462
0.780474 0.514934 0.016848
0.833430 0.513815 0.015338
0.872826 0.512937 0.014601
0.888881 0.511048 0.014320
0.896422 0.509859 0.014174
0.903900 0.508937 0.014095
0.911386 0.507624 0.013968
0.919006 0.507830 0.013868
0.926577 0.507539 0.013769
0.934167 0.507791 0.013723
0.941801 0.507311 0.013632
0.949498 0.507502 0.013548
0.957157 0.507668 0.013480
0.964663 0.507187 0.013446
0.161605 0.399644 0.044406
0.163804 0.400656 0.044865
0.166073 0.401689 0.045289
0.168394 0.402738 0.045688
0.170717 0.403789 0.046088
0.173198 0.404953 0.046624
0.175753 0.406159 0.047165
0.178357 0.407392 0.047709
0.180975 0.408633 0.048257
0.184039 0.410103 0.048931
0.187137 0.411507 0.049506
0.209442 0.421745 0.053704
0.309177 0.467521 0.072163
0.382799 0.495508 0.077331
0.444392 0.515670 0.073661
0.510181 0.539343 0.062157
0.585268 0.561888 0.047647
0.653574 0.570991 0.035485
0.715950 0.572720 0.027587
0.775421 0.571997 0.022733
0.829843 0.570562 0.019409
0.872665 0.569752 0.017294
0.892898 0.568782 0.016455
0.900513 0.566912 0.016042
0.908182 0.566825 0.015828
0.915794 0.565187 0.015515
0.923473 0.564491 0.015234
0.931187 0.564412 0.014993
0.938900 0.564558 0.014794
0.946628 0.564689 0.014550
0.954356 0.564819 0.014305
0.962070 0.564958 0.014109
0.969704 0.564401 0.013986
0.200593 0.450791 0.073149
0.202739 0.451747 0.073613
0.204907 0.452743 0.074088
0.207074 0.453739 0.074563
0.209241 0.454734 0.075038
0.211346 0.455682 0.075482
0.213467 0.456662 0.075926
0.215589 0.457642 0.076371
0.217735 0.458633 0.076819
0.220328 0.459387 0.077067
0.223614 0.460911 0.077787
0.229782 0.463656 0.079058
0.285458 0.488988 0.090162
0.374529 0.525808 0.102603
0.437836 0.548269 0.103540
0.495027 0.567340 0.095564
0.558820 0.591512 0.079560
0.632890 0.614348 0.059210
0.701937 0.624647 0.041975
0.765588 0.626647 0.031078
0.822963 0.626701 0.024891
0.869907 0.625547 0.021148
0.895667 0.624671 0.019507
0.903785 0.623142 0.018913
0.911444 0.622387 0.018436
0.919212 0.622127 0.017988
0.926932 0.620916 0.017488
0.934681 0.620748 0.017109
0.942432 0.620840 0.016772
0.950198 0.620932 0.016367
0.957965 0.621024 0.015961
0.965736 0.621121 0.015621
0.973510 0.621221 0.015307
0.234295 0.497220 0.101731
0.236401 0.498124 0.102160
0.238507 0.499028 0.102589
0.240613 0.499932 0.103018
0.242722 0.500838 0.103448
0.244897 0.501749 0.103862
0.247073 0.502661 0.104275
0.249248 0.503573 0.104689
0.251435 0.504494 0.105107
0.253917 0.505357 0.105419
0.256380 0.506196 0.105714
0.258719 0.506864 0.105905
0.273123 0.512731 0.108391
0.359902 0.549241 0.122931
0.430810 0.576921 0.128618
0.487192 0.597518 0.125708
0.541111 0.616204 0.113595
0.604997 0.641602 0.092901
0.679214 0.665046 0.067121
0.748865 0.677038 0.045854
0.811681 0.679704 0.032709
0.863578 0.680398 0.026183
0.895629 0.679441 0.022897
0.905558 0.678429 0.022010
0.913442 0.677442 0.021363
0.921380 0.677089 0.020743
0.929313 0.676822 0.020137
0.937186 0.676868 0.019616
0.945053 0.676739 0.019088
0.952926 0.676326 0.018494
0.960800 0.676357 0.017951
0.968620 0.676418 0.017522
0.976440 0.676480 0.017093
0.263001 0.538113 0.126776
0.265000 0.538886 0.127105
0.266999 0.539660 0.127434
0.268991 0.540433 0.127764
0.270856 0.541184 0.128093
0.272939 0.541996 0.128430
0.275022 0.542808 0.128767
0.277110 0.543623 0.129107
0.279262 0.544490 0.129491
0.281651 0.545417 0.129905
0.284041 0.546344 0.130319
0.286312 0.547090 0.130619
0.289552 0.547634 0.130678
0.329901 0.563507 0.137211
0.417253 0.599399 0.148307
0.477392 0.623068 0.149147
0.529252 0.642631 0.142030
0.583414 0.662812 0.126315
0.648529 0.690304 0.102388
0.725163 0.715263 0.071033
0.792485 0.728661 0.048012
0.850940 0.731390 0.033840
0.892188 0.732897 0.027402
0.906364 0.732498 0.025641
0.914477 0.731776 0.024621
0.922632 0.731783 0.023691
0.930686 0.731654 0.022904
0.938710 0.731600 0.022169
0.946732 0.731485 0.021433
0.954782 0.730311 0.020581
0.962794 0.730334 0.019922
0.970806 0.730357 0.019264
0.978817 0.730381 0.018605
0.279148 0.572433 0.146353
0.281185 0.573168 0.146659
0.283214 0.573908 0.146966
0.285213 0.574666 0.147272
0.287214 0.575425 0.147578
0.289335 0.576191 0.147900
0.291440 0.576957 0.148216
0.293485 0.577723 0.148515
0.295536 0.578491 0.148814
0.297788 0.579325 0.149121
0.300043 0.580164 0.149434
0.302215 0.580739 0.149626
0.304436 0.581383 0.149851
0.316023 0.585449 0.151361
0.389998 0.614453 0.161309
0.462320 0.643489 0.166603
0.517034 0.665360 0.163522
0.568511 0.685750 0.153251
0.624419 0.708865 0.135199
0.692250 0.738712 0.107285
0.767377 0.764378 0.073956
0.829291 0.778159 0.050397
0.879798 0.782905 0.035340
0.904365 0.784354 0.030544
0.913550 0.784460 0.028755
0.922234 0.784549 0.027413
0.930729 0.784434 0.026257
0.939223 0.784377 0.025104
0.947710 0.784646 0.023971
0.955788 0.783796 0.023014
0.963840 0.783820 0.022130
0.971899 0.783575 0.021238
0.979949 0.783690 0.020357
0.286187 0.601744 0.160961
0.288379 0.602509 0.161252
0.290555 0.603274 0.161543
0.292730 0.604040 0.161835
0.294907 0.604806 0.162126
0.297132 0.605597 0.162429
0.299345 0.606386 0.162736
0.301559 0.607175 0.163042
0.303776 0.607965 0.163348
0.306039 0.608777 0.163671
0.308291 0.609588 0.164000
0.310516 0.610213 0.164252
0.312751 0.610825 0.164496
0.315481 0.611257 0.164601
0.351891 0.624759 0.169310
0.441385 0.659513 0.178601
0.502331 0.684368 0.179289
0.555140 0.705992 0.172859
0.608284 0.728618 0.159838
0.666271 0.754845 0.139267
0.735374 0.785373 0.108065
0.802744 0.809894 0.076539
0.858493 0.824694 0.052963
0.895974 0.830626 0.040005
0.907793 0.831883 0.036743
0.917421 0.831410 0.034074
0.926875 0.832133 0.031658
0.936184 0.832994 0.029490
0.945222 0.833507 0.027813
0.953166 0.833968 0.026377
0.961093 0.834427 0.024944
0.969116 0.834189 0.023578
0.977156 0.834359 0.022487
0.287566 0.625592 0.170726
0.289879 0.626335 0.170994
0.292179 0.627081 0.171267
0.294438 0.627840 0.171558
0.296700 0.628598 0.171849
0.299089 0.629387 0.172132
0.301448 0.630178 0.172418
0.303723 0.630975 0.172709
0.306003 0.631772 0.173000
0.308431 0.632584 0.173291
0.310829 0.633395 0.173582
0.313150 0.634207 0.173873
0.315481 0.635022 0.174166
0.318025 0.635498 0.174346
0.336374 0.641446 0.176434
0.410453 0.668874 0.184785
0.485717 0.698805 0.188916
0.541689 0.722603 0.186090
0.594851 0.745546 0.176764
0.649395 0.770457 0.161419
0.708350 0.798360 0.138685
0.772383 0.826903 0.108226
0.831881 0.850122 0.078570
0.877948 0.863682 0.057678
0.899295 0.868581 0.048844
0.909742 0.870344 0.044690
0.919899 0.870936 0.041072
0.929818 0.872583 0.037763
0.939736 0.874230 0.034454
0.947352 0.875235 0.032306
0.955011 0.876070 0.030345
0.962670 0.876905 0.028384
0.970330 0.877740 0.026423
0.286466 0.641109 0.176100
0.288848 0.641891 0.176398
0.291198 0.642654 0.176683
0.293512 0.643397 0.176951
0.295827 0.644141 0.177219
0.298294 0.644914 0.177487
0.300724 0.645695 0.177762
0.303113 0.646484 0.178046
0.305506 0.647274 0.178329
0.308019 0.648109 0.178612
0.310490 0.648932 0.178899
0.312918 0.649744 0.179191
0.315357 0.650560 0.179484
0.318022 0.651448 0.179829
0.324087 0.653494 0.180596
0.381303 0.673901 0.187086
0.467960 0.706941 0.193851
0.528580 0.732384 0.193306
0.583116 0.756999 0.187019
0.637128 0.781930 0.174559
0.693497 0.808632 0.155863
0.750858 0.836417 0.131754
0.805427 0.861757 0.105313
0.856749 0.881762 0.078642
0.889111 0.891593 0.062925
0.901130 0.895172 0.057111
0.911630 0.897623 0.052700
0.922131 0.900073 0.048288
0.932631 0.902524 0.043876
0.940137 0.904126 0.040984
0.947589 0.905375 0.038586
0.955042 0.906623 0.036189
0.962494 0.907872 0.033792
0.285709 0.646757 0.177874
0.288091 0.647538 0.178172
0.290473 0.648319 0.178471
0.292852 0.649099 0.178768
0.295167 0.649842 0.179036
0.297634 0.650616 0.179304
0.300100 0.651389 0.179572
0.302561 0.652163 0.179841
0.304955 0.652954 0.180125
0.307467 0.653788 0.180408
0.309979 0.654623 0.180692
0.312485 0.655456 0.180975
0.314924 0.656272 0.181269
0.317589 0.657160 0.181614
0.320255 0.658049 0.181958
0.362277 0.672822 0.186794
0.450490 0.706311 0.194766
0.516993 0.733851 0.195973
0.573531 0.759413 0.191259
0.627987 0.785155 0.180635
0.682397 0.811641 0.164658
0.737543 0.838610 0.143341
0.791827 0.864763 0.118171
0.839729 0.885978 0.094065
0.878907 0.900955 0.074175
0.895312 0.906085 0.066088
0.906279 0.909493 0.060597
0.917240 0.912887 0.055122
0.927741 0.915337 0.050710
0.935248 0.917034 0.047686
0.942708 0.918719 0.044683
0.950168 0.920391 0.041700
0.957620 0.921639 0.039303
0.285173 0.650755 0.179130
0.287555 0.651536 0.179429
0.289937 0.652317 0.179727
0.292319 0.653098 0.180026
0.294700 0.653878 0.180323
0.297166 0.654652 0.180591
0.299633 0.655425 0.180859
0.302099 0.656199 0.181127
0.304564 0.656975 0.181396
0.307077 0.657810 0.181680
0.309589 0.658644 0.181963
0.312101 0.659479 0.182246
0.314618 0.660316 0.182533
0.317283 0.661204 0.182877
0.319949 0.662093 0.183222
0.350731 0.672755 0.186819
0.433842 0.703679 0.194723
0.507678 0.733779 0.197367
0.565441 0.759678 0.193705
0.621114 0.785958 0.184254
0.675339 0.812506 0.169392
0.728319 0.838505 0.150129
0.780318 0.863840 0.126681
0.829043 0.886390 0.102645
0.869878 0.902965 0.081804
0.892564 0.910973 0.070315
0.903576 0.914395 0.064802
0.914544 0.917803 0.059310
0.925504 0.921197 0.053835
0.933012 0.922894 0.050811
0.940472 0.924579 0.047809
0.947932 0.926264 0.044806
0.955391 0.927935 0.041823
0.284280 0.654686 0.180163
0.286729 0.655460 0.180470
0.289111 0.656241 0.180768
0.291493 0.657022 0.181067
0.293878 0.657804 0.181365
0.296424 0.658607 0.181648
0.298891 0.659380 0.181916
0.301357 0.660154 0.182184
0.303826 0.660929 0.182452
0.306382 0.661764 0.182729
0.308894 0.662599 0.183012
0.311406 0.663433 0.183295
0.313928 0.664271 0.183579
0.316650 0.665159 0.183882
0.319316 0.666048 0.184226
0.341793 0.673787 0.186837
0.413846 0.700083 0.194015
0.500008 0.734528 0.198395
0.559170 0.760832 0.195686
0.615411 0.787428 0.187065
0.669785 0.814144 0.173282
0.723045 0.840363 0.154726
0.773460 0.865128 0.132949
0.819310 0.886727 0.110792
0.860165 0.904307 0.090039
0.888792 0.915509 0.074649
0.900486 0.919200 0.068732
0.911454 0.922609 0.063241
0.922422 0.926017 0.057749
0.929410 0.927410 0.066693
0.936870 0.929095 0.063690
0.944330 0.930780 0.060688
0.951790 0.932465 0.057685
0.283377 0.658615 0.181190
0.285828 0.659389 0.181496
0.288277 0.660163 0.181802
0.290659 0.660944 0.182101
0.293043 0.661726 0.182399
0.295594 0.662530 0.182683
0.298140 0.663332 0.182965
0.300606 0.664106 0.183233
0.303076 0.664881 0.183502
0.305634 0.665716 0.183777
0.308189 0.666551 0.184054
0.310701 0.667385 0.184337
0.313224 0.668223 0.184621
0.315950 0.669111 0.184920
0.318672 0.670000 0.185222
0.337919 0.676623 0.187464
0.405362 0.700937 0.194205
0.493931 0.735987 0.199329
0.555382 0.763143 0.197239
0.611691 0.789849 0.189467
0.666115 0.816682 0.176339
