example/ios/Joker.cube
# Created by Benjamin (IWLTBAP): https://luts.iwltbap.com
# Copyright: (C) Copyright 2019 Triune Films and IWLTBAP SAS
# Cannot be resold, shared or otherwise redistributed
TITLE "Triune Films Cinematic LUTs V4 (Panasonic V-Log L)"
LUT_3D_SIZE 5
0.000000 0.000000 0.000519
0.076513 0.016679 0.010081
0.337607 0.051526 0.024307
0.803227 0.102648 0.038237
0.854725 0.108704 0.039592
0.008056 0.062187 0.026665
0.113380 0.072871 0.022754
0.614308 0.108286 0.035534
0.845408 0.140105 0.036848
0.863165 0.132631 0.036770
0.055499 0.306159 0.177101
0.160027 0.469996 0.303173
0.576958 0.373651 0.054105
0.911128 0.327061 0.031627
0.919827 0.295858 0.031420
0.269813 0.715515 0.452829
0.277865 0.721807 0.454107
0.324807 0.740958 0.461100
0.957996 0.793506 0.064945
0.990256 0.738899 0.126799
0.281647 0.735138 0.453644
0.287750 0.737484 0.454649
0.308194 0.745285 0.457794
0.655762 0.752900 0.358611
0.941040 0.824463 0.339630
0.000000 0.010482 0.022959
0.078718 0.019913 0.040332
0.367055 0.035335 0.048334
0.829827 0.064372 0.074058
0.851576 0.056527 0.097851
0.000591 0.073845 0.074384
0.052241 0.091794 0.089608
0.547959 0.067979 0.058497
0.850971 0.113885 0.069528
0.868533 0.105467 0.069197
0.007340 0.270124 0.167635
0.096098 0.398527 0.253862
0.548961 0.397514 0.104267
0.931099 0.381861 0.046832
0.937877 0.342082 0.042781
0.214019 0.710925 0.481153
0.242988 0.723172 0.477850
0.329772 0.748400 0.474700
0.950823 0.809625 0.127022
0.978487 0.799997 0.073216
0.227665 0.735404 0.491538
0.248128 0.739214 0.482638
0.307154 0.751528 0.473727
0.666418 0.750447 0.357914
0.939820 0.825708 0.353055
0.000000 0.074813 0.135795
0.002297 0.087572 0.161644
0.348344 0.071610 0.137882
0.755822 0.068025 0.233370
0.765845 0.075015 0.250816
0.000000 0.178835 0.256285
0.000000 0.215478 0.299555
0.439551 0.127963 0.206313
0.725990 0.130095 0.282983
0.741079 0.125531 0.288125
0.029652 0.356490 0.343017
0.054807 0.430260 0.392909
0.361918 0.480631 0.451283
0.879940 0.390440 0.397415
0.871612 0.348860 0.386612
0.183158 0.730649 0.585796
0.190882 0.736886 0.582125
0.254540 0.763620 0.577954
0.945205 0.819378 0.285208
0.976743 0.816043 0.218927
0.201461 0.769477 0.632171
0.201974 0.762366 0.613822
0.236267 0.764511 0.581220
0.704664 0.777347 0.428180
0.936261 0.839524 0.437698
0.000000 0.229808 0.332004
0.000000 0.237977 0.341384
0.216511 0.231351 0.361403
0.626414 0.259405 0.358875
0.638559 0.284986 0.381619
0.000000 0.321650 0.414836
0.001610 0.336272 0.427915
0.408289 0.469807 0.576386
0.623007 0.419210 0.506438
0.629085 0.414460 0.501149
0.086995 0.508307 0.537693
0.136993 0.612247 0.616907
0.150903 0.599284 0.623320
0.707395 0.562194 0.586267
0.707630 0.550870 0.577121
0.250894 0.821564 0.757194
0.264397 0.830839 0.764749
0.371955 0.866310 0.801588
0.835456 0.885263 0.845800
0.846435 0.852896 0.827042
0.270861 0.844958 0.774912
0.280147 0.848323 0.778227
0.386879 0.880050 0.811881
0.748814 0.908460 0.859004
0.903274 0.890307 0.770082
0.000000 0.307709 0.411316
0.000485 0.332246 0.435584
0.219918 0.481007 0.581565
0.619831 0.422337 0.514007
0.630432 0.421906 0.512451
0.000000 0.328680 0.423632
0.000494 0.343184 0.436151
0.399572 0.491799 0.592086
0.624876 0.429793 0.518978
0.634130 0.427845 0.516236
0.079426 0.494140 0.530253
0.136611 0.611638 0.619352
0.139888 0.583308 0.612880
0.696853 0.550545 0.586276
0.704370 0.549178 0.581598
0.265252 0.828965 0.769622
0.276948 0.837163 0.776589
0.360475 0.865368 0.807092
0.831017 0.890075 0.868088
0.840493 0.860285 0.846414
0.284119 0.851898 0.787476
0.291705 0.854483 0.790132
0.394258 0.883502 0.821946
0.784314 0.912483 0.878227
0.884143 0.908671 0.876103
