example/ios/Joker.cube
# Created by Benjamin (IWLTBAP): https://luts.iwltbap.com
# Copyright: (C) Copyright 2019 Triune Films and IWLTBAP SAS
# Cannot be resold, shared or otherwise redistributed
TITLE "Triune Films Cinematic LUTs V4 (Panasonic V-Log L)"
LUT_3D_SIZE 9
0.000000 0.000000 0.000519
0.019990 0.004223 0.003848
0.076513 0.016679 0.010081
0.176632 0.034259 0.018410
0.337607 0.051526 0.024307
0.564915 0.071486 0.034639
0.803227 0.102648 0.038237
0.843087 0.107923 0.038744
0.854725 0.108704 0.039592
0.003090 0.014399 0.006289
0.024069 0.015893 0.007552
0.129361 0.034060 0.015401
0.322390 0.054901 0.023563
0.639327 0.084848 0.036506
0.823104 0.113184 0.037265
0.834408 0.114878 0.037160
0.845701 0.116530 0.037028
0.857071 0.118207 0.036897
0.008056 0.062187 0.026665
0.010865 0.085724 0.038586
0.113380 0.072871 0.022754
0.328431 0.083564 0.025450
0.614308 0.108286 0.035534
0.837229 0.144531 0.036828
0.845408 0.140105 0.036848
0.853973 0.136293 0.036849
0.863165 0.132631 0.036770
0.016526 0.150539 0.075919
0.025671 0.218533 0.118903
0.029698 0.210062 0.113520
0.309702 0.192429 0.038288
0.631945 0.189791 0.036158
0.863098 0.214572 0.034647
0.870653 0.207306 0.034725
0.878480 0.199751 0.034919
0.886412 0.191486 0.035283
0.055499 0.306159 0.177101
0.140304 0.434261 0.273471
0.160027 0.469996 0.303173
0.181317 0.431507 0.268861
0.576958 0.373651 0.054105
0.903862 0.348506 0.031818
0.911128 0.327061 0.031627
0.915016 0.309907 0.031433
0.919827 0.295858 0.031420
0.196422 0.560574 0.378643
0.245546 0.665560 0.441543
0.267030 0.703681 0.452241
0.276029 0.700123 0.453886
0.405979 0.664920 0.418712
0.877995 0.613006 0.051393
0.965391 0.553535 0.031671
0.966775 0.507772 0.031434
0.970241 0.471849 0.029525
0.269813 0.715515 0.452829
0.275164 0.720719 0.453533
0.277865 0.721807 0.454107
0.286862 0.725376 0.455748
0.324807 0.740958 0.461100
0.596912 0.739610 0.382382
0.957996 0.793506 0.064945
0.976354 0.764829 0.072785
0.990256 0.738899 0.126799
0.276951 0.727351 0.453321
0.280006 0.728525 0.453824
0.282897 0.729659 0.454358
0.287321 0.731345 0.455156
0.315160 0.742373 0.459215
0.460130 0.753966 0.443021
0.794207 0.735028 0.243369
0.944862 0.816879 0.234453
0.953008 0.822199 0.250016
0.281647 0.735138 0.453644
0.284702 0.736312 0.454147
0.287750 0.737484 0.454649
0.290842 0.738652 0.455158
0.308194 0.745285 0.457794
0.364429 0.764493 0.462265
0.655762 0.752900 0.358611
0.944431 0.824631 0.248614
0.941040 0.824463 0.339630
0.000000 0.001996 0.006223
0.018413 0.005955 0.013263
0.085012 0.017122 0.017317
0.192704 0.032248 0.025511
0.359211 0.047303 0.031244
0.599134 0.065873 0.042965
0.821223 0.094385 0.048004
0.846515 0.095645 0.050101
0.858361 0.093995 0.052277
0.001109 0.018568 0.017533
0.013444 0.021704 0.021860
0.120098 0.030495 0.021977
0.309166 0.050867 0.028378
0.622481 0.077444 0.040983
0.824696 0.108336 0.042795
0.835981 0.110335 0.042638
0.847283 0.112144 0.042580
0.858953 0.112801 0.043572
0.002611 0.061168 0.033017
0.007521 0.077961 0.038672
0.102308 0.078591 0.029971
0.303981 0.091683 0.029053
0.580209 0.109457 0.036783
0.841248 0.150535 0.039272
0.848791 0.144427 0.039287
0.856749 0.139146 0.039309
0.865401 0.134395 0.039275
0.006965 0.141929 0.074107
0.018758 0.200217 0.109049
0.029236 0.209401 0.114503
0.295863 0.207924 0.056770
0.603280 0.210705 0.038615
0.864250 0.238009 0.037169
0.879215 0.229870 0.037095
0.885225 0.217962 0.037126
0.891996 0.206907 0.037444
0.032579 0.292255 0.171784
0.131617 0.428427 0.271407
0.153536 0.459569 0.295945
0.201340 0.466160 0.297880
0.566924 0.402410 0.083649
0.905582 0.392433 0.035782
0.925154 0.369317 0.034700
0.929586 0.351874 0.034441
0.933413 0.333863 0.034010
0.185419 0.549542 0.373673
0.237831 0.662870 0.444973
0.261111 0.699691 0.454713
0.281055 0.707209 0.457763
0.407427 0.695646 0.434482
0.851158 0.640832 0.079880
0.973433 0.623003 0.062869
0.977832 0.581594 0.054951
0.982741 0.543468 0.040696
0.256664 0.714169 0.462589
0.266867 0.721143 0.460712
0.273487 0.722031 0.457952
0.288292 0.727124 0.458692
0.328931 0.743822 0.464415
0.601524 0.740243 0.383028
0.955522 0.806975 0.086744
0.968849 0.793950 0.066470
0.983663 0.780728 0.077142
0.263459 0.728422 0.465178
0.270953 0.729039 0.461880
0.277956 0.729893 0.458885
0.287209 0.732432 0.457967
0.318991 0.744968 0.462505
0.465700 0.754380 0.444646
0.778882 0.731968 0.256258
0.944251 0.817502 0.241174
0.952398 0.822822 0.256737
0.266448 0.736359 0.467070
0.274856 0.736942 0.463072
0.282318 0.737730 0.459684
0.288598 0.738924 0.457626
0.311352 0.747528 0.460984
0.380500 0.766871 0.463443
0.661267 0.751703 0.358467
0.943820 0.825254 0.255335
0.940429 0.825086 0.346351
0.000000 0.010482 0.022959
0.003410 0.015351 0.037295
0.078718 0.019913 0.040332
0.197406 0.033484 0.048343
0.367055 0.035335 0.048334
0.615343 0.033708 0.057492
0.829827 0.064372 0.074058
0.842676 0.060837 0.085686
0.851576 0.056527 0.097851
0.000000 0.035158 0.056990
0.000000 0.042989 0.071718
0.101307 0.034378 0.061110
0.277826 0.042173 0.058471
0.561867 0.028660 0.058135
0.824774 0.070982 0.074270
0.836239 0.071775 0.076940
0.847544 0.072526 0.079073
0.857987 0.070139 0.085122
0.000591 0.073845 0.074384
0.002261 0.085509 0.079190
0.052241 0.091794 0.089608
0.280303 0.088506 0.076326
0.547959 0.067979 0.058497
0.840667 0.119747 0.069020
0.850971 0.113885 0.069528
0.859504 0.109310 0.069384
0.868533 0.105467 0.069197
0.001391 0.150472 0.109463
0.002862 0.181829 0.119355
0.016634 0.186432 0.119455
0.271069 0.202020 0.080076
0.565135 0.208677 0.053816
0.855055 0.231620 0.053920
0.882403 0.221705 0.052514
0.888139 0.206749 0.052674
0.894825 0.194192 0.053087
0.007340 0.270124 0.167635
0.062371 0.391537 0.250162
0.096098 0.398527 0.253862
0.166292 0.430222 0.276385
0.548961 0.397514 0.104267
0.889595 0.398196 0.051615
0.931099 0.381861 0.046832
0.935342 0.364098 0.044395
0.937877 0.342082 0.042781
0.150564 0.532122 0.367547
0.206592 0.654906 0.454171
0.229208 0.681989 0.464553
0.260805 0.692049 0.465895
0.406686 0.690332 0.438831
0.825990 0.637916 0.103978
0.974857 0.647154 0.077365
0.981038 0.614034 0.084189
0.987395 0.588878 0.072903
0.214019 0.710925 0.481153
0.228218 0.721350 0.481558
0.242988 0.723172 0.477850
0.274729 0.730412 0.475351
0.329772 0.748400 0.474700
0.607345 0.741178 0.384227
0.950823 0.809625 0.127022
0.965391 0.805268 0.095310
0.978487 0.799997 0.073216
0.223054 0.727266 0.488068
0.230826 0.729242 0.484582
0.245711 0.731219 0.480370
0.269887 0.735306 0.475912
0.317041 0.749154 0.474027
0.493919 0.754232 0.444403
0.785588 0.734297 0.256018
0.943970 0.817978 0.247987
0.952053 0.823325 0.263954
0.227665 0.735404 0.491538
0.233657 0.737170 0.487558
0.248128 0.739214 0.482638
0.267598 0.741239 0.476887
0.307154 0.751528 0.473727
0.404373 0.768216 0.464497
0.666418 0.750447 0.357914
0.944036 0.825757 0.250371
0.939820 0.825708 0.353055
0.000000 0.033608 0.069146
0.000000 0.040528 0.083043
0.035310 0.042244 0.094358
0.187678 0.044177 0.081733
0.368715 0.042300 0.090279
0.615107 0.030380 0.122185
0.789622 0.034780 0.158319
0.796097 0.041514 0.171328
0.802432 0.047592 0.183666
0.000000 0.089531 0.151482
0.000000 0.096849 0.162624
0.009444 0.099970 0.175411
0.263939 0.063849 0.115182
0.547251 0.042970 0.137589
0.773034 0.055799 0.185910
0.782942 0.057204 0.189744
0.792007 0.058282 0.192761
0.800908 0.059565 0.196509
0.000000 0.100432 0.135042
0.000367 0.120797 0.156704
0.001180 0.124484 0.176342
0.235280 0.099306 0.138684
0.483323 0.071980 0.136070
0.778950 0.085149 0.192343
0.797128 0.085527 0.198820
0.801173 0.081577 0.201933
0.807058 0.077464 0.203680
0.004566 0.176961 0.175789
0.004830 0.214412 0.195331
0.010717 0.204069 0.190903
0.161196 0.231203 0.220867
0.522176 0.210313 0.188892
0.824993 0.187816 0.197244
0.858770 0.169587 0.197445
0.859116 0.156297 0.198584
0.865239 0.148868 0.198939
0.010758 0.305406 0.250871
0.035186 0.389886 0.296236
0.030954 0.367663 0.280619
0.069909 0.402600 0.303766
0.507507 0.396891 0.211148
0.869443 0.397417 0.105263
0.942241 0.376318 0.096647
0.944682 0.350072 0.093432
0.946908 0.319722 0.093976
0.090644 0.521786 0.394279
0.148649 0.631550 0.456128
0.157247 0.639360 0.459264
0.183071 0.654024 0.466277
0.378491 0.671651 0.459081
0.799627 0.626439 0.171445
0.977812 0.653695 0.128274
0.983783 0.630419 0.144063
0.989342 0.598103 0.134067
0.182530 0.698321 0.497762
0.193513 0.709969 0.500924
0.200407 0.713440 0.499933
0.225013 0.726848 0.502628
0.294550 0.753743 0.507604
0.598102 0.752393 0.422607
0.950718 0.812457 0.182454
0.964921 0.808650 0.152538
0.978397 0.804727 0.109950
0.190306 0.716231 0.511947
0.195413 0.717492 0.507716
0.204490 0.721436 0.504386
0.223445 0.731037 0.503952
0.272463 0.752424 0.506455
0.497920 0.763790 0.471786
0.791512 0.741543 0.282089
0.942070 0.820638 0.283730
0.950027 0.826283 0.303516
0.193014 0.725748 0.523141
0.198024 0.726036 0.516319
0.209057 0.729845 0.509118
0.223276 0.736381 0.505848
0.259088 0.753390 0.506204
0.401524 0.776111 0.496505
0.687633 0.752139 0.370582
0.942097 0.827794 0.286295
0.937799 0.827563 0.372853
0.000000 0.074813 0.135795
0.000000 0.080874 0.145981
0.002297 0.087572 0.161644
0.148772 0.084175 0.161443
0.348344 0.071610 0.137882
0.597355 0.058335 0.186192
0.755822 0.068025 0.233370
0.761316 0.071073 0.242176
0.765845 0.075015 0.250816
0.000000 0.209045 0.307456
0.000000 0.218073 0.316984
0.000000 0.212339 0.313690
0.165218 0.164758 0.281943
0.510369 0.114079 0.214732
0.696585 0.108034 0.268844
0.711697 0.106105 0.271264
0.724863 0.105276 0.274198
0.736571 0.105442 0.277950
0.000000 0.178835 0.256285
0.000000 0.208500 0.283838
0.000000 0.215478 0.299555
0.029281 0.220430 0.320215
0.439551 0.127963 0.206313
0.703980 0.126837 0.274928
0.725990 0.130095 0.282983
0.732983 0.128492 0.285830
0.741079 0.125531 0.288125
0.003447 0.227378 0.266437
0.013920 0.280596 0.299402
0.013166 0.275284 0.310877
0.021700 0.291479 0.342430
0.442156 0.251330 0.285396
0.720111 0.187873 0.297918
0.779039 0.218900 0.330219
0.782069 0.217529 0.333323
0.789519 0.220695 0.339061
0.029652 0.356490 0.343017
0.063064 0.457918 0.410304
0.054807 0.430260 0.392909
0.059942 0.419614 0.387952
0.361918 0.480631 0.451283
0.792653 0.417143 0.399753
0.879940 0.390440 0.397415
0.874795 0.368951 0.392804
0.871612 0.348860 0.386612
0.111935 0.577020 0.495538
0.155705 0.670383 0.543749
0.155278 0.664839 0.539769
0.163396 0.659877 0.538399
0.269151 0.679611 0.545877
0.736361 0.624406 0.377912
0.982289 0.672272 0.317708
0.986526 0.638956 0.314981
0.989782 0.592691 0.308319
0.183158 0.730649 0.585796
0.188148 0.736865 0.585335
0.190882 0.736886 0.582125
0.207394 0.743907 0.581437
0.254540 0.763620 0.577954
0.572997 0.778028 0.519566
0.945205 0.819378 0.285208
0.962467 0.818073 0.253024
0.976743 0.816043 0.218927
0.194095 0.753546 0.610610
0.195412 0.752529 0.606745
0.194759 0.748712 0.597679
0.206841 0.750918 0.589929
0.242770 0.762433 0.578599
0.445489 0.783447 0.549852
0.787064 0.757708 0.360260
0.936443 0.829612 0.379924
0.947234 0.836801 0.372609
0.201461 0.769477 0.632171
0.201959 0.766329 0.623911
0.201974 0.762366 0.613822
0.207452 0.758270 0.597200
0.236267 0.764511 0.581220
0.313940 0.788909 0.566821
0.704664 0.777347 0.428180
0.935770 0.837009 0.380557
0.936261 0.839524 0.437698
0.000000 0.129924 0.216136
0.000000 0.142778 0.232909
0.000000 0.138668 0.230979
0.025473 0.138318 0.239363
0.315696 0.131915 0.207747
0.555006 0.119676 0.232704
0.682008 0.127545 0.282514
0.688541 0.133504 0.289429
0.692901 0.142305 0.297240
0.000000 0.294502 0.396461
0.000000 0.297532 0.399142
0.000000 0.320410 0.422913
0.065844 0.424039 0.525424
0.518656 0.315005 0.406018
0.612978 0.285677 0.375512
0.627744 0.261254 0.360068
0.639757 0.244720 0.350926
0.650856 0.235562 0.347333
0.000000 0.315503 0.407555
0.000000 0.331880 0.418286
0.001282 0.332912 0.424019
0.023529 0.395850 0.490982
0.431419 0.331586 0.451255
0.621582 0.287038 0.376143
0.635801 0.262840 0.361236
0.644375 0.253237 0.356498
0.652418 0.248017 0.355225
0.009908 0.342647 0.406628
0.039143 0.402062 0.449629
0.036942 0.398941 0.454166
0.047649 0.415162 0.479748
0.313988 0.502539 0.580707
0.626639 0.316854 0.394748
0.675132 0.321552 0.403158
0.687731 0.325486 0.407370
0.697652 0.332939 0.414369
0.062374 0.450252 0.471936
0.098543 0.537276 0.523087
0.101710 0.540718 0.531957
0.108540 0.539677 0.549213
0.159956 0.595972 0.611186
0.667519 0.506590 0.519058
0.748144 0.484318 0.513239
0.747440 0.472125 0.506546
0.746588 0.458593 0.498827
0.139104 0.645132 0.597474
0.176667 0.729391 0.652351
0.179918 0.732146 0.652087
0.180353 0.718916 0.644976
0.206757 0.728522 0.657767
0.614330 0.717035 0.662902
0.857467 0.671104 0.642008
0.842970 0.638952 0.620809
0.832312 0.608780 0.600339
0.206916 0.787303 0.697532
0.210811 0.792651 0.697923
0.212613 0.792387 0.695976
0.234927 0.803837 0.703633
0.312200 0.835914 0.728023
0.567894 0.844004 0.725940
0.895316 0.835745 0.593364
0.919979 0.839334 0.581698
0.942576 0.838401 0.563283
0.220974 0.815283 0.729482
0.221525 0.814543 0.726735
0.221883 0.813272 0.723254
0.242754 0.818943 0.725296
0.302971 0.839398 0.737413
0.454421 0.855223 0.734616
0.797797 0.842412 0.623938
0.932890 0.857104 0.523773
0.945542 0.864451 0.528193
0.239949 0.831801 0.750225
0.240000 0.831504 0.748325
0.241677 0.830800 0.745786
0.248842 0.831012 0.741167
0.302677 0.846774 0.746575
0.379260 0.859109 0.738818
0.704243 0.856378 0.678346
0.932686 0.864717 0.520946
0.945240 0.865558 0.499019
0.000000 0.229808 0.332004
0.000000 0.258975 0.362442
0.000000 0.237977 0.341384
0.005309 0.257460 0.368041
0.216511 0.231351 0.361403
0.527529 0.243976 0.327272
0.626414 0.259405 0.358875
0.632417 0.272628 0.370537
0.638559 0.284986 0.381619
0.000000 0.299866 0.402011
0.000000 0.302941 0.404660
0.000500 0.325115 0.427520
0.073017 0.438275 0.536165
0.569918 0.414199 0.515873
0.612068 0.411256 0.501880
0.617593 0.410866 0.500749
0.621872 0.409900 0.499086
0.625550 0.405918 0.494020
0.000000 0.321650 0.414836
0.000744 0.336614 0.423728
0.001610 0.336272 0.427915
0.026731 0.399963 0.494801
0.408289 0.469807 0.576386
0.617547 0.419502 0.507425
0.623007 0.419210 0.506438
0.625857 0.416899 0.503839
0.629085 0.414460 0.501149
0.020402 0.380728 0.449156
0.045674 0.423886 0.476789
0.041563 0.414019 0.471481
0.050516 0.425456 0.491570
0.264323 0.539483 0.613927
0.641617 0.458462 0.533097
0.648976 0.459675 0.532933
0.653803 0.462624 0.533431
0.655068 0.458954 0.530412
0.086995 0.508307 0.537693
0.133044 0.604844 0.611482
0.136993 0.612247 0.616907
0.126900 0.578987 0.593595
0.150903 0.599284 0.623320
0.628204 0.591955 0.633077
0.707395 0.562194 0.586267
0.708175 0.557494 0.580351
0.707630 0.550870 0.577121
0.163810 0.692370 0.662158
0.203431 0.769277 0.717396
0.221720 0.790502 0.733408
0.224743 0.777789 0.727165
0.248212 0.772896 0.733563
0.555107 0.778875 0.772927
0.735670 0.719842 0.722119
0.736197 0.698559 0.702853
0.740433 0.672856 0.681948
0.250894 0.821564 0.757194
0.261030 0.829747 0.763818
0.264397 0.830839 0.764749
0.300909 0.843482 0.777421
0.371955 0.866310 0.801588
0.590159 0.889526 0.840531
0.835456 0.885263 0.845800
0.851656 0.873155 0.839931
0.846435 0.852896 0.827042
0.264068 0.836703 0.768706
0.268394 0.838240 0.770241
0.272766 0.839810 0.771789
0.308837 0.852262 0.784520
0.387449 0.873653 0.808266
0.551880 0.892269 0.839779
0.815812 0.901999 0.856335
0.874896 0.892968 0.828987
0.888173 0.888910 0.821132
0.270861 0.844958 0.774912
0.275187 0.846495 0.776446
0.280147 0.848323 0.778227
0.303704 0.856381 0.786367
0.386879 0.880050 0.811881
0.506369 0.892200 0.834911
0.748814 0.908460 0.859004
0.879863 0.902457 0.833690
0.903274 0.890307 0.770082
0.000000 0.301635 0.405218
0.000000 0.306120 0.409618
0.000371 0.326565 0.430086
0.011000 0.378680 0.482722
0.203965 0.448659 0.556411
0.560871 0.378891 0.474681
0.613736 0.401639 0.491882
0.620747 0.407871 0.497873
0.626684 0.410943 0.500556
0.000000 0.305306 0.407630
0.000000 0.308254 0.410092
0.000742 0.328775 0.431033
0.074681 0.444055 0.540411
0.567074 0.426747 0.532405
0.614201 0.418472 0.509450
0.619776 0.418206 0.508451
0.624790 0.417689 0.507431
0.629881 0.418288 0.507431
0.000000 0.325179 0.419300
0.001094 0.340561 0.428497
0.001347 0.339759 0.432016
0.026070 0.402059 0.497002
0.404906 0.480777 0.583799
0.618808 0.425269 0.513927
0.624180 0.424856 0.512870
0.628589 0.423637 0.511351
0.632688 0.423273 0.510701
0.018736 0.380399 0.451095
0.043229 0.421336 0.476884
0.041184 0.415294 0.474292
0.049402 0.425543 0.492998
0.223948 0.534647 0.609780
0.643224 0.462382 0.537070
0.648412 0.461823 0.536254
0.654877 0.466074 0.538663
0.659409 0.468011 0.539538
0.083532 0.501676 0.534281
0.128048 0.593878 0.604555
0.138585 0.615532 0.621133
0.124751 0.574949 0.591403
0.143917 0.589628 0.616566
0.605681 0.601324 0.644535
0.700843 0.555089 0.587051
0.705711 0.555549 0.584566
0.707092 0.553258 0.581921
0.165871 0.695905 0.667142
0.204787 0.768462 0.720019
0.236080 0.798626 0.743624
0.229836 0.781188 0.732481
0.249487 0.771223 0.734409
0.536927 0.777170 0.772587
0.722566 0.706087 0.713622
0.729766 0.695992 0.704963
0.733904 0.681377 0.692281
0.258106 0.825387 0.763505
0.267228 0.832817 0.769560
0.270734 0.834085 0.770833
0.298909 0.844023 0.781122
0.364430 0.865144 0.804300
0.537828 0.888420 0.844178
0.834424 0.888794 0.860686
0.845362 0.876788 0.852449
0.848019 0.866173 0.845628
0.270689 0.840169 0.774980
0.274486 0.841463 0.776310
0.278216 0.842738 0.777609
0.311358 0.853691 0.789006
0.383614 0.873893 0.811566
0.541561 0.892313 0.844478
0.828398 0.905164 0.869982
0.866532 0.900670 0.865430
0.878080 0.898048 0.864775
0.277482 0.848424 0.781186
0.281279 0.849718 0.782516
0.285597 0.851251 0.784047
0.313859 0.860484 0.793613
0.396235 0.882676 0.818118
0.525172 0.894182 0.842844
0.794271 0.911665 0.872411
0.873610 0.909293 0.869614
0.886022 0.907277 0.867536
0.000000 0.307709 0.411316
0.000000 0.312160 0.415672
0.000485 0.332246 0.435584
0.016581 0.390571 0.493639
0.219918 0.481007 0.581565
0.583933 0.431793 0.531655
0.619831 0.422337 0.514007
0.625125 0.422122 0.513230
0.630432 0.421906 0.512451
0.000000 0.311064 0.413520
0.000000 0.313688 0.415718
0.000302 0.332394 0.434519
0.060077 0.434540 0.531935
0.513694 0.452116 0.580085
0.616635 0.426266 0.517432
0.621632 0.425082 0.515807
0.626646 0.424565 0.514787
0.631954 0.424350 0.514008
0.000000 0.328680 0.423632
0.000444 0.343599 0.432392
0.000494 0.343184 0.436151
0.025000 0.401624 0.496802
0.399572 0.491799 0.592086
0.620540 0.431895 0.521129
0.624876 0.429793 0.518978
0.629613 0.429002 0.517725
0.634130 0.427845 0.516236
0.016726 0.381404 0.454527
0.041204 0.419426 0.477975
0.040655 0.416040 0.476828
0.048068 0.425504 0.494374
0.171889 0.523817 0.600071
0.645336 0.469122 0.543881
0.649301 0.465724 0.541192
0.655623 0.469699 0.543416
0.661588 0.472325 0.544803
0.079426 0.494140 0.530253
0.122248 0.581094 0.595696
0.136611 0.611638 0.619352
0.122298 0.569895 0.588635
0.139888 0.583308 0.612880
0.586999 0.608111 0.651508
0.696853 0.550545 0.586276
0.700071 0.548412 0.582882
0.704370 0.549178 0.581598
0.164441 0.689489 0.665727
0.201026 0.760922 0.717146
0.243688 0.802330 0.749511
0.231525 0.781659 0.735427
0.246454 0.767050 0.733710
0.516730 0.773702 0.770101
0.714693 0.701745 0.711099
0.717938 0.677395 0.690880
0.726719 0.672649 0.687324
0.265252 0.828965 0.769622
0.273565 0.835884 0.775310
0.276948 0.837163 0.776589
0.297813 0.844601 0.784392
0.360475 0.865368 0.807092
0.517900 0.888082 0.846304
0.831017 0.890075 0.868088
0.834764 0.866481 0.851266
0.840493 0.860285 0.846414
0.277026 0.843236 0.780731
0.280824 0.844530 0.782060
0.284429 0.845815 0.783365
0.307269 0.853395 0.791319
0.376703 0.873098 0.813220
0.501904 0.890665 0.843152
0.799167 0.907412 0.877700
0.867483 0.903053 0.873776
0.874973 0.900218 0.871711
0.284119 0.851898 0.787476
0.287917 0.853192 0.788806
0.291705 0.854483 0.790132
0.310485 0.860772 0.796699
0.394258 0.883502 0.821946
0.511876 0.893954 0.844908
0.784314 0.912483 0.878227
0.875132 0.911006 0.877777
0.884143 0.908671 0.876103
