example/ios/Joker.cube
# Created by Benjamin (IWLTBAP): https://luts.iwltbap.com
# Copyright: (C) Copyright 2019 Triune Films and IWLTBAP SAS
# Cannot be resold, shared or otherwise redistributed
TITLE "Triune Films Cinematic LUTs V4 (Panasonic V-Log L)"
LUT_3D_SIZE 33
0.000000 0.000000 0.000519
0.002108 0.000444 0.000876
0.006361 0.001341 0.001596
0.012369 0.002608 0.002614
0.019990 0.004223 0.003848
0.029840 0.006387 0.004899
0.042387 0.009180 0.006268
0.057753 0.012681 0.008019
0.076513 0.016679 0.010081
0.096933 0.020851 0.011944
0.119503 0.024928 0.013542
0.146128 0.029363 0.015778
0.176632 0.034259 0.018410
0.211829 0.039170 0.020521
0.250897 0.043479 0.021675
0.292704 0.047339 0.022873
0.337607 0.051526 0.024307
0.386480 0.055436 0.026346
0.440570 0.060292 0.029332
0.500544 0.065341 0.032065
0.564915 0.071486 0.034639
0.629642 0.078087 0.036705
0.694442 0.086582 0.038060
0.755757 0.095432 0.038271
0.803227 0.102648 0.038237
0.830242 0.106637 0.038252
0.837308 0.107498 0.038361
0.840195 0.107719 0.038543
0.843087 0.107923 0.038744
0.846006 0.108136 0.038938
0.848900 0.108333 0.039146
0.851822 0.108535 0.039353
0.854725 0.108704 0.039592
0.000318 0.001459 0.001107
0.002235 0.001604 0.001243
0.008537 0.002803 0.002271
0.017585 0.004711 0.003803
0.031254 0.007671 0.005338
0.050294 0.011968 0.007400
0.074933 0.017293 0.010045
0.102867 0.023001 0.012634
0.127162 0.027174 0.014206
0.155222 0.031705 0.016715
0.187106 0.036636 0.019259
0.223598 0.041440 0.020913
0.263552 0.045590 0.022003
0.306462 0.049487 0.023097
0.352579 0.053770 0.024702
0.403432 0.057915 0.026987
0.459584 0.063329 0.029982
0.521496 0.068725 0.032637
0.585970 0.075122 0.034943
0.650389 0.082460 0.036786
0.714455 0.091433 0.037621
0.770757 0.100013 0.037577
0.809645 0.106086 0.037386
0.828496 0.108999 0.037253
0.832051 0.109475 0.037282
0.834961 0.109783 0.037430
0.837872 0.110086 0.037583
0.840758 0.110380 0.037744
0.843644 0.110609 0.037919
0.846557 0.110839 0.038095
0.849444 0.111060 0.038277
0.852363 0.111273 0.038472
0.855252 0.111488 0.038660
0.000971 0.004452 0.002312
0.002640 0.005471 0.002773
0.007077 0.004891 0.002755
0.016718 0.006493 0.004256
0.030062 0.009082 0.005708
0.047678 0.012842 0.007446
0.071181 0.017654 0.009801
0.099197 0.023228 0.012494
0.132133 0.028894 0.014782
0.173135 0.035450 0.018389
0.222553 0.042112 0.021033
0.278920 0.047838 0.022432
0.340681 0.053538 0.024216
0.410900 0.059513 0.027377
0.475623 0.065450 0.030641
0.537593 0.071191 0.033222
0.600822 0.077849 0.035399
0.664207 0.085696 0.037045
0.726229 0.094601 0.037606
0.777491 0.102650 0.037543
0.810639 0.107916 0.037364
0.823353 0.109901 0.037283
0.827190 0.110493 0.037256
0.829992 0.110899 0.037223
0.832826 0.111310 0.037190
0.835655 0.111728 0.037157
0.838511 0.112149 0.037124
0.841343 0.112558 0.037104
0.844178 0.112963 0.037091
0.847074 0.113299 0.037193
0.849960 0.113594 0.037353
0.852873 0.113893 0.037513
0.855759 0.114188 0.037674
0.001903 0.008728 0.004035
0.003839 0.010967 0.004987
0.005746 0.010619 0.004915
0.014008 0.009561 0.004909
0.029469 0.012020 0.006557
0.047996 0.015773 0.008236
0.070234 0.020218 0.010181
0.096963 0.025351 0.012776
0.128608 0.030509 0.014792
0.167548 0.036188 0.018176
0.213994 0.042318 0.021065
0.268378 0.047832 0.022240
0.329408 0.053208 0.023747
0.399038 0.059218 0.026680
0.479139 0.066699 0.030772
0.568226 0.075446 0.034325
0.657824 0.086025 0.036942
0.742887 0.098536 0.037591
0.799665 0.107675 0.037440
0.818746 0.110834 0.037302
0.822306 0.111390 0.037280
0.825160 0.111836 0.037262
0.827980 0.112270 0.037241
0.830782 0.112675 0.037208
0.833611 0.113084 0.037175
0.836418 0.113492 0.037142
0.839274 0.113913 0.037109
0.842103 0.114331 0.037076
0.844931 0.114748 0.037044
0.847787 0.115169 0.037010
0.850616 0.115587 0.036978
0.853472 0.116008 0.036945
0.856306 0.116413 0.036931
0.003090 0.014399 0.006289
0.005009 0.018422 0.007853
0.006385 0.019380 0.008245
0.010153 0.018334 0.007969
0.024069 0.015893 0.007552
0.046297 0.019381 0.009293
0.070749 0.024162 0.011178
0.098597 0.029214 0.013495
0.129361 0.034060 0.015401
0.165069 0.039175 0.018440
0.210094 0.045028 0.021622
0.263766 0.050078 0.022426
0.322390 0.054901 0.023563
0.388132 0.060227 0.026062
0.464165 0.067210 0.030054
0.550293 0.074911 0.033637
0.639327 0.084848 0.036506
0.727198 0.097639 0.037601
0.793231 0.108259 0.037466
0.820279 0.112743 0.037283
0.823104 0.113184 0.037265
0.825958 0.113630 0.037247
0.828778 0.114064 0.037226
0.831579 0.114469 0.037193
0.834408 0.114878 0.037160
0.837210 0.115283 0.037127
0.840045 0.115695 0.037094
0.842873 0.116112 0.037061
0.845701 0.116530 0.037028
0.848558 0.116951 0.036995
0.851386 0.117369 0.036963
0.854242 0.117790 0.036930
0.857071 0.118207 0.036897
0.004629 0.022713 0.009471
0.006774 0.027952 0.011500
0.007841 0.031535 0.012949
0.010091 0.030673 0.012641
0.015756 0.029131 0.012135
0.037195 0.026175 0.011976
0.067971 0.029858 0.012391
0.098910 0.035077 0.014642
0.131846 0.039912 0.016779
0.168485 0.044186 0.019333
0.211139 0.049250 0.022268
0.261239 0.053531 0.022932
0.318169 0.058080 0.023549
0.382161 0.062980 0.025759
0.455898 0.069964 0.029501
0.539749 0.077828 0.033114
0.627132 0.087142 0.036151
0.713538 0.099050 0.037493
0.784707 0.110207 0.037506
0.819191 0.115383 0.037273
0.824154 0.115547 0.037245
0.826779 0.115477 0.037231
0.829568 0.115840 0.037211
0.832369 0.116245 0.037178
0.835198 0.116655 0.037145
0.838000 0.117060 0.037112
0.840829 0.117469 0.037079
0.843636 0.117877 0.037046
0.846464 0.118294 0.037014
0.849321 0.118716 0.036980
0.852149 0.119133 0.036948
0.855005 0.119554 0.036915
0.857834 0.119972 0.036882
0.005857 0.033573 0.013590
0.007254 0.040674 0.016328
0.008326 0.047232 0.019065
0.009628 0.046564 0.018787
0.013130 0.045839 0.018626
0.022693 0.043676 0.017912
0.056408 0.038479 0.015561
0.095117 0.042823 0.015762
0.132521 0.048613 0.018868
0.171550 0.052089 0.020809
0.215807 0.056142 0.023172
0.264977 0.059313 0.023761
0.319456 0.063728 0.024155
0.379118 0.068048 0.025730
0.449005 0.074228 0.029127
0.530878 0.082289 0.032652
0.618106 0.091792 0.035830
0.704488 0.103975 0.037420
0.779708 0.115981 0.037557
0.820152 0.122279 0.037251
0.827390 0.122680 0.037191
0.829788 0.122245 0.037175
0.832205 0.121773 0.037161
0.834620 0.121307 0.037136
0.837078 0.120882 0.037110
0.839548 0.120541 0.037083
0.842077 0.120276 0.037056
0.844594 0.120041 0.037028
0.847227 0.120059 0.036999
0.850084 0.120480 0.036966
0.852912 0.120897 0.036933
0.855768 0.121319 0.036900
0.858597 0.121736 0.036867
0.006663 0.046923 0.018962
0.008160 0.055371 0.023187
0.009430 0.062919 0.026975
0.009955 0.065243 0.028148
0.011895 0.064483 0.027591
0.015734 0.063547 0.026942
0.032398 0.060929 0.025239
0.081521 0.053225 0.018072
0.128757 0.060448 0.020869
0.173108 0.064595 0.023039
0.219222 0.066364 0.023927
0.269590 0.068603 0.024679
0.324397 0.071695 0.024947
0.383859 0.075622 0.026321
0.451276 0.080884 0.029442
0.527487 0.088624 0.032396
0.611021 0.098375 0.035440
0.696648 0.111069 0.037330
0.774845 0.123845 0.037552
0.821355 0.131523 0.037103
0.831647 0.132134 0.037041
0.833878 0.131330 0.037041
0.836098 0.130575 0.037040
0.838334 0.129924 0.037040
0.840649 0.129322 0.037034
0.843012 0.128607 0.037012
0.845411 0.127915 0.036990
0.847774 0.127201 0.036968
0.850120 0.126575 0.036944
0.852515 0.126007 0.036919
0.854906 0.125489 0.036894
0.857385 0.125059 0.036868
0.859932 0.124823 0.036841
0.008056 0.062187 0.026665
0.008841 0.072072 0.031460
0.009585 0.080701 0.035693
0.010170 0.087010 0.039272
0.010865 0.085724 0.038586
0.012637 0.084923 0.038180
0.019534 0.083164 0.036876
0.049434 0.079940 0.033607
0.113380 0.072871 0.022754
0.169583 0.080846 0.025341
0.221276 0.081944 0.025389
0.273852 0.081778 0.024891
0.328431 0.083564 0.025450
0.389364 0.087002 0.026837
0.456749 0.091895 0.029963
0.532644 0.099024 0.032801
0.614308 0.108286 0.035534
0.695364 0.121059 0.037151
0.771508 0.134372 0.037312
0.822407 0.143212 0.036906
0.837229 0.144531 0.036828
0.839239 0.143322 0.036831
0.841244 0.142159 0.036835
0.843294 0.141087 0.036842
0.845408 0.140105 0.036848
0.847509 0.139151 0.036853
0.849645 0.138219 0.036858
0.851769 0.137315 0.036862
0.853973 0.136293 0.036849
0.856237 0.135258 0.036831
0.858516 0.134327 0.036811
0.860837 0.133436 0.036791
0.863165 0.132631 0.036770
0.008607 0.079765 0.035122
0.009155 0.091163 0.041343
0.009915 0.101261 0.046975
0.011536 0.112186 0.053459
0.011948 0.111539 0.053158
0.013191 0.110068 0.052492
0.015539 0.108830 0.051935
0.022382 0.106212 0.049802
0.073210 0.101335 0.043902
0.151808 0.097146 0.029281
0.217668 0.102853 0.028116
0.275934 0.101355 0.025858
0.334017 0.100391 0.025580
0.393111 0.103009 0.027028
0.461152 0.107313 0.030509
0.539024 0.113405 0.033183
0.619943 0.122037 0.035604
0.700497 0.133957 0.036938
0.776280 0.147752 0.037053
0.826813 0.157073 0.036680
0.843993 0.159542 0.036631
0.845893 0.158372 0.036650
0.847741 0.156879 0.036656
0.849574 0.155386 0.036653
0.851481 0.154001 0.036649
0.853368 0.152629 0.036645
0.855300 0.151275 0.036643
0.857244 0.149871 0.036652
0.859209 0.148520 0.036660
0.861217 0.147210 0.036667
0.863233 0.146008 0.036674
0.865322 0.144904 0.036677
0.867481 0.143666 0.036661
0.008838 0.099973 0.046081
0.010745 0.113577 0.054122
0.012881 0.125353 0.061073
0.015738 0.137920 0.068530
0.016841 0.142161 0.071089
0.017256 0.140178 0.070020
0.018606 0.138549 0.069333
0.021106 0.136168 0.068076
0.035393 0.133448 0.065263
0.102109 0.125936 0.056379
0.197638 0.124486 0.034262
0.271956 0.127858 0.029444
0.335367 0.124645 0.026347
0.399006 0.123723 0.027101
0.465237 0.126977 0.030804
0.541564 0.132630 0.033536
0.625073 0.140384 0.035681
0.705994 0.150585 0.036713
0.781214 0.163429 0.036593
0.831881 0.172544 0.036274
0.850647 0.174883 0.036172
0.852795 0.173852 0.036197
0.854791 0.172838 0.036227
0.856726 0.171680 0.036241
0.858549 0.170213 0.036264
0.860353 0.168757 0.036287
0.862177 0.167134 0.036333
0.863945 0.165364 0.036391
0.865729 0.163629 0.036448
0.867530 0.161998 0.036451
0.869327 0.160393 0.036452
0.871232 0.158838 0.036463
0.873138 0.157346 0.036473
0.011833 0.123710 0.059998
0.015246 0.139070 0.069100
0.017514 0.152655 0.077263
0.019611 0.167037 0.085964
0.021060 0.178206 0.092774
0.021183 0.175729 0.091319
0.022268 0.173476 0.090076
0.024174 0.171662 0.089196
0.027997 0.167579 0.086943
0.052327 0.165469 0.083282
0.137185 0.152933 0.068412
0.250329 0.156124 0.037042
0.331865 0.157167 0.029819
0.399390 0.152251 0.028602
0.470085 0.151403 0.031377
0.545674 0.155855 0.034003
0.627373 0.162986 0.036005
0.708591 0.171885 0.036621
0.786325 0.182791 0.036295
0.837334 0.190918 0.035491
0.855930 0.192915 0.035341
0.858119 0.191538 0.035403
0.860381 0.190204 0.035468
0.862561 0.188856 0.035517
0.864778 0.187550 0.035564
0.866913 0.186040 0.035621
0.869019 0.184364 0.035694
0.871065 0.182579 0.035779
0.873056 0.180815 0.035854
0.874777 0.179117 0.035885
0.876483 0.177334 0.035929
0.878219 0.175426 0.035993
0.879943 0.173549 0.036055
0.016526 0.150539 0.075919
0.019073 0.168282 0.086643
0.021035 0.184145 0.096297
0.023195 0.200941 0.107238
0.025671 0.218533 0.118903
0.025914 0.218124 0.118633
0.026293 0.215259 0.116724
0.027408 0.212365 0.114828
0.029698 0.210062 0.113520
0.034673 0.204784 0.110390
0.079387 0.202016 0.104558
0.179621 0.181734 0.079762
0.309702 0.192429 0.038288
0.395909 0.190457 0.031600
0.468699 0.185304 0.032223
0.548532 0.184597 0.034311
0.631945 0.189791 0.036158
0.711575 0.197667 0.036323
0.788872 0.207177 0.035874
0.843001 0.213721 0.034986
0.863098 0.214572 0.034647
0.864954 0.212585 0.034659
0.866870 0.210790 0.034699
0.868739 0.209016 0.034713
0.870653 0.207306 0.034725
0.872561 0.205650 0.034735
0.874579 0.203992 0.034767
0.876586 0.202067 0.034834
0.878480 0.199751 0.034919
0.880404 0.197420 0.035011
0.882355 0.195268 0.035103
0.884395 0.193372 0.035193
0.886412 0.191486 0.035283
0.020127 0.181544 0.094643
0.022705 0.202036 0.107931
0.025285 0.220192 0.119982
0.028363 0.239162 0.132578
0.032654 0.260425 0.146543
0.036812 0.268832 0.152272
0.035157 0.264827 0.149559
0.034498 0.261098 0.147090
0.036521 0.258416 0.145468
0.041735 0.254011 0.142545
0.051087 0.248826 0.139104
0.125060 0.242435 0.128590
0.233266 0.213915 0.090483
0.373456 0.232913 0.040409
0.463800 0.229041 0.035618
0.545606 0.223337 0.035629
0.632544 0.222586 0.036310
0.716226 0.227549 0.036260
0.792988 0.235546 0.035518
0.849019 0.241136 0.034338
0.872019 0.241440 0.033892
0.873568 0.238113 0.033986
0.875111 0.235345 0.034031
0.876784 0.233070 0.034027
0.878511 0.230883 0.034020
0.880234 0.228755 0.034012
0.881981 0.226630 0.034003
0.883702 0.224456 0.034027
0.885429 0.222304 0.034050
0.887170 0.220118 0.034074
0.888807 0.217650 0.034110
0.890524 0.214860 0.034198
0.892279 0.212054 0.034304
0.024237 0.216824 0.117708
0.028015 0.240196 0.133221
0.033140 0.262126 0.147685
0.040044 0.284445 0.163061
0.061506 0.310034 0.179567
0.078348 0.330960 0.193919
0.075755 0.326416 0.190674
0.074676 0.321805 0.187318
0.075116 0.317077 0.184130
0.078175 0.313628 0.182036
0.083129 0.305850 0.176907
0.104106 0.298851 0.170737
0.182102 0.285999 0.155310
0.298726 0.252850 0.106119
0.439144 0.277194 0.044719
0.538369 0.271110 0.038800
0.628132 0.264984 0.037300
0.715249 0.264336 0.036439
0.798011 0.268196 0.035410
0.856560 0.272311 0.033963
0.881611 0.272165 0.033148
0.883910 0.268576 0.033090
0.885009 0.264810 0.033057
0.886125 0.261154 0.033021
0.887594 0.258373 0.033063
0.889136 0.255822 0.033102
0.890710 0.253298 0.033141
0.892204 0.250577 0.033187
0.893834 0.247916 0.033234
0.895503 0.245304 0.033278
0.897159 0.242730 0.033321
0.898823 0.240222 0.033343
0.900323 0.237397 0.033383
0.031008 0.257826 0.144763
0.038467 0.285083 0.163553
0.061706 0.311825 0.180722
0.084632 0.339416 0.199723
0.104190 0.368815 0.221366
0.122347 0.400221 0.245862
0.122932 0.400672 0.246231
0.120419 0.394807 0.241619
0.118804 0.388817 0.236952
0.118370 0.383287 0.232746
0.119833 0.378283 0.229096
0.125234 0.366764 0.220065
0.162484 0.354769 0.206728
0.252899 0.334302 0.184297
0.373588 0.301709 0.125023
0.506795 0.323997 0.050498
0.618060 0.316578 0.040345
0.710671 0.310405 0.037620
0.795750 0.308313 0.035613
0.863477 0.308893 0.033611
0.892647 0.307118 0.032404
0.895868 0.302945 0.032317
0.896752 0.298623 0.032370
0.897637 0.294289 0.032398
0.898571 0.290028 0.032424
0.899692 0.286311 0.032424
0.901065 0.283254 0.032387
0.902377 0.280136 0.032313
0.903681 0.276994 0.032240
0.905029 0.273983 0.032253
0.906372 0.271040 0.032285
0.907755 0.268144 0.032316
0.909106 0.265222 0.032347
0.055499 0.306159 0.177101
0.084234 0.339830 0.199961
0.104597 0.370694 0.222727
0.122559 0.401776 0.247060
0.140304 0.434261 0.273471
0.157191 0.467923 0.301384
0.163947 0.482406 0.313491
0.161460 0.475966 0.308123
0.160027 0.469996 0.303173
0.158504 0.462796 0.297170
0.159129 0.457354 0.292707
0.163501 0.447714 0.284368
0.181317 0.431507 0.268861
0.231157 0.414499 0.247144
0.325576 0.383958 0.209748
0.447956 0.353507 0.146211
0.576958 0.373651 0.054105
0.699819 0.364451 0.040210
0.790160 0.357704 0.036777
0.865985 0.353126 0.033673
0.903862 0.348506 0.031818
0.908795 0.342217 0.031686
0.909545 0.337029 0.031746
0.910331 0.331944 0.031747
0.911128 0.327061 0.031627
0.911950 0.322331 0.031508
0.912820 0.317675 0.031385
0.913859 0.313614 0.031414
0.915016 0.309907 0.031433
0.916194 0.306292 0.031442
0.917359 0.302744 0.031444
0.918606 0.299303 0.031431
0.919827 0.295858 0.031420
0.099568 0.363663 0.217439
0.121831 0.401662 0.246942
0.140579 0.436040 0.274924
0.157190 0.469405 0.302601
0.172723 0.502996 0.330645
0.186866 0.535492 0.357832
0.197019 0.559855 0.378151
0.195476 0.555702 0.374719
0.193823 0.550615 0.370519
0.193888 0.544272 0.365217
0.193524 0.538153 0.360142
0.196235 0.533001 0.355770
0.214033 0.516564 0.340585
0.250139 0.496251 0.317566
0.302532 0.476123 0.290499
0.393220 0.431722 0.235526
0.514790 0.404333 0.171201
0.651344 0.427076 0.055481
0.779816 0.415256 0.038861
0.863806 0.408001 0.034706
0.912862 0.398767 0.031624
0.922965 0.389893 0.031079
0.923024 0.381043 0.031020
0.923674 0.374890 0.030939
0.924434 0.369021 0.030855
0.925197 0.363343 0.030776
0.925953 0.357961 0.030720
0.926647 0.352509 0.030754
0.927380 0.347203 0.030789
0.928348 0.342794 0.030670
0.929379 0.338650 0.030550
0.930467 0.334606 0.030427
0.931535 0.330615 0.030379
0.135585 0.427784 0.268152
0.156274 0.468704 0.301993
0.173076 0.504670 0.332028
0.187101 0.536943 0.359054
0.199714 0.566964 0.383964
0.210909 0.594180 0.404208
0.223163 0.619749 0.420045
0.224145 0.621223 0.420879
0.222351 0.616745 0.418331
0.221558 0.612658 0.416018
0.221883 0.607418 0.413031
0.226141 0.602338 0.410011
0.239521 0.595386 0.404597
0.271802 0.575956 0.387055
0.315541 0.556327 0.362104
0.368383 0.536748 0.334581
0.452557 0.476114 0.265676
0.578103 0.456938 0.197704
0.727359 0.484663 0.056230
0.857912 0.470359 0.036566
0.917519 0.461059 0.033361
0.936298 0.449723 0.031586
0.936751 0.438065 0.031024
0.937021 0.426758 0.030775
0.937918 0.418305 0.030542
0.938760 0.411247 0.030469
0.939566 0.404650 0.030387
0.940302 0.397948 0.030300
0.940925 0.391393 0.030214
0.941585 0.384935 0.030125
0.942355 0.379142 0.030040
0.943310 0.374380 0.029976
0.944286 0.369773 0.029912
0.168689 0.495882 0.324668
0.186341 0.535941 0.358217
0.200064 0.568462 0.385151
0.211016 0.595311 0.404991
0.223169 0.620617 0.420390
0.235158 0.644024 0.432480
0.245862 0.664633 0.441370
0.250485 0.673326 0.444588
0.249312 0.670132 0.443517
0.249314 0.667426 0.442801
0.249425 0.664442 0.442258
0.250317 0.661258 0.441440
0.253735 0.658286 0.440545
0.266538 0.651465 0.437128
0.311283 0.632044 0.420764
0.363650 0.612609 0.396498
0.427720 0.591214 0.368239
0.509186 0.520118 0.291480
0.640954 0.511150 0.218425
0.802550 0.546774 0.055465
0.922303 0.531235 0.033406
0.950308 0.518591 0.031114
0.951005 0.505509 0.031335
0.950743 0.492707 0.031466
0.950490 0.480357 0.031565
0.950933 0.469940 0.031273
0.952071 0.461631 0.030743
0.953163 0.453284 0.030246
0.954120 0.444878 0.029998
0.955111 0.436643 0.029756
0.955913 0.428831 0.029624
0.956581 0.421335 0.029596
0.957511 0.414972 0.029556
0.196422 0.560574 0.378643
0.210217 0.594151 0.404113
0.223328 0.621788 0.420894
0.235106 0.645004 0.432769
0.245546 0.665560 0.441543
0.254328 0.682890 0.447506
0.261836 0.696238 0.450856
0.267066 0.704516 0.452219
0.267030 0.703681 0.452241
0.267225 0.702400 0.452343
0.269086 0.701597 0.452775
0.271953 0.700680 0.453268
0.276029 0.700123 0.453886
0.281394 0.699914 0.454809
0.290686 0.696416 0.455007
0.338310 0.683055 0.443281
0.405979 0.664920 0.418712
0.485020 0.639877 0.383670
0.563578 0.562840 0.303223
0.707690 0.567508 0.216705
0.877995 0.613006 0.051393
0.960509 0.596462 0.036662
0.965685 0.582658 0.033495
0.965366 0.568147 0.034151
0.965391 0.553535 0.031671
0.964842 0.539298 0.033404
0.965525 0.526430 0.031502
0.965910 0.516972 0.032000
0.966775 0.507772 0.031434
0.967817 0.498704 0.030541
0.968448 0.489751 0.030422
0.969346 0.480743 0.029971
0.970241 0.471849 0.029525
0.219393 0.614698 0.416802
0.233774 0.643838 0.432128
0.245235 0.666723 0.441833
0.254082 0.683985 0.447578
0.261431 0.697319 0.450938
0.267708 0.707162 0.452295
0.271648 0.713227 0.453196
0.273587 0.715733 0.453633
0.274261 0.716004 0.453776
0.275102 0.716343 0.453955
0.277972 0.717503 0.454513
0.282055 0.718654 0.455255
0.287659 0.720239 0.456346
0.294722 0.722386 0.457594
0.304087 0.725406 0.459164
0.316093 0.726825 0.460745
0.368135 0.720235 0.451021
0.448526 0.706158 0.428607
0.543289 0.683288 0.384100
0.620935 0.608593 0.303123
0.776156 0.625712 0.191250
0.936772 0.675411 0.045818
0.970759 0.655961 0.052929
0.972416 0.644440 0.058075
0.973751 0.631871 0.061253
0.975098 0.618816 0.060606
0.975873 0.605180 0.060166
0.976904 0.590541 0.050632
0.977383 0.579636 0.049939
0.978528 0.569042 0.044528
0.979802 0.558373 0.037746
0.980671 0.548153 0.037090
0.981969 0.538016 0.034846
0.241753 0.661088 0.439626
0.252791 0.683350 0.447238
0.261176 0.698469 0.450851
0.267343 0.708370 0.452237
0.271351 0.714547 0.453154
0.273316 0.717055 0.453551
0.273990 0.717326 0.453694
0.274670 0.717600 0.453838
0.275343 0.717871 0.453981
0.276024 0.718145 0.454126
0.278201 0.719017 0.454542
0.282109 0.720593 0.455248
0.287838 0.722930 0.456315
0.295236 0.725977 0.457627
0.304859 0.730063 0.459099
0.317765 0.735544 0.460760
0.339082 0.742767 0.462128
0.409359 0.739359 0.447447
0.495389 0.730665 0.430099
0.600906 0.712141 0.371211
0.684555 0.652147 0.288120
0.848735 0.690272 0.142659
0.961510 0.728761 0.063097
0.972287 0.705987 0.069109
0.974676 0.696869 0.074345
0.976714 0.687131 0.079665
0.978746 0.677138 0.085540
0.980467 0.665814 0.089868
0.982129 0.653530 0.093883
0.983767 0.643118 0.097490
0.985352 0.633867 0.097044
0.987068 0.624173 0.093470
0.988562 0.613965 0.088154
0.258536 0.695445 0.450111
0.266426 0.708600 0.452051
0.271027 0.715828 0.453105
0.273205 0.718449 0.453325
0.273897 0.718742 0.453470
0.274571 0.719013 0.453613
0.275244 0.719284 0.453756
0.275925 0.719558 0.453901
0.276598 0.719829 0.454044
0.277278 0.720103 0.454188
0.278688 0.720651 0.454459
0.282180 0.722048 0.455084
0.287338 0.724130 0.455996
0.294227 0.726917 0.457240
0.303040 0.730581 0.458605
0.314240 0.735308 0.460108
0.330239 0.741819 0.461938
0.375666 0.745758 0.456589
0.461826 0.741105 0.438964
0.547459 0.738030 0.410338
0.650151 0.713230 0.348336
0.748285 0.691410 0.258349
0.908650 0.754410 0.098551
0.961875 0.767381 0.063520
0.969383 0.747428 0.071034
0.973407 0.740537 0.075174
0.976896 0.733463 0.087094
0.980037 0.725770 0.093862
0.982422 0.716917 0.106668
0.984678 0.707480 0.113085
0.986555 0.698299 0.118291
0.988476 0.691007 0.124011
0.990268 0.683194 0.128918
0.269813 0.715515 0.452829
0.273002 0.719836 0.453121
0.273793 0.720170 0.453249
0.274484 0.720445 0.453389
0.275164 0.720719 0.453533
0.275838 0.720990 0.453677
0.276511 0.721262 0.453820
0.277192 0.721535 0.453964
0.277865 0.721807 0.454107
0.278545 0.722081 0.454252
0.279377 0.722415 0.454427
0.282448 0.723597 0.454954
0.286862 0.725376 0.455748
0.293238 0.727973 0.456897
0.301347 0.731244 0.458199
0.312068 0.735753 0.459654
0.324807 0.740958 0.461100
0.351335 0.747798 0.461366
0.425776 0.745881 0.446010
0.510997 0.741849 0.429681
0.596912 0.739610 0.382382
0.692024 0.710657 0.315807
0.818837 0.730731 0.227574
0.943580 0.796089 0.075871
0.957996 0.793506 0.064945
0.964246 0.779676 0.060245
0.968146 0.775141 0.064169
0.972181 0.770372 0.069493
0.976354 0.764829 0.072785
0.980460 0.758528 0.083355
0.984449 0.751690 0.093255
0.987550 0.744338 0.112478
0.990256 0.738899 0.126799
0.273434 0.721520 0.453078
0.274194 0.721812 0.453204
0.274962 0.722107 0.453330
0.275722 0.722399 0.453455
0.276419 0.722677 0.453596
0.277093 0.722949 0.453739
0.277766 0.723220 0.453882
0.278446 0.723494 0.454027
0.279120 0.723765 0.454170
0.279800 0.724039 0.454314
0.280474 0.724310 0.454457
0.282826 0.725185 0.454850
0.286711 0.726742 0.455547
0.292544 0.729093 0.456541
0.300172 0.732115 0.457784
0.310028 0.736226 0.459160
0.321702 0.740986 0.460587
0.338879 0.747325 0.462107
0.392337 0.749866 0.454313
0.478833 0.745229 0.438009
0.562883 0.742883 0.403281
0.646148 0.729945 0.356511
0.742257 0.715978 0.275241
0.892609 0.774119 0.172813
0.948607 0.810529 0.131754
0.957221 0.809404 0.084589
0.960724 0.801982 0.082033
0.964129 0.800084 0.072684
0.967737 0.797636 0.063237
0.971325 0.794102 0.063108
0.975221 0.790072 0.064084
0.979242 0.785527 0.067006
0.983445 0.780555 0.073150
0.274614 0.723476 0.453160
0.275374 0.723768 0.453285
0.276141 0.724063 0.453411
0.276901 0.724356 0.453536
0.277669 0.724651 0.453663
0.278360 0.724926 0.453802
0.279033 0.725197 0.453945
0.279714 0.725471 0.454090
0.280387 0.725742 0.454233
0.281067 0.726016 0.454377
0.281741 0.726287 0.454521
0.283211 0.726836 0.454768
0.286816 0.728225 0.455387
0.291987 0.730294 0.456242
0.298990 0.733077 0.457429
0.308133 0.736756 0.458698
0.319698 0.741399 0.460114
0.332632 0.746705 0.461540
0.364158 0.752644 0.460421
0.442942 0.749951 0.444012
0.527758 0.746391 0.424386
