example/ios/Lighthouse.cube
# Created by Benjamin (IWLTBAP): https://luts.iwltbap.com
# Copyright: (C) Copyright 2019 Triune Films and IWLTBAP SAS
# Cannot be resold, shared or otherwise redistributed
TITLE "Triune Films Cinematic LUTs V4 (Panasonic V-Log L)"
LUT_3D_SIZE 5
0.000000 0.000000 0.000000
0.000000 0.000000 0.000000
0.005886 0.005886 0.005886
0.024610 0.024610 0.024610
0.031188 0.031188 0.031188
0.002671 0.002671 0.002671
0.004490 0.004490 0.004490
0.015142 0.015142 0.015142
0.023293 0.023293 0.023293
0.024011 0.024011 0.024011
0.033211 0.033211 0.033211
0.107889 0.107889 0.107889
0.038249 0.038249 0.038249
0.021926 0.021926 0.021926
0.022473 0.022473 0.022473
0.242590 0.242590 0.242590
0.244062 0.244062 0.244062
0.245128 0.245128 0.245128
0.098606 0.098606 0.098606
0.055790 0.055790 0.055790
0.248779 0.248779 0.248779
0.248899 0.248899 0.248899
0.249235 0.249235 0.249235
0.219948 0.219948 0.219948
0.156128 0.156128 0.156128
0.031835 0.031835 0.031835
0.045225 0.045225 0.045225
0.037061 0.037061 0.037061
0.066482 0.066482 0.066482
0.073314 0.073314 0.073314
0.073752 0.073752 0.073752
0.095904 0.095904 0.095904
0.071939 0.071939 0.071939
0.077360 0.077360 0.077360
0.074771 0.074771 0.074771
0.091464 0.091464 0.091464
0.089842 0.089842 0.089842
0.074328 0.074328 0.074328
0.059343 0.059343 0.059343
0.052615 0.052615 0.052615
0.254871 0.254871 0.254871
0.255276 0.255276 0.255276
0.252446 0.252446 0.252446
0.130742 0.130742 0.130742
0.103748 0.103748 0.103748
0.269541 0.269541 0.269541
0.263275 0.263275 0.263275
0.257831 0.257831 0.257831
0.223469 0.223469 0.223469
0.167567 0.167567 0.167567
0.173823 0.173823 0.173823
0.190312 0.190312 0.190312
0.112178 0.112178 0.112178
0.132653 0.132653 0.132653
0.146053 0.146053 0.146053
0.296951 0.296951 0.296951
0.348255 0.348255 0.348255
0.184839 0.184839 0.184839
0.200829 0.200829 0.200829
0.199164 0.199164 0.199164
0.331218 0.331218 0.331218
0.356437 0.356437 0.356437
0.464221 0.464221 0.464221
0.448500 0.448500 0.448500
0.412168 0.412168 0.412168
0.465166 0.465166 0.465166
0.451027 0.451027 0.451027
0.408596 0.408596 0.408596
0.277148 0.277148 0.277148
0.253556 0.253556 0.253556
0.524685 0.524685 0.524685
0.494894 0.494894 0.494894
0.415737 0.415737 0.415737
0.320361 0.320361 0.320361
0.238458 0.238458 0.238458
0.366378 0.366378 0.366378
0.396565 0.396565 0.396565
0.260080 0.260080 0.260080
0.328179 0.328179 0.328179
0.379032 0.379032 0.379032
0.430702 0.430702 0.430702
0.447701 0.447701 0.447701
0.421828 0.421828 0.421828
0.406161 0.406161 0.406161
0.412159 0.412159 0.412159
0.487643 0.487643 0.487643
0.528617 0.528617 0.528617
0.647680 0.647680 0.647680
0.563084 0.563084 0.563084
0.547767 0.547767 0.547767
0.645288 0.645288 0.645288
0.653895 0.653895 0.653895
0.691855 0.691855 0.691855
0.818117 0.818117 0.818117
0.811861 0.811861 0.811861
0.674836 0.674836 0.674836
0.675872 0.675872 0.675872
0.695643 0.695643 0.695643
0.795592 0.795592 0.795592
0.757163 0.757163 0.757163
0.427246 0.427246 0.427246
0.463758 0.463758 0.463758
0.511198 0.511198 0.511198
0.405513 0.405513 0.405513
0.409821 0.409821 0.409821
0.437584 0.437584 0.437584
0.453188 0.453188 0.453188
0.445552 0.445552 0.445552
0.412090 0.412090 0.412090
0.416547 0.416547 0.416547
0.492802 0.492802 0.492802
0.530263 0.530263 0.530263
0.642348 0.642348 0.642348
0.539007 0.539007 0.539007
0.535554 0.535554 0.535554
0.654292 0.654292 0.654292
0.662522 0.662522 0.662522
0.688492 0.688492 0.688492
0.832765 0.832765 0.832765
0.821372 0.821372 0.821372
0.684265 0.684265 0.684265
0.685510 0.685510 0.685510
0.703138 0.703138 0.703138
0.834165 0.834165 0.834165
0.854033 0.854033 0.854033
