example/ios/Lighthouse.cube
# Created by Benjamin (IWLTBAP): https://luts.iwltbap.com
# Copyright: (C) Copyright 2019 Triune Films and IWLTBAP SAS
# Cannot be resold, shared or otherwise redistributed
TITLE "Triune Films Cinematic LUTs V4 (Panasonic V-Log L)"
LUT_3D_SIZE 9
0.000000 0.000000 0.000000
0.000000 0.000000 0.000000
0.000000 0.000000 0.000000
0.001373 0.001373 0.001373
0.005886 0.005886 0.005886
0.014191 0.014191 0.014191
0.024610 0.024610 0.024610
0.028252 0.028252 0.028252
0.031188 0.031188 0.031188
0.000047 0.000047 0.000047
0.000375 0.000375 0.000375
0.001577 0.001577 0.001577
0.005378 0.005378 0.005378
0.016367 0.016367 0.016367
0.023056 0.023056 0.023056
0.023448 0.023448 0.023448
0.023826 0.023826 0.023826
0.024221 0.024221 0.024221
0.002671 0.002671 0.002671
0.004038 0.004038 0.004038
0.004490 0.004490 0.004490
0.006448 0.006448 0.006448
0.015142 0.015142 0.015142
0.022934 0.022934 0.022934
0.023293 0.023293 0.023293
0.023644 0.023644 0.023644
0.024011 0.024011 0.024011
0.006977 0.006977 0.006977
0.014310 0.014310 0.014310
0.013996 0.013996 0.013996
0.012217 0.012217 0.012217
0.015328 0.015328 0.015328
0.022577 0.022577 0.022577
0.022922 0.022922 0.022922
0.023311 0.023311 0.023311
0.023723 0.023723 0.023723
0.033211 0.033211 0.033211
0.086995 0.086995 0.086995
0.107889 0.107889 0.107889
0.092734 0.092734 0.092734
0.038249 0.038249 0.038249
0.021822 0.021822 0.021822
0.021926 0.021926 0.021926
0.022153 0.022153 0.022153
0.022473 0.022473 0.022473
0.159450 0.159450 0.159450
0.219872 0.219872 0.219872
0.237362 0.237362 0.237362
0.234095 0.234095 0.234095
0.223882 0.223882 0.223882
0.054467 0.054467 0.054467
0.028559 0.028559 0.028559
0.024897 0.024897 0.024897
0.023108 0.023108 0.023108
0.242590 0.242590 0.242590
0.243955 0.243955 0.243955
0.244062 0.244062 0.244062
0.244347 0.244347 0.244347
0.245128 0.245128 0.245128
0.230132 0.230132 0.230132
0.098606 0.098606 0.098606
0.071413 0.071413 0.071413
0.055790 0.055790 0.055790
0.246323 0.246323 0.246323
0.246383 0.246383 0.246383
0.246465 0.246465 0.246465
0.246580 0.246580 0.246580
0.247111 0.247111 0.247111
0.244319 0.244319 0.244319
0.146897 0.146897 0.146897
0.139140 0.139140 0.139140
0.143165 0.143165 0.143165
0.248779 0.248779 0.248779
0.248839 0.248839 0.248839
0.248899 0.248899 0.248899
0.248959 0.248959 0.248959
0.249235 0.249235 0.249235
0.248736 0.248736 0.248736
0.219948 0.219948 0.219948
0.147418 0.147418 0.147418
0.156128 0.156128 0.156128
0.005647 0.005647 0.005647
0.012175 0.012175 0.012175
0.014152 0.014152 0.014152
0.013786 0.013786 0.013786
0.018687 0.018687 0.018687
0.030202 0.030202 0.030202
0.046761 0.046761 0.046761
0.051957 0.051957 0.051957
0.055354 0.055354 0.055354
0.014174 0.014174 0.014174
0.020907 0.020907 0.020907
0.021120 0.021120 0.021120
0.018206 0.018206 0.018206
0.028016 0.028016 0.028016
0.037954 0.037954 0.037954
0.038233 0.038233 0.038233
0.038787 0.038787 0.038787
0.041973 0.041973 0.041973
0.028791 0.028791 0.028791
0.026249 0.026249 0.026249
0.019687 0.019687 0.019687
0.018171 0.018171 0.018171
0.021228 0.021228 0.021228
0.030495 0.030495 0.030495
0.030786 0.030786 0.030786
0.031197 0.031197 0.031197
0.031591 0.031591 0.031591
0.029424 0.029424 0.029424
0.022810 0.022810 0.022810
0.019352 0.019352 0.019352
0.021796 0.021796 0.021796
0.023911 0.023911 0.023911
0.030874 0.030874 0.030874
0.031380 0.031380 0.031380
0.031596 0.031596 0.031596
0.032000 0.032000 0.032000
0.037604 0.037604 0.037604
0.083634 0.083634 0.083634
0.101214 0.101214 0.101214
0.112690 0.112690 0.112690
0.057924 0.057924 0.057924
0.031873 0.031873 0.031873
0.031663 0.031663 0.031663
0.031677 0.031677 0.031677
0.031608 0.031608 0.031608
0.151558 0.151558 0.151558
0.219442 0.219442 0.219442
0.237168 0.237168 0.237168
0.237540 0.237540 0.237540
0.234436 0.234436 0.234436
0.080223 0.080223 0.080223
0.042756 0.042756 0.042756
0.037930 0.037930 0.037930
0.034795 0.034795 0.034795
0.246639 0.246639 0.246639
0.247787 0.247787 0.247787
0.246275 0.246275 0.246275
0.245818 0.245818 0.245818
0.246782 0.246782 0.246782
0.232295 0.232295 0.232295
0.119070 0.119070 0.119070
0.099446 0.099446 0.099446
0.081007 0.081007 0.081007
0.252611 0.252611 0.252611
0.250822 0.250822 0.250822
0.249181 0.249181 0.249181
0.248121 0.248121 0.248121
0.248846 0.248846 0.248846
0.246477 0.246477 0.246477
0.158962 0.158962 0.158962
0.144866 0.144866 0.144866
0.148892 0.148892 0.148892
0.256099 0.256099 0.256099
0.253874 0.253874 0.253874
0.251959 0.251959 0.251959
0.250448 0.250448 0.250448
0.250858 0.250858 0.250858
0.250391 0.250391 0.250391
0.221871 0.221871 0.221871
0.153145 0.153145 0.153145
0.161855 0.161855 0.161855
0.031835 0.031835 0.031835
0.037221 0.037221 0.037221
0.045225 0.045225 0.045225
0.034252 0.034252 0.034252
0.037061 0.037061 0.037061
0.049128 0.049128 0.049128
0.066482 0.066482 0.066482
0.069999 0.069999 0.069999
0.073314 0.073314 0.073314
0.062653 0.062653 0.062653
0.081827 0.081827 0.081827
0.073908 0.073908 0.073908
0.049480 0.049480 0.049480
0.052909 0.052909 0.052909
0.068889 0.068889 0.068889
0.070574 0.070574 0.070574
0.072126 0.072126 0.072126
0.074681 0.074681 0.074681
0.073752 0.073752 0.073752
0.079177 0.079177 0.079177
0.095904 0.095904 0.095904
0.087448 0.087448 0.087448
0.071939 0.071939 0.071939
0.078841 0.078841 0.078841
0.077360 0.077360 0.077360
0.076042 0.076042 0.076042
0.074771 0.074771 0.074771
0.090811 0.090811 0.090811
0.085065 0.085065 0.085065
0.080538 0.080538 0.080538
0.073271 0.073271 0.073271
0.073691 0.073691 0.073691
0.070726 0.070726 0.070726
0.069273 0.069273 0.069273
0.069675 0.069675 0.069675
0.069817 0.069817 0.069817
0.091464 0.091464 0.091464
0.100093 0.100093 0.100093
0.089842 0.089842 0.089842
0.095721 0.095721 0.095721
0.074328 0.074328 0.074328
0.063845 0.063845 0.063845
0.059343 0.059343 0.059343
0.055114 0.055114 0.055114
0.052615 0.052615 0.052615
0.159028 0.159028 0.159028
0.218033 0.218033 0.218033
0.232173 0.232173 0.232173
0.233929 0.233929 0.233929
0.236242 0.236242 0.236242
0.097763 0.097763 0.097763
0.058387 0.058387 0.058387
0.053970 0.053970 0.053970
0.048200 0.048200 0.048200
0.254871 0.254871 0.254871
0.257295 0.257295 0.257295
0.255276 0.255276 0.255276
0.253996 0.253996 0.253996
0.252446 0.252446 0.252446
0.234996 0.234996 0.234996
0.130742 0.130742 0.130742
0.119081 0.119081 0.119081
0.103748 0.103748 0.103748
0.264669 0.264669 0.264669
0.261798 0.261798 0.261798
0.259349 0.259349 0.259349
0.257023 0.257023 0.257023
0.255076 0.255076 0.255076
0.249082 0.249082 0.249082
0.160340 0.160340 0.160340
0.150433 0.150433 0.150433
0.154518 0.154518 0.154518
0.269541 0.269541 0.269541
0.266278 0.266278 0.266278
0.263275 0.263275 0.263275
0.260307 0.260307 0.260307
0.257831 0.257831 0.257831
0.254126 0.254126 0.254126
0.223469 0.223469 0.223469
0.157658 0.157658 0.157658
0.167567 0.167567 0.167567
0.085205 0.085205 0.085205
0.096517 0.096517 0.096517
0.092321 0.092321 0.092321
0.073355 0.073355 0.073355
0.066383 0.066383 0.066383
0.075250 0.075250 0.075250
0.086404 0.086404 0.086404
0.090887 0.090887 0.090887
0.095914 0.095914 0.095914
0.191589 0.191589 0.191589
0.208654 0.208654 0.208654
0.198914 0.198914 0.198914
0.105968 0.105968 0.105968
0.095331 0.095331 0.095331
0.102467 0.102467 0.102467
0.104271 0.104271 0.104271
0.105671 0.105671 0.105671
0.107346 0.107346 0.107346
0.146196 0.146196 0.146196
0.159694 0.159694 0.159694
0.216807 0.216807 0.216807
0.168437 0.168437 0.168437
0.126289 0.126289 0.126289
0.131019 0.131019 0.131019
0.128720 0.128720 0.128720
0.126172 0.126172 0.126172
0.123363 0.123363 0.123363
0.173552 0.173552 0.173552
0.182049 0.182049 0.182049
0.194736 0.194736 0.194736
0.241264 0.241264 0.241264
0.234593 0.234593 0.234593
0.194409 0.194409 0.194409
0.185987 0.185987 0.185987
0.176513 0.176513 0.176513
0.166528 0.166528 0.166528
0.217015 0.217015 0.217015
0.219406 0.219406 0.219406
0.214650 0.214650 0.214650
0.214276 0.214276 0.214276
0.205910 0.205910 0.205910
0.175927 0.175927 0.175927
0.162624 0.162624 0.162624
0.158670 0.158670 0.158670
0.159887 0.159887 0.159887
0.262785 0.262785 0.262785
0.272609 0.272609 0.272609
0.264718 0.264718 0.264718
0.247338 0.247338 0.247338
0.245049 0.245049 0.245049
0.139281 0.139281 0.139281
0.125470 0.125470 0.125470
0.120184 0.120184 0.120184
0.115008 0.115008 0.115008
0.311301 0.311301 0.311301
0.304773 0.304773 0.304773
0.294034 0.294034 0.294034
0.278708 0.278708 0.278708
0.273631 0.273631 0.273631
0.261383 0.261383 0.261383
0.164926 0.164926 0.164926
0.155926 0.155926 0.155926
0.141593 0.141593 0.141593
0.329196 0.329196 0.329196
0.318704 0.318704 0.318704
0.301227 0.301227 0.301227
0.283375 0.283375 0.283375
0.275638 0.275638 0.275638
0.271616 0.271616 0.271616
0.184577 0.184577 0.184577
0.174367 0.174367 0.174367
0.179710 0.179710 0.179710
0.344272 0.344272 0.344272
0.331152 0.331152 0.331152
0.307838 0.307838 0.307838
0.288313 0.288313 0.288313
0.277767 0.277767 0.277767
0.275631 0.275631 0.275631
0.240105 0.240105 0.240105
0.176575 0.176575 0.176575
0.181907 0.181907 0.181907
0.173823 0.173823 0.173823
0.193553 0.193553 0.193553
0.190312 0.190312 0.190312
0.134133 0.134133 0.134133
0.112178 0.112178 0.112178
0.122150 0.122150 0.122150
0.132653 0.132653 0.132653
0.139226 0.139226 0.139226
0.146053 0.146053 0.146053
0.345534 0.345534 0.345534
0.355487 0.355487 0.355487
0.376766 0.376766 0.376766
0.215715 0.215715 0.215715
0.172428 0.172428 0.172428
0.179709 0.179709 0.179709
0.178382 0.178382 0.178382
0.178809 0.178809 0.178809
0.180030 0.180030 0.180030
0.296951 0.296951 0.296951
0.320452 0.320452 0.320452
0.348255 0.348255 0.348255
0.329853 0.329853 0.329853
0.184839 0.184839 0.184839
0.201023 0.201023 0.201023
0.200829 0.200829 0.200829
0.200317 0.200317 0.200317
0.199164 0.199164 0.199164
0.255159 0.255159 0.255159
0.289604 0.289604 0.289604
0.289085 0.289085 0.289085
0.396944 0.396944 0.396944
0.320439 0.320439 0.320439
0.280618 0.280618 0.280618
0.287128 0.287128 0.287128
0.277379 0.277379 0.277379
0.268488 0.268488 0.268488
0.331218 0.331218 0.331218
0.365800 0.365800 0.365800
0.356437 0.356437 0.356437
0.386218 0.386218 0.386218
0.464221 0.464221 0.464221
0.462029 0.462029 0.462029
0.448500 0.448500 0.448500
0.428450 0.428450 0.428450
0.412168 0.412168 0.412168
0.419533 0.419533 0.419533
0.425751 0.425751 0.425751
0.420156 0.420156 0.420156
0.416573 0.416573 0.416573
0.417956 0.417956 0.417956
0.367653 0.367653 0.367653
0.352476 0.352476 0.352476
0.352678 0.352678 0.352678
0.382263 0.382263 0.382263
0.465166 0.465166 0.465166
0.459185 0.459185 0.459185
0.451027 0.451027 0.451027
0.437255 0.437255 0.437255
0.408596 0.408596 0.408596
0.361466 0.361466 0.361466
0.277148 0.277148 0.277148
0.276863 0.276863 0.276863
0.253556 0.253556 0.253556
0.495973 0.495973 0.495973
0.488863 0.488863 0.488863
0.474162 0.474162 0.474162
0.451441 0.451441 0.451441
0.412180 0.412180 0.412180
0.353608 0.353608 0.353608
0.281396 0.281396 0.281396
0.248673 0.248673 0.248673
0.255723 0.255723 0.255723
0.524685 0.524685 0.524685
0.511252 0.511252 0.511252
0.494894 0.494894 0.494894
0.461675 0.461675 0.461675
0.415737 0.415737 0.415737
0.354627 0.354627 0.354627
0.320361 0.320361 0.320361
0.245515 0.245515 0.245515
0.238458 0.238458 0.238458
0.265996 0.265996 0.265996
0.289976 0.289976 0.289976
0.297092 0.297092 0.297092
0.241860 0.241860 0.241860
0.170347 0.170347 0.170347
0.183663 0.183663 0.183663
0.202374 0.202374 0.202374
0.209656 0.209656 0.209656
0.220145 0.220145 0.220145
0.415450 0.415450 0.415450
0.418878 0.418878 0.418878
0.456167 0.456167 0.456167
0.522718 0.522718 0.522718
0.316112 0.316112 0.316112
0.346825 0.346825 0.346825
0.333610 0.333610 0.333610
0.319417 0.319417 0.319417
0.312089 0.312089 0.312089
0.425580 0.425580 0.425580
0.433842 0.433842 0.433842
0.444752 0.444752 0.444752
0.525694 0.525694 0.525694
0.325785 0.325785 0.325785
0.360505 0.360505 0.360505
0.347343 0.347343 0.347343
0.340909 0.340909 0.340909
0.336322 0.336322 0.336322
0.415772 0.415772 0.415772
0.442521 0.442521 0.442521
0.451265 0.451265 0.451265
0.502985 0.502985 0.502985
0.508703 0.508703 0.508703
0.423203 0.423203 0.423203
0.429676 0.429676 0.429676
0.424620 0.424620 0.424620
0.423253 0.423253 0.423253
0.426889 0.426889 0.426889
0.471140 0.471140 0.471140
0.476554 0.476554 0.476554
0.481411 0.481411 0.481411
0.624639 0.624639 0.624639
0.550921 0.550921 0.550921
0.568895 0.568895 0.568895
0.558221 0.558221 0.558221
0.547149 0.547149 0.547149
0.528979 0.528979 0.528979
0.562979 0.562979 0.562979
0.561836 0.561836 0.561836
0.559778 0.559778 0.559778
0.597978 0.597978 0.597978
0.662140 0.662140 0.662140
0.670840 0.670840 0.670840
0.650968 0.650968 0.650968
0.632080 0.632080 0.632080
0.596398 0.596398 0.596398
0.599042 0.599042 0.599042
0.596863 0.596863 0.596863
0.597818 0.597818 0.597818
0.616389 0.616389 0.616389
0.595381 0.595381 0.595381
0.545468 0.545468 0.545468
0.538680 0.538680 0.538680
0.512102 0.512102 0.512102
0.627888 0.627888 0.627888
0.625237 0.625237 0.625237
0.622356 0.622356 0.622356
0.621391 0.621391 0.621391
0.629003 0.629003 0.629003
0.611702 0.611702 0.611702
0.530127 0.530127 0.530127
0.433091 0.433091 0.433091
0.417930 0.417930 0.417930
0.650717 0.650717 0.650717
0.647799 0.647799 0.647799
0.644904 0.644904 0.644904
0.640087 0.640087 0.640087
0.636633 0.636633 0.636633
0.618966 0.618966 0.618966
0.490903 0.490903 0.490903
0.385154 0.385154 0.385154
0.358728 0.358728 0.358728
0.366378 0.366378 0.366378
0.394443 0.394443 0.394443
0.396565 0.396565 0.396565
0.407564 0.407564 0.407564
0.260080 0.260080 0.260080
0.288449 0.288449 0.288449
0.328179 0.328179 0.328179
0.352595 0.352595 0.352595
0.379032 0.379032 0.379032
0.419765 0.419765 0.419765
0.422966 0.422966 0.422966
0.458170 0.458170 0.458170
0.543019 0.543019 0.543019
0.385558 0.385558 0.385558
0.395257 0.395257 0.395257
0.397617 0.397617 0.397617
0.401343 0.401343 0.401343
0.403625 0.403625 0.403625
0.430702 0.430702 0.430702
0.437754 0.437754 0.437754
0.447701 0.447701 0.447701
0.529437 0.529437 0.529437
0.421828 0.421828 0.421828
0.403751 0.403751 0.403751
0.406161 0.406161 0.406161
0.409611 0.409611 0.409611
0.412159 0.412159 0.412159
0.451591 0.451591 0.451591
0.466982 0.466982 0.466982
0.466449 0.466449 0.466449
0.508740 0.508740 0.508740
0.584071 0.584071 0.584071
0.447583 0.447583 0.447583
0.451446 0.451446 0.451446
0.454157 0.454157 0.454157
0.454099 0.454099 0.454099
0.487643 0.487643 0.487643
0.525148 0.525148 0.525148
0.528617 0.528617 0.528617
0.511583 0.511583 0.511583
0.647680 0.647680 0.647680
0.574984 0.574984 0.574984
0.563084 0.563084 0.563084
0.556784 0.556784 0.556784
0.547767 0.547767 0.547767
0.579974 0.579974 0.579974
0.620202 0.620202 0.620202
0.627942 0.627942 0.627942
0.628751 0.628751 0.628751
0.655344 0.655344 0.655344
0.785653 0.785653 0.785653
0.702084 0.702084 0.702084
0.689482 0.689482 0.689482
0.671203 0.671203 0.671203
0.645288 0.645288 0.645288
0.653593 0.653593 0.653593
0.653895 0.653895 0.653895
0.660788 0.660788 0.660788
0.691855 0.691855 0.691855
0.757550 0.757550 0.757550
0.818117 0.818117 0.818117
0.819789 0.819789 0.819789
0.811861 0.811861 0.811861
0.663898 0.663898 0.663898
0.664456 0.664456 0.664456
0.664983 0.664983 0.664983
0.670194 0.670194 0.670194
0.695503 0.695503 0.695503
0.746135 0.746135 0.746135
0.813068 0.813068 0.813068
0.805208 0.805208 0.805208
0.809475 0.809475 0.809475
0.674836 0.674836 0.674836
0.675394 0.675394 0.675394
0.675872 0.675872 0.675872
0.678772 0.678772 0.678772
0.695643 0.695643 0.695643
0.733685 0.733685 0.733685
0.795592 0.795592 0.795592
0.807644 0.807644 0.807644
0.757163 0.757163 0.757163
0.422621 0.422621 0.422621
0.430074 0.430074 0.430074
0.458771 0.458771 0.458771
0.515830 0.515830 0.515830
0.470050 0.470050 0.470050
0.360201 0.360201 0.360201
0.391845 0.391845 0.391845
0.398560 0.398560 0.398560
0.404122 0.404122 0.404122
0.424103 0.424103 0.424103
0.426956 0.426956 0.426956
0.459810 0.459810 0.459810
0.550196 0.550196 0.550196
0.392385 0.392385 0.392385
0.400504 0.400504 0.400504
0.402923 0.402923 0.402923
0.405160 0.405160 0.405160
0.409437 0.409437 0.409437
0.434110 0.434110 0.434110
0.441506 0.441506 0.441506
0.450420 0.450420 0.450420
0.529076 0.529076 0.529076
0.432942 0.432942 0.432942
0.406746 0.406746 0.406746
0.409084 0.409084 0.409084
0.411161 0.411161 0.411161
0.415081 0.415081 0.415081
0.454185 0.454185 0.454185
0.469025 0.469025 0.469025
0.469231 0.469231 0.469231
0.508116 0.508116 0.508116
0.594454 0.594454 0.594454
0.445280 0.445280 0.445280
0.446296 0.446296 0.446296
0.449060 0.449060 0.449060
0.452224 0.452224 0.452224
0.490697 0.490697 0.490697
0.519814 0.519814 0.519814
0.531360 0.531360 0.531360
0.511627 0.511627 0.511627
0.645443 0.645443 0.645443
0.572036 0.572036 0.572036
0.548270 0.548270 0.548270
0.548742 0.548742 0.548742
0.545531 0.545531 0.545531
0.583724 0.583724 0.583724
0.623080 0.623080 0.623080
0.634019 0.634019 0.634019
0.631607 0.631607 0.631607
0.652665 0.652665 0.652665
0.788530 0.788530 0.788530
0.684066 0.684066 0.684066
0.679906 0.679906 0.679906
0.669900 0.669900 0.669900
0.649896 0.649896 0.649896
0.657743 0.657743 0.657743
0.658362 0.658362 0.658362
0.663690 0.663690 0.663690
0.689123 0.689123 0.689123
0.750897 0.750897 0.750897
0.828527 0.828527 0.828527
0.827717 0.827717 0.827717
0.823790 0.823790 0.823790
0.668607 0.668607 0.668607
0.669230 0.669230 0.669230
0.669835 0.669835 0.669835
0.674608 0.674608 0.674608
0.696796 0.696796 0.696796
0.752419 0.752419 0.752419
0.832555 0.832555 0.832555
0.841134 0.841134 0.841134
0.844224 0.844224 0.844224
0.679545 0.679545 0.679545
0.680168 0.680168 0.680168
0.680724 0.680724 0.680724
0.683943 0.683943 0.683943
0.701106 0.701106 0.701106
0.745489 0.745489 0.745489
0.824312 0.824312 0.824312
0.843519 0.843519 0.843519
0.844237 0.844237 0.844237
0.427246 0.427246 0.427246
0.434776 0.434776 0.434776
0.463758 0.463758 0.463758
0.527894 0.527894 0.527894
0.511198 0.511198 0.511198
0.397146 0.397146 0.397146
0.405513 0.405513 0.405513
0.407664 0.407664 0.407664
0.409821 0.409821 0.409821
0.428600 0.428600 0.428600
0.431158 0.431158 0.431158
0.461958 0.461958 0.461958
0.556131 0.556131 0.556131
0.401770 0.401770 0.401770
0.406040 0.406040 0.406040
0.408194 0.408194 0.408194
0.410431 0.410431 0.410431
0.412588 0.412588 0.412588
0.437584 0.437584 0.437584
0.445211 0.445211 0.445211
0.453188 0.453188 0.453188
0.528200 0.528200 0.528200
0.445552 0.445552 0.445552
0.410669 0.410669 0.410669
0.412090 0.412090 0.412090
0.414509 0.414509 0.414509
0.416547 0.416547 0.416547
0.456540 0.456540 0.456540
0.470757 0.470757 0.470757
0.471843 0.471843 0.471843
0.506729 0.506729 0.506729
0.604491 0.604491 0.604491
0.446262 0.446262 0.446262
0.443516 0.443516 0.443516
0.446154 0.446154 0.446154
0.448182 0.448182 0.448182
0.492802 0.492802 0.492802
0.512804 0.512804 0.512804
0.530263 0.530263 0.530263
0.512564 0.512564 0.512564
0.642348 0.642348 0.642348
0.575927 0.575927 0.575927
0.539007 0.539007 0.539007
0.535476 0.535476 0.535476
0.535554 0.535554 0.535554
0.581479 0.581479 0.581479
0.621319 0.621319 0.621319
0.638017 0.638017 0.638017
0.633795 0.633795 0.633795
0.648904 0.648904 0.648904
0.789521 0.789521 0.789521
0.675277 0.675277 0.675277
0.657620 0.657620 0.657620
0.656268 0.656268 0.656268
0.654292 0.654292 0.654292
0.661876 0.661876 0.661876
0.662522 0.662522 0.662522
0.666423 0.666423 0.666423
0.688492 0.688492 0.688492
0.746356 0.746356 0.746356
0.832765 0.832765 0.832765
0.823040 0.823040 0.823040
0.821372 0.821372 0.821372
0.672740 0.672740 0.672740
0.673363 0.673363 0.673363
0.673995 0.673995 0.673995
0.677123 0.677123 0.677123
0.693875 0.693875 0.693875
0.741940 0.741940 0.741940
0.835542 0.835542 0.835542
0.847074 0.847074 0.847074
0.848664 0.848664 0.848664
0.684265 0.684265 0.684265
0.684888 0.684888 0.684888
0.685510 0.685510 0.685510
0.688238 0.688238 0.688238
0.703138 0.703138 0.703138
0.747506 0.747506 0.747506
0.834165 0.834165 0.834165
0.850963 0.850963 0.850963
0.854033 0.854033 0.854033
