example/ios/Lighthouse.cube
# Created by Benjamin (IWLTBAP): https://luts.iwltbap.com
# Copyright: (C) Copyright 2019 Triune Films and IWLTBAP SAS
# Cannot be resold, shared or otherwise redistributed
TITLE "Triune Films Cinematic LUTs V4 (Panasonic V-Log L)"
LUT_3D_SIZE 33
0.000000 0.000000 0.000000
0.000000 0.000000 0.000000
0.000000 0.000000 0.000000
0.000000 0.000000 0.000000
0.000000 0.000000 0.000000
0.000000 0.000000 0.000000
0.000000 0.000000 0.000000
0.000000 0.000000 0.000000
0.000000 0.000000 0.000000
0.000000 0.000000 0.000000
0.000133 0.000133 0.000133
0.000634 0.000634 0.000634
0.001373 0.001373 0.001373
0.002249 0.002249 0.002249
0.003304 0.003304 0.003304
0.004470 0.004470 0.004470
0.005886 0.005886 0.005886
0.007538 0.007538 0.007538
0.009390 0.009390 0.009390
0.011630 0.011630 0.011630
0.014191 0.014191 0.014191
0.017092 0.017092 0.017092
0.019818 0.019818 0.019818
0.022427 0.022427 0.022427
0.024610 0.024610 0.024610
0.026156 0.026156 0.026156
0.026892 0.026892 0.026892
0.027547 0.027547 0.027547
0.028252 0.028252 0.028252
0.028942 0.028942 0.028942
0.029663 0.029663 0.029663
0.030385 0.030385 0.030385
0.031188 0.031188 0.031188
0.000000 0.000000 0.000000
0.000030 0.000030 0.000030
0.000027 0.000027 0.000027
0.000027 0.000027 0.000027
0.000042 0.000042 0.000042
0.000086 0.000086 0.000086
0.000125 0.000125 0.000125
0.000161 0.000161 0.000161
0.000370 0.000370 0.000370
0.000970 0.000970 0.000970
0.001705 0.001705 0.001705
0.002557 0.002557 0.002557
0.003529 0.003529 0.003529
0.004646 0.004646 0.004646
0.006057 0.006057 0.006057
0.007658 0.007658 0.007658
0.009509 0.009509 0.009509
0.011755 0.011755 0.011755
0.014227 0.014227 0.014227
0.016845 0.016845 0.016845
0.019225 0.019225 0.019225
0.021253 0.021253 0.021253
0.022725 0.022725 0.022725
0.023425 0.023425 0.023425
0.023746 0.023746 0.023746
0.024350 0.024350 0.024350
0.024972 0.024972 0.024972
0.025611 0.025611 0.025611
0.026252 0.026252 0.026252
0.026892 0.026892 0.026892
0.027548 0.027548 0.027548
0.028238 0.028238 0.028238
0.028910 0.028910 0.028910
0.000000 0.000000 0.000000
0.000027 0.000027 0.000027
0.000091 0.000091 0.000091
0.000079 0.000079 0.000079
0.000113 0.000113 0.000113
0.000215 0.000215 0.000215
0.000278 0.000278 0.000278
0.000325 0.000325 0.000325
0.000619 0.000619 0.000619
0.001525 0.001525 0.001525
0.002632 0.002632 0.002632
0.003998 0.003998 0.003998
0.005723 0.005723 0.005723
0.007920 0.007920 0.007920
0.010088 0.010088 0.010088
0.012357 0.012357 0.012357
0.014810 0.014810 0.014810
0.017354 0.017354 0.017354
0.019630 0.019630 0.019630
0.021466 0.021466 0.021466
0.022691 0.022691 0.022691
0.023174 0.023174 0.023174
0.023316 0.023316 0.023316
0.023405 0.023405 0.023405
0.023497 0.023497 0.023497
0.023596 0.023596 0.023596
0.023695 0.023695 0.023695
0.023829 0.023829 0.023829
0.023982 0.023982 0.023982
0.024460 0.024460 0.024460
0.025099 0.025099 0.025099
0.025740 0.025740 0.025740
0.026379 0.026379 0.026379
0.000000 0.000000 0.000000
0.000027 0.000027 0.000027
0.000064 0.000064 0.000064
0.000177 0.000177 0.000177
0.000233 0.000233 0.000233
0.000405 0.000405 0.000405
0.000601 0.000601 0.000601
0.000761 0.000761 0.000761
0.000942 0.000942 0.000942
0.001633 0.001633 0.001633
0.002583 0.002583 0.002583
0.003825 0.003825 0.003825
0.005391 0.005391 0.005391
0.007568 0.007568 0.007568
0.010224 0.010224 0.010224
0.013518 0.013518 0.013518
0.017102 0.017102 0.017102
0.020209 0.020209 0.020209
0.022255 0.022255 0.022255
0.022945 0.022945 0.022945
0.023080 0.023080 0.023080
0.023188 0.023188 0.023188
0.023292 0.023292 0.023292
0.023381 0.023381 0.023381
0.023472 0.023472 0.023472
0.023563 0.023563 0.023563
0.023662 0.023662 0.023662
0.023761 0.023761 0.023761
0.023859 0.023859 0.023859
0.023958 0.023958 0.023958
0.024057 0.024057 0.024057
0.024156 0.024156 0.024156
0.024309 0.024309 0.024309
0.000047 0.000047 0.000047
0.000261 0.000261 0.000261
0.000382 0.000382 0.000382
0.000484 0.000484 0.000484
0.000375 0.000375 0.000375
0.000527 0.000527 0.000527
0.000914 0.000914 0.000914
0.001251 0.001251 0.001251
0.001577 0.001577 0.001577
0.002114 0.002114 0.002114
0.002920 0.002920 0.002920
0.004004 0.004004 0.004004
0.005378 0.005378 0.005378
0.007291 0.007291 0.007291
0.009732 0.009732 0.009732
0.012836 0.012836 0.012836
0.016367 0.016367 0.016367
0.019620 0.019620 0.019620
0.021978 0.021978 0.021978
0.022949 0.022949 0.022949
0.023056 0.023056 0.023056
0.023164 0.023164 0.023164
0.023268 0.023268 0.023268
0.023357 0.023357 0.023357
0.023448 0.023448 0.023448
0.023537 0.023537 0.023537
0.023629 0.023629 0.023629
0.023727 0.023727 0.023727
0.023826 0.023826 0.023826
0.023925 0.023925 0.023925
0.024023 0.024023 0.024023
0.024123 0.024123 0.024123
0.024221 0.024221 0.024221
0.000304 0.000304 0.000304
0.000555 0.000555 0.000555
0.000871 0.000871 0.000871
0.000954 0.000954 0.000954
0.001259 0.001259 0.001259
0.001209 0.001209 0.001209
0.001487 0.001487 0.001487
0.001838 0.001838 0.001838
0.002218 0.002218 0.002218
0.002718 0.002718 0.002718
0.003416 0.003416 0.003416
0.004346 0.004346 0.004346
0.005561 0.005561 0.005561
0.007250 0.007250 0.007250
0.009531 0.009531 0.009531
0.012454 0.012454 0.012454
0.015856 0.015856 0.015856
0.019104 0.019104 0.019104
0.021589 0.021589 0.021589
0.022816 0.022816 0.022816
0.023024 0.023024 0.023024
0.023140 0.023140 0.023140
0.023244 0.023244 0.023244
0.023334 0.023334 0.023334
0.023424 0.023424 0.023424
0.023513 0.023513 0.023513
0.023603 0.023603 0.023603
0.023695 0.023695 0.023695
0.023793 0.023793 0.023793
0.023892 0.023892 0.023892
0.023991 0.023991 0.023991
0.024090 0.024090 0.024090
0.024188 0.024188 0.024188
0.000880 0.000880 0.000880
0.001459 0.001459 0.001459
0.001949 0.001949 0.001949
0.002004 0.002004 0.002004
0.002201 0.002201 0.002201
0.002389 0.002389 0.002389
0.002351 0.002351 0.002351
0.002658 0.002658 0.002658
0.002951 0.002951 0.002951
0.003334 0.003334 0.003334
0.003897 0.003897 0.003897
0.004687 0.004687 0.004687
0.005776 0.005776 0.005776
0.007272 0.007272 0.007272
0.009350 0.009350 0.009350
0.012120 0.012120 0.012120
0.015499 0.015499 0.015499
0.018709 0.018709 0.018709
0.021300 0.021300 0.021300
0.022681 0.022681 0.022681
0.022942 0.022942 0.022942
0.023049 0.023049 0.023049
0.023165 0.023165 0.023165
0.023266 0.023266 0.023266
0.023367 0.023367 0.023367
0.023467 0.023467 0.023467
0.023566 0.023566 0.023566
0.023664 0.023664 0.023664
0.023760 0.023760 0.023760
0.023859 0.023859 0.023859
0.023958 0.023958 0.023958
0.024057 0.024057 0.024057
0.024155 0.024155 0.024155
0.001802 0.001802 0.001802
0.002346 0.002346 0.002346
0.002830 0.002830 0.002830
0.003000 0.003000 0.003000
0.003117 0.003117 0.003117
0.003375 0.003375 0.003375
0.003540 0.003540 0.003540
0.003456 0.003456 0.003456
0.003682 0.003682 0.003682
0.004018 0.004018 0.004018
0.004451 0.004451 0.004451
0.005130 0.005130 0.005130
0.006126 0.006126 0.006126
0.007530 0.007530 0.007530
0.009462 0.009462 0.009462
0.011982 0.011982 0.011982
0.015139 0.015139 0.015139
0.018330 0.018330 0.018330
0.021027 0.021027 0.021027
0.022575 0.022575 0.022575
0.022935 0.022935 0.022935
0.023028 0.023028 0.023028
0.023119 0.023119 0.023119
0.023206 0.023206 0.023206
0.023294 0.023294 0.023294
0.023385 0.023385 0.023385
0.023477 0.023477 0.023477
0.023568 0.023568 0.023568
0.023671 0.023671 0.023671
0.023774 0.023774 0.023774
0.023876 0.023876 0.023876
0.023988 0.023988 0.023988
0.024098 0.024098 0.024098
0.002671 0.002671 0.002671
0.003210 0.003210 0.003210
0.003684 0.003684 0.003684
0.004002 0.004002 0.004002
0.004038 0.004038 0.004038
0.004231 0.004231 0.004231
0.004461 0.004461 0.004461
0.004668 0.004668 0.004668
0.004490 0.004490 0.004490
0.004755 0.004755 0.004755
0.005124 0.005124 0.005124
0.005637 0.005637 0.005637
0.006448 0.006448 0.006448
0.007784 0.007784 0.007784
0.009631 0.009631 0.009631
0.012101 0.012101 0.012101
0.015142 0.015142 0.015142
0.018132 0.018132 0.018132
0.020760 0.020760 0.020760
0.022425 0.022425 0.022425
0.022934 0.022934 0.022934
0.023028 0.023028 0.023028
0.023119 0.023119 0.023119
0.023206 0.023206 0.023206
0.023293 0.023293 0.023293
0.023379 0.023379 0.023379
0.023467 0.023467 0.023467
0.023553 0.023553 0.023553
0.023644 0.023644 0.023644
0.023736 0.023736 0.023736
0.023828 0.023828 0.023828
0.023920 0.023920 0.023920
0.024011 0.024011 0.024011
0.003526 0.003526 0.003526
0.004060 0.004060 0.004060
0.004547 0.004547 0.004547
0.005089 0.005089 0.005089
0.005122 0.005122 0.005122
0.005228 0.005228 0.005228
0.005436 0.005436 0.005436
0.005719 0.005719 0.005719
0.005921 0.005921 0.005921
0.005664 0.005664 0.005664
0.005958 0.005958 0.005958
0.006351 0.006351 0.006351
0.006959 0.006959 0.006959
0.008075 0.008075 0.008075
0.009779 0.009779 0.009779
0.012234 0.012234 0.012234
0.015227 0.015227 0.015227
0.018165 0.018165 0.018165
0.020734 0.020734 0.020734
0.022334 0.022334 0.022334
0.022912 0.022912 0.022912
0.023002 0.023002 0.023002
0.023093 0.023093 0.023093
0.023181 0.023181 0.023181
0.023268 0.023268 0.023268
0.023355 0.023355 0.023355
0.023444 0.023444 0.023444
0.023537 0.023537 0.023537
0.023630 0.023630 0.023630
0.023723 0.023723 0.023723
0.023813 0.023813 0.023813
0.023901 0.023901 0.023901
0.023994 0.023994 0.023994
0.004374 0.004374 0.004374
0.005030 0.005030 0.005030
0.005662 0.005662 0.005662
0.006370 0.006370 0.006370
0.006671 0.006671 0.006671
0.006667 0.006667 0.006667
0.006830 0.006830 0.006830
0.007063 0.007063 0.007063
0.007530 0.007530 0.007530
0.007602 0.007602 0.007602
0.007105 0.007105 0.007105
0.007445 0.007445 0.007445
0.007896 0.007896 0.007896
0.008661 0.008661 0.008661
0.010056 0.010056 0.010056
0.012263 0.012263 0.012263
0.015254 0.015254 0.015254
0.018211 0.018211 0.018211
0.020687 0.020687 0.020687
0.022278 0.022278 0.022278
0.022836 0.022836 0.022836
0.022925 0.022925 0.022925
0.023019 0.023019 0.023019
0.023110 0.023110 0.023110
0.023202 0.023202 0.023202
0.023294 0.023294 0.023294
0.023392 0.023392 0.023392
0.023491 0.023491 0.023491
0.023589 0.023589 0.023589
0.023678 0.023678 0.023678
0.023767 0.023767 0.023767
0.023861 0.023861 0.023861
0.023954 0.023954 0.023954
0.005455 0.005455 0.005455
0.006307 0.006307 0.006307
0.007237 0.007237 0.007237
0.008366 0.008366 0.008366
0.009399 0.009399 0.009399
0.009273 0.009273 0.009273
0.009257 0.009257 0.009257
0.009396 0.009396 0.009396
0.009560 0.009560 0.009560
0.010445 0.010445 0.010445
0.010140 0.010140 0.010140
0.009188 0.009188 0.009188
0.009451 0.009451 0.009451
0.009912 0.009912 0.009912
0.010756 0.010756 0.010756
0.012529 0.012529 0.012529
0.015164 0.015164 0.015164
0.018113 0.018113 0.018113
0.020629 0.020629 0.020629
0.022187 0.022187 0.022187
0.022728 0.022728 0.022728
0.022817 0.022817 0.022817
0.022909 0.022909 0.022909
0.022996 0.022996 0.022996
0.023083 0.023083 0.023083
0.023171 0.023171 0.023171
0.023272 0.023272 0.023272
0.023378 0.023378 0.023378
0.023483 0.023483 0.023483
0.023577 0.023577 0.023577
0.023673 0.023673 0.023673
0.023773 0.023773 0.023773
0.023873 0.023873 0.023873
0.006977 0.006977 0.006977
0.008341 0.008341 0.008341
0.009760 0.009760 0.009760
0.011788 0.011788 0.011788
0.014310 0.014310 0.014310
0.014294 0.014294 0.014294
0.013965 0.013965 0.013965
0.013761 0.013761 0.013761
0.013996 0.013996 0.013996
0.014162 0.014162 0.014162
0.015618 0.015618 0.015618
0.014106 0.014106 0.014106
0.012217 0.012217 0.012217
0.012192 0.012192 0.012192
0.012397 0.012397 0.012397
0.013233 0.013233 0.013233
0.015328 0.015328 0.015328
0.018045 0.018045 0.018045
0.020422 0.020422 0.020422
0.021983 0.021983 0.021983
0.022577 0.022577 0.022577
0.022665 0.022665 0.022665
0.022756 0.022756 0.022756
0.022839 0.022839 0.022839
0.022922 0.022922 0.022922
0.023004 0.023004 0.023004
0.023097 0.023097 0.023097
0.023201 0.023201 0.023201
0.023311 0.023311 0.023311
0.023410 0.023410 0.023410
0.023507 0.023507 0.023507
0.023615 0.023615 0.023615
0.023723 0.023723 0.023723
0.009396 0.009396 0.009396
0.011787 0.011787 0.011787
0.014423 0.014423 0.014423
0.017648 0.017648 0.017648
0.021692 0.021692 0.021692
0.023805 0.023805 0.023805
0.022946 0.022946 0.022946
0.022392 0.022392 0.022392
0.022329 0.022329 0.022329
0.022189 0.022189 0.022189
0.022294 0.022294 0.022294
0.024800 0.024800 0.024800
0.020829 0.020829 0.020829
0.016775 0.016775 0.016775
0.015627 0.015627 0.015627
0.015259 0.015259 0.015259
0.015955 0.015955 0.015955
0.018149 0.018149 0.018149
0.020238 0.020238 0.020238
0.021708 0.021708 0.021708
0.022320 0.022320 0.022320
0.022426 0.022426 0.022426
0.022523 0.022523 0.022523
0.022613 0.022613 0.022613
0.022702 0.022702 0.022702
0.022791 0.022791 0.022791
0.022880 0.022880 0.022880
0.022977 0.022977 0.022977
0.023074 0.023074 0.023074
0.023172 0.023172 0.023172
0.023262 0.023262 0.023262
0.023371 0.023371 0.023371
0.023487 0.023487 0.023487
0.013773 0.013773 0.013773
0.017674 0.017674 0.017674
0.021959 0.021959 0.021959
0.027389 0.027389 0.027389
0.034722 0.034722 0.034722
0.041657 0.041657 0.041657
0.040159 0.040159 0.040159
0.038815 0.038815 0.038815
0.037677 0.037677 0.037677
0.037212 0.037212 0.037212
0.035998 0.035998 0.035998
0.036614 0.036614 0.036614
0.040158 0.040158 0.040158
0.030907 0.030907 0.030907
0.023119 0.023119 0.023119
0.019384 0.019384 0.019384
0.018029 0.018029 0.018029
0.018685 0.018685 0.018685
0.020229 0.020229 0.020229
0.021455 0.021455 0.021455
0.022041 0.022041 0.022041
0.022158 0.022158 0.022158
0.022247 0.022247 0.022247
0.022334 0.022334 0.022334
0.022424 0.022424 0.022424
0.022510 0.022510 0.022510
0.022595 0.022595 0.022595
0.022683 0.022683 0.022683
0.022784 0.022784 0.022784
0.022886 0.022886 0.022886
0.022986 0.022986 0.022986
0.023083 0.023083 0.023083
0.023186 0.023186 0.023186
0.020817 0.020817 0.020817
0.027374 0.027374 0.027374
0.035016 0.035016 0.035016
0.044265 0.044265 0.044265
0.055744 0.055744 0.055744
0.069715 0.069715 0.069715
0.070018 0.070018 0.070018
0.067548 0.067548 0.067548
0.065233 0.065233 0.065233
0.063122 0.063122 0.063122
0.061987 0.061987 0.061987
0.059007 0.059007 0.059007
0.059509 0.059509 0.059509
0.062537 0.062537 0.062537
0.044636 0.044636 0.044636
0.030597 0.030597 0.030597
0.022867 0.022867 0.022867
0.020464 0.020464 0.020464
0.020643 0.020643 0.020643
0.021359 0.021359 0.021359
0.021828 0.021828 0.021828
0.021920 0.021920 0.021920
0.021998 0.021998 0.021998
0.022065 0.022065 0.022065
0.022131 0.022131 0.022131
0.022218 0.022218 0.022218
0.022303 0.022303 0.022303
0.022379 0.022379 0.022379
0.022455 0.022455 0.022455
0.022550 0.022550 0.022550
0.022649 0.022649 0.022649
0.022747 0.022747 0.022747
0.022846 0.022846 0.022846
0.033211 0.033211 0.033211
0.044167 0.044167 0.044167
0.056269 0.056269 0.056269
0.070222 0.070222 0.070222
0.086995 0.086995 0.086995
0.106169 0.106169 0.106169
0.114940 0.114940 0.114940
0.111168 0.111168 0.111168
0.107889 0.107889 0.107889
0.104276 0.104276 0.104276
0.101622 0.101622 0.101622
0.097539 0.097539 0.097539
0.092734 0.092734 0.092734
0.092835 0.092835 0.092835
0.092039 0.092039 0.092039
0.061893 0.061893 0.061893
0.038249 0.038249 0.038249
0.025374 0.025374 0.025374
0.022291 0.022291 0.022291
0.021801 0.021801 0.021801
0.021822 0.021822 0.021822
0.021860 0.021860 0.021860
0.021869 0.021869 0.021869
0.021880 0.021880 0.021880
0.021926 0.021926 0.021926
0.021972 0.021972 0.021972
0.022017 0.022017 0.022017
0.022086 0.022086 0.022086
0.022153 0.022153 0.022153
0.022217 0.022217 0.022217
0.022287 0.022287 0.022287
0.022380 0.022380 0.022380
0.022473 0.022473 0.022473
0.053238 0.053238 0.053238
0.069971 0.069971 0.069971
0.087762 0.087762 0.087762
0.106894 0.106894 0.106894
0.127120 0.127120 0.127120
0.145763 0.145763 0.145763
0.159082 0.159082 0.159082
0.156801 0.156801 0.156801
0.154051 0.154051 0.154051
0.150933 0.150933 0.150933
0.147905 0.147905 0.147905
0.145807 0.145807 0.145807
0.140671 0.140671 0.140671
0.136785 0.136785 0.136785
0.135645 0.135645 0.135645
0.126654 0.126654 0.126654
0.081639 0.081639 0.081639
0.044542 0.044542 0.044542
0.027261 0.027261 0.027261
0.023425 0.023425 0.023425
0.022441 0.022441 0.022441
0.022239 0.022239 0.022239
0.022114 0.022114 0.022114
0.022056 0.022056 0.022056
0.022001 0.022001 0.022001
0.021958 0.021958 0.021958
0.021963 0.021963 0.021963
0.021962 0.021962 0.021962
0.021964 0.021964 0.021964
0.022009 0.022009 0.022009
0.022052 0.022052 0.022052
0.022095 0.022095 0.022095
0.022150 0.022150 0.022150
0.083207 0.083207 0.083207
0.106327 0.106327 0.106327
0.128077 0.128077 0.128077
0.146465 0.146465 0.146465
0.163080 0.163080 0.163080
0.178898 0.178898 0.178898
0.193893 0.193893 0.193893
0.194689 0.194689 0.194689
0.191964 0.191964 0.191964
0.189393 0.189393 0.189393
0.186322 0.186322 0.186322
0.183873 0.183873 0.183873
0.181319 0.181319 0.181319
0.176016 0.176016 0.176016
0.173493 0.173493 0.173493
0.174333 0.174333 0.174333
0.160892 0.160892 0.160892
0.101316 0.101316 0.101316
0.049752 0.049752 0.049752
0.028646 0.028646 0.028646
0.024545 0.024545 0.024545
0.023378 0.023378 0.023378
0.022954 0.022954 0.022954
0.022730 0.022730 0.022730
0.022553 0.022553 0.022553
0.022436 0.022436 0.022436
0.022327 0.022327 0.022327
0.022214 0.022214 0.022214
0.022150 0.022150 0.022150
0.022091 0.022091 0.022091
0.022036 0.022036 0.022036
0.022041 0.022041 0.022041
0.022047 0.022047 0.022047
0.122761 0.122761 0.122761
0.145853 0.145853 0.145853
0.163934 0.163934 0.163934
0.179645 0.179645 0.179645
0.194509 0.194509 0.194509
0.208001 0.208001 0.208001
0.219277 0.219277 0.219277
0.223615 0.223615 0.223615
0.221935 0.221935 0.221935
0.220329 0.220329 0.220329
0.218397 0.218397 0.218397
0.216084 0.216084 0.216084
0.213917 0.213917 0.213917
0.210541 0.210541 0.210541
0.205284 0.205284 0.205284
0.202341 0.202341 0.202341
0.199998 0.199998 0.199998
0.180083 0.180083 0.180083
0.114548 0.114548 0.114548
0.053397 0.053397 0.053397
0.030227 0.030227 0.030227
0.026739 0.026739 0.026739
0.025716 0.025716 0.025716
0.024887 0.024887 0.024887
0.024178 0.024178 0.024178
0.023688 0.023688 0.023688
0.023325 0.023325 0.023325
0.022990 0.022990 0.022990
0.022834 0.022834 0.022834
0.022673 0.022673 0.022673
0.022531 0.022531 0.022531
0.022419 0.022419 0.022419
0.022321 0.022321 0.022321
0.159450 0.159450 0.159450
0.179033 0.179033 0.179033
0.195302 0.195302 0.195302
0.208679 0.208679 0.208679
0.219872 0.219872 0.219872
0.228450 0.228450 0.228450
0.234475 0.234475 0.234475
0.237753 0.237753 0.237753
0.237362 0.237362 0.237362
0.236728 0.236728 0.236728
0.236073 0.236073 0.236073
0.235122 0.235122 0.235122
0.234095 0.234095 0.234095
0.233100 0.233100 0.233100
0.230718 0.230718 0.230718
0.227359 0.227359 0.227359
0.223882 0.223882 0.223882
0.217624 0.217624 0.217624
0.189332 0.189332 0.189332
0.118671 0.118671 0.118671
0.054467 0.054467 0.054467
0.034085 0.034085 0.034085
0.031650 0.031650 0.031650
0.030011 0.030011 0.030011
0.028559 0.028559 0.028559
0.027221 0.027221 0.027221
0.026259 0.026259 0.026259
0.025496 0.025496 0.025496
0.024897 0.024897 0.024897
0.024354 0.024354 0.024354
0.023860 0.023860 0.023860
0.023481 0.023481 0.023481
0.023108 0.023108 0.023108
0.191268 0.191268 0.191268
0.208176 0.208176 0.208176
0.220618 0.220618 0.220618
0.229071 0.229071 0.229071
0.235149 0.235149 0.235149
0.238913 0.238913 0.238913
0.241223 0.241223 0.241223
0.242130 0.242130 0.242130
0.242157 0.242157 0.242157
0.242191 0.242191 0.242191
0.242295 0.242295 0.242295
0.242197 0.242197 0.242197
0.242044 0.242044 0.242044
0.241941 0.241941 0.241941
0.241751 0.241751 0.241751
0.240484 0.240484 0.240484
0.238820 0.238820 0.238820
0.235691 0.235691 0.235691
0.226412 0.226412 0.226412
0.189820 0.189820 0.189820
0.114842 0.114842 0.114842
0.056256 0.056256 0.056256
0.042132 0.042132 0.042132
0.039302 0.039302 0.039302
0.036886 0.036886 0.036886
0.034614 0.034614 0.034614
0.032579 0.032579 0.032579
0.030814 0.030814 0.030814
0.029508 0.029508 0.029508
0.028459 0.028459 0.028459
0.027457 0.027457 0.027457
0.026580 0.026580 0.026580
0.025821 0.025821 0.025821
0.217881 0.217881 0.217881
0.228950 0.228950 0.228950
0.235741 0.235741 0.235741
0.239550 0.239550 0.239550
0.241904 0.241904 0.241904
0.242778 0.242778 0.242778
0.242804 0.242804 0.242804
0.242832 0.242832 0.242832
0.242858 0.242858 0.242858
0.242886 0.242886 0.242886
0.242961 0.242961 0.242961
0.243093 0.243093 0.243093
0.243281 0.243281 0.243281
0.243531 0.243531 0.243531
0.243821 0.243821 0.243821
0.244093 0.244093 0.244093
0.244091 0.244091 0.244091
0.242735 0.242735 0.242735
0.239000 0.239000 0.239000
0.225415 0.225415 0.225415
0.179946 0.179946 0.179946
0.104928 0.104928 0.104928
0.064339 0.064339 0.064339
0.053568 0.053568 0.053568
0.050159 0.050159 0.050159
0.046905 0.046905 0.046905
0.043841 0.043841 0.043841
0.040943 0.040943 0.040943
0.038212 0.038212 0.038212
0.036072 0.036072 0.036072
0.034412 0.034412 0.034412
0.032831 0.032831 0.032831
0.031383 0.031383 0.031383
0.234630 0.234630 0.234630
0.239801 0.239801 0.239801
0.242570 0.242570 0.242570
0.243317 0.243317 0.243317
0.243350 0.243350 0.243350
0.243377 0.243377 0.243377
0.243403 0.243403 0.243403
0.243431 0.243431 0.243431
0.243457 0.243457 0.243457
0.243485 0.243485 0.243485
0.243528 0.243528 0.243528
0.243641 0.243641 0.243641
0.243796 0.243796 0.243796
0.244003 0.244003 0.244003
0.244273 0.244273 0.244273
0.244519 0.244519 0.244519
0.244619 0.244619 0.244619
0.244201 0.244201 0.244201
0.242193 0.242193 0.242193
0.236566 0.236566 0.236566
0.215396 0.215396 0.215396
0.159459 0.159459 0.159459
0.098917 0.098917 0.098917
0.079328 0.079328 0.079328
0.067509 0.067509 0.067509
0.063586 0.063586 0.063586
0.059751 0.059751 0.059751
0.056154 0.056154 0.056154
0.052446 0.052446 0.052446
0.048985 0.048985 0.048985
0.045902 0.045902 0.045902
0.043532 0.043532 0.043532
0.041310 0.041310 0.041310
0.242590 0.242590 0.242590
0.243876 0.243876 0.243876
0.243903 0.243903 0.243903
0.243928 0.243928 0.243928
0.243955 0.243955 0.243955
0.243982 0.243982 0.243982
0.244008 0.244008 0.244008
0.244036 0.244036 0.244036
0.244062 0.244062 0.244062
0.244090 0.244090 0.244090
0.244122 0.244122 0.244122
0.244201 0.244201 0.244201
0.244347 0.244347 0.244347
0.244529 0.244529 0.244529
0.244768 0.244768 0.244768
0.245002 0.245002 0.245002
0.245128 0.245128 0.245128
0.244948 0.244948 0.244948
0.243703 0.243703 0.243703
0.239964 0.239964 0.239964
0.230132 0.230132 0.230132
0.195705 0.195705 0.195705
0.132846 0.132846 0.132846
0.109453 0.109453 0.109453
0.098606 0.098606 0.098606
0.084918 0.084918 0.084918
0.080670 0.080670 0.080670
0.076070 0.076070 0.076070
0.071413 0.071413 0.071413
0.066982 0.066982 0.066982
0.062709 0.062709 0.062709
0.058782 0.058782 0.058782
0.055790 0.055790 0.055790
0.244484 0.244484 0.244484
0.244499 0.244499 0.244499
0.244514 0.244514 0.244514
0.244529 0.244529 0.244529
0.244554 0.244554 0.244554
0.244581 0.244581 0.244581
0.244608 0.244608 0.244608
0.244635 0.244635 0.244635
0.244661 0.244661 0.244661
0.244689 0.244689 0.244689
0.244715 0.244715 0.244715
0.244763 0.244763 0.244763
0.244889 0.244889 0.244889
0.245037 0.245037 0.245037
0.245234 0.245234 0.245234
0.245467 0.245467 0.245467
0.245651 0.245651 0.245651
0.245572 0.245572 0.245572
0.244870 0.244870 0.244870
0.242365 0.242365 0.242365
0.235705 0.235705 0.235705
0.219416 0.219416 0.219416
0.169514 0.169514 0.169514
0.116605 0.116605 0.116605
0.123491 0.123491 0.123491
0.116133 0.116133 0.116133
0.108050 0.108050 0.108050
0.102766 0.102766 0.102766
0.097135 0.097135 0.097135
0.092966 0.092966 0.092966
0.086757 0.086757 0.086757
0.081167 0.081167 0.081167
0.075869 0.075869 0.075869
0.245101 0.245101 0.245101
0.245116 0.245116 0.245116
0.245131 0.245131 0.245131
0.245146 0.245146 0.245146
0.245161 0.245161 0.245161
0.245186 0.245186 0.245186
0.245212 0.245212 0.245212
0.245240 0.245240 0.245240
0.245266 0.245266 0.245266
0.245294 0.245294 0.245294
0.245320 0.245320 0.245320
0.245351 0.245351 0.245351
0.245444 0.245444 0.245444
0.245570 0.245570 0.245570
0.245746 0.245746 0.245746
0.245944 0.245944 0.245944
0.246101 0.246101 0.246101
0.246169 0.246169 0.246169
0.245780 0.245780 0.245780
0.244117 0.244117 0.244117
0.239533 0.239533 0.239533
