example/ios/lut1.cube
LUT_3D_SIZE 33
# LUT data points begin
0.000000 0.000140 0.000000
0.000000 0.000140 0.000000
0.000000 0.000140 0.000000
0.000000 0.000140 0.000000
0.000000 0.000140 0.000000
0.000000 0.000140 0.000000
0.010025 0.003059 0.002781
0.055579 0.004965 0.003286
0.075410 0.007024 0.003871
0.096025 0.009271 0.004517
0.114985 0.011431 0.005144
0.136782 0.013961 0.007275
0.166954 0.015638 0.010795
0.209293 0.011096 0.015854
0.260315 0.007707 0.017052
0.311911 0.010877 0.013882
0.370659 0.014642 0.017915
0.435359 0.018974 0.036108
0.503546 0.038641 0.050496
0.579215 0.074144 0.062237
0.651888 0.107443 0.079725
0.723969 0.141107 0.097824
0.787154 0.167790 0.113612
0.797765 0.172248 0.116258
0.797765 0.172248 0.116258
0.797765 0.172248 0.116258
0.797765 0.172248 0.116258
0.797765 0.172248 0.116258
0.797765 0.172248 0.116258
0.797765 0.172248 0.116258
0.797765 0.172248 0.116258
0.797765 0.172248 0.116258
0.797765 0.172248 0.116258
0.000000 0.000140 0.000000
0.000000 0.000140 0.000000
0.000000 0.000140 0.000000
0.000000 0.000140 0.000000
0.000000 0.000140 0.000000
0.000000 0.000140 0.000000
0.010025 0.003059 0.002781
0.055579 0.004965 0.003286
0.075438 0.007027 0.003872
0.096025 0.009271 0.004517
0.114985 0.011431 0.005144
0.136796 0.013963 0.007276
0.166954 0.015638 0.010795
0.209293 0.011096 0.015854
0.260315 0.007707 0.017052
0.311911 0.010877 0.013882
0.370725 0.014646 0.017934
0.435359 0.018974 0.036108
0.503546 0.038641 0.050496
0.579215 0.074144 0.062237
0.651888 0.107443 0.079725
0.723969 0.141107 0.097824
0.787154 0.167790 0.113612
0.797765 0.172248 0.116258
0.797765 0.172248 0.116258
0.797765 0.172248 0.116258
0.797765 0.172248 0.116258
0.797765 0.172248 0.116258
0.797765 0.172248 0.116258
0.797765 0.172248 0.116258
0.797765 0.172248 0.116258
0.797765 0.172248 0.116258
0.797765 0.172248 0.116258
0.000000 0.000140 0.000000
0.000000 0.000140 0.000000
0.000000 0.000140 0.000000
0.000000 0.000140 0.000000
0.000000 0.000140 0.000000
0.000000 0.000140 0.000000
0.000000 0.000140 0.000000
0.003668 0.002461 0.002199
0.048495 0.004286 0.003095
0.075344 0.007018 0.003869
0.100236 0.009743 0.004653
0.122944 0.012353 0.005679
0.151182 0.015585 0.008977
0.195001 0.012988 0.014091
0.245187 0.007084 0.017960
0.298449 0.010035 0.014640
0.360259 0.013970 0.015368
0.425464 0.018292 0.033869
0.496467 0.035142 0.049203
0.571630 0.071918 0.061912
0.644685 0.105940 0.077923
0.717242 0.139232 0.096143
0.782110 0.165809 0.112354
0.797765 0.172248 0.116258
0.797765 0.172248 0.116258
0.797765 0.172248 0.116258
0.797765 0.172248 0.116258
0.797765 0.172248 0.116258
0.797765 0.172248 0.116258
0.797765 0.172248 0.116258
0.797765 0.172248 0.116258
0.797765 0.172248 0.116258
0.797765 0.172248 0.116258
0.000000 0.000140 0.000000
0.000000 0.000140 0.000000
0.000000 0.000140 0.000000
0.000000 0.000140 0.000000
0.000000 0.000140 0.000000
0.000000 0.000140 0.000000
0.000000 0.000140 0.000000
0.000000 0.000140 0.000000
0.009848 0.003059 0.002781
0.061753 0.005596 0.003465
0.091282 0.008745 0.004365
0.115278 0.011466 0.005154
0.142793 0.014674 0.007982
0.185006 0.014091 0.012891
0.238273 0.007293 0.018051
0.291837 0.009625 0.015027
0.353900 0.013561 0.014051
0.420945 0.017981 0.032901
0.489074 0.027137 0.047934
0.564500 0.069643 0.061262
0.640459 0.104826 0.076864
0.712477 0.134790 0.094940
0.779072 0.164610 0.111596
0.797765 0.172248 0.116258
0.797765 0.172248 0.116258
0.797765 0.172248 0.116258
0.797765 0.172248 0.116258
0.797765 0.172248 0.116258
0.797765 0.172248 0.116258
0.797765 0.172248 0.116258
0.797765 0.172248 0.116258
0.797765 0.172248 0.116258
0.797765 0.172248 0.116258
0.000000 0.000140 0.000000
0.000000 0.000140 0.000000
0.000000 0.000140 0.000000
0.000000 0.000140 0.000000
0.000000 0.000140 0.000000
0.000000 0.000140 0.000000
0.000000 0.000140 0.000000
0.000000 0.000140 0.000000
0.000195 0.000394 0.000195
0.045718 0.004049 0.003029
0.080734 0.007595 0.004034
0.108439 0.010675 0.004924
0.136505 0.013929 0.007242
0.178597 0.014705 0.012136
0.231947 0.007816 0.017885
0.287046 0.009330 0.015315
0.346904 0.013113 0.012906
0.415889 0.017636 0.031820
0.485241 0.025513 0.047210
0.560655 0.068282 0.060797
0.636858 0.103569 0.075960
0.709470 0.133722 0.094188
0.776572 0.163666 0.110972
0.797765 0.172248 0.116258
0.797765 0.172248 0.116258
0.797765 0.172248 0.116258
0.797765 0.172248 0.116258
0.797765 0.172248 0.116258
0.797765 0.172248 0.116258
0.797765 0.172248 0.116258
0.797765 0.172248 0.116258
0.797765 0.172248 0.116258
0.797765 0.172248 0.116258
0.000000 0.000140 0.000000
0.000000 0.000140 0.000000
0.000000 0.000140 0.000000
0.000000 0.000140 0.000000
0.000000 0.000140 0.000000
0.000000 0.000140 0.000000
0.000000 0.000140 0.000000
0.000000 0.000140 0.000000
0.000000 0.000140 0.000000
0.022328 0.003110 0.002782
0.071422 0.006603 0.003751
0.103312 0.010091 0.004754
0.132644 0.013476 0.006793
0.172225 0.015247 0.011398
0.224532 0.008735 0.017434
0.282884 0.009074 0.015571
0.342907 0.012856 0.012593
0.412093 0.017378 0.031010
0.481371 0.024345 0.046467
0.556840 0.066410 0.060010
0.633151 0.099373 0.075010
0.705722 0.131830 0.093247
0.773840 0.162614 0.110290
0.797765 0.172248 0.116258
0.797765 0.172248 0.116258
0.797765 0.172248 0.116258
0.797765 0.172248 0.116258
0.797765 0.172248 0.116258
0.797765 0.172248 0.116258
0.797765 0.172248 0.116258
0.797765 0.172248 0.116258
0.797765 0.172248 0.116258
0.797765 0.172248 0.116258
0.000000 0.000140 0.000000
0.000000 0.000140 0.000000
0.000000 0.000140 0.000000
0.000000 0.000140 0.000000
0.000000 0.000140 0.000000
0.000000 0.000140 0.000000
0.000000 0.000140 0.000000
0.000000 0.000140 0.000000
0.000000 0.000140 0.000000
0.003167 0.002464 0.002202
0.064286 0.005858 0.003539
0.099358 0.009644 0.004625
0.128147 0.012953 0.006274
0.166327 0.015665 0.010723
0.220101 0.009401 0.017053
0.277634 0.008754 0.015902
0.339392 0.012630 0.012449
0.408211 0.017115 0.030182
0.479985 0.023979 0.046199
0.555653 0.066040 0.059771
0.632192 0.099015 0.074769
0.704458 0.131360 0.092931
0.772939 0.162282 0.110066
0.797765 0.172248 0.116258
0.797765 0.172248 0.116258
0.797765 0.172248 0.116258
0.797765 0.172248 0.116258
0.797765 0.172248 0.116258
0.797765 0.172248 0.116258
0.797765 0.172248 0.116258
0.797765 0.172248 0.116258
0.797765 0.172248 0.116258
0.797765 0.172248 0.116258
0.000000 0.000140 0.000000
0.000000 0.000140 0.000000
0.000000 0.000140 0.000000
0.000000 0.000140 0.000000
0.000000 0.000140 0.000000
0.000000 0.000140 0.000000
0.000000 0.000140 0.000000
0.000000 0.000140 0.000000
0.000000 0.000140 0.000000
0.000316 0.000515 0.000316
0.056331 0.005043 0.003308
0.094400 0.009090 0.004464
0.125141 0.012606 0.005930
0.162782 0.015834 0.010319
0.214186 0.010328 0.016433
0.274109 0.008540 0.016128
0.336109 0.012418 0.012613
0.404401 0.016857 0.029371
0.476990 0.023431 0.045609
0.552843 0.060603 0.059273
0.629374 0.097997 0.074061
0.702090 0.130693 0.092339
0.769248 0.160081 0.109143
0.797765 0.172248 0.116258
0.797765 0.172248 0.116258
0.797765 0.172248 0.116258
0.797765 0.172248 0.116258
0.797765 0.172248 0.116258
0.797765 0.172248 0.116258
0.797765 0.172248 0.116258
0.797765 0.172248 0.116258
0.797765 0.172248 0.116258
0.797765 0.172248 0.116258
0.000000 0.000140 0.000000
0.000000 0.000140 0.000000
0.000000 0.000140 0.000000
0.000000 0.000140 0.000000
0.000000 0.000140 0.000000
0.000000 0.000140 0.000000
0.000000 0.000140 0.000000
0.000000 0.000140 0.000000
0.000000 0.000140 0.000000
0.000000 0.000140 0.000000
0.044745 0.003988 0.003012
0.089196 0.008515 0.004299
0.120744 0.012100 0.005457
0.156949 0.015871 0.009649
0.210755 0.010870 0.016032
0.270537 0.008323 0.016361
0.333525 0.012252 0.012743
0.402286 0.016715 0.028921
0.473867 0.022826 0.044991
0.549649 0.059493 0.058652
0.625932 0.096581 0.073194
0.700056 0.130143 0.091830
0.769365 0.158688 0.109169
0.797765 0.172248 0.116258
0.797765 0.172248 0.116258
0.797765 0.172248 0.116258
0.797765 0.172248 0.116258
0.797765 0.172248 0.116258
0.797765 0.172248 0.116258
0.797765 0.172248 0.116258
0.797765 0.172248 0.116258
0.797765 0.172248 0.116258
0.797765 0.172248 0.116258
0.000000 0.000140 0.000000
0.000000 0.000140 0.000000
0.000000 0.000140 0.000000
0.000000 0.000140 0.000000
0.000000 0.000140 0.000000
0.000000 0.000140 0.000000
0.000000 0.000140 0.000000
0.000000 0.000140 0.000000
0.000000 0.000140 0.000000
0.000000 0.000140 0.000000
0.024401 0.003146 0.002791
0.080996 0.007623 0.004043
0.116936 0.011659 0.005211
0.151239 0.015578 0.008983
0.205578 0.011621 0.015391
0.266282 0.008066 0.016644
0.330007 0.012026 0.012923
0.398549 0.016463 0.028128
0.470107 0.022122 0.044245
0.547352 0.058618 0.058220
0.623724 0.095620 0.072638
0.698429 0.129713 0.091423
0.766110 0.157502 0.108356
0.797765 0.172248 0.116258
0.797765 0.172248 0.116258
0.797765 0.172248 0.116258
0.797765 0.172248 0.116258
0.797765 0.172248 0.116258
0.797765 0.172248 0.116258
0.797765 0.172248 0.116258
0.797765 0.172248 0.116258
0.797765 0.172248 0.116258
0.797765 0.172248 0.116258
0.000000 0.035948 0.000000
0.000000 0.035948 0.000000
0.000000 0.026831 0.000000
0.000000 0.020778 0.000000
0.000000 0.014828 0.000000
0.000000 0.011771 0.000000
0.000000 0.007841 0.000000
0.000000 0.002224 0.000000
0.000000 0.002376 0.000000
0.000000 0.000140 0.000000
0.000717 0.000945 0.000717
0.064066 0.005836 0.003533
0.105764 0.010370 0.004835
0.144634 0.019157 0.008200
0.199226 0.013793 0.014603
0.260398 0.007713 0.017047
0.325870 0.011762 0.013137
0.392740 0.016078 0.026388
0.466397 0.021487 0.043493
0.543292 0.057098 0.057475
0.619687 0.094047 0.071622
0.694681 0.128776 0.090487
0.763174 0.155680 0.107621
0.797765 0.172248 0.116258
0.797765 0.172248 0.116258
0.797765 0.172248 0.116258
0.797765 0.172248 0.116258
0.797765 0.172248 0.116258
0.797765 0.172248 0.116258
0.797765 0.172248 0.116258
0.797765 0.172248 0.116258
0.797765 0.172248 0.116258
0.797765 0.172248 0.116258
0.000760 0.071512 0.000763
0.000760 0.071512 0.000763
0.000609 0.066972 0.000612
0.000523 0.064359 0.000526
0.000439 0.061786 0.000442
0.000342 0.058797 0.000345
0.000253 0.056029 0.000256
0.000236 0.055478 0.000238
0.000134 0.052298 0.000137
0.000081 0.050522 0.000083
0.000013 0.046400 0.000015
0.044869 0.047039 0.003033
0.092285 0.051435 0.004407
0.132475 0.054576 0.006812
0.191446 0.052282 0.013136
0.251501 0.043259 0.013612
0.317916 0.032552 0.012028
0.388158 0.025832 0.023949
0.461277 0.031342 0.041651
0.538775 0.059945 0.056575
0.615475 0.092396 0.070562
0.691020 0.125618 0.089561
0.758960 0.154367 0.106570
0.797765 0.172248 0.116258
0.797765 0.172248 0.116258
0.797765 0.172248 0.116258
0.797765 0.172248 0.116258
0.797765 0.172248 0.116258
0.797765 0.172248 0.116258
0.797765 0.172248 0.116258
0.797765 0.172248 0.116258
0.797765 0.172248 0.116258
0.797765 0.172248 0.116258
0.001649 0.097277 0.001654
0.001649 0.097277 0.001654
0.001558 0.094694 0.001562
0.001459 0.091904 0.001463
0.001391 0.089972 0.001396
0.001327 0.088112 0.001331
0.001323 0.088012 0.001327
0.001270 0.086472 0.001273
0.001266 0.086365 0.001270
0.001213 0.084847 0.001217
0.001175 0.083735 0.001179
0.026959 0.080606 0.003615
0.080989 0.084099 0.004799
0.122860 0.085951 0.008402
0.180346 0.085025 0.011255
0.242068 0.084055 0.010813
0.309966 0.080399 0.009623
0.379161 0.078735 0.019818
0.454147 0.080084 0.038385
0.534361 0.088070 0.054578
0.611691 0.103349 0.069636
0.683743 0.126498 0.087754
0.754861 0.153239 0.105547
0.797765 0.172248 0.116258
0.797765 0.172248 0.116258
0.797765 0.172248 0.116258
0.797765 0.172248 0.116258
0.797765 0.172248 0.116258
0.797765 0.172248 0.116258
0.797765 0.172248 0.116258
0.797765 0.172248 0.116258
0.797765 0.172248 0.116258
0.797765 0.172248 0.116258
0.001977 0.125682 0.002315
0.001977 0.125682 0.002315
0.002137 0.122524 0.002385
0.002201 0.120646 0.002391
0.002212 0.120260 0.002390
0.002239 0.118347 0.002358
0.002240 0.118285 0.002357
0.002249 0.116069 0.002311
0.002246 0.116026 0.002309
0.002225 0.114537 0.002262
0.002206 0.113543 0.002231
0.006138 0.112248 0.004117
0.063608 0.115514 0.004751
0.106058 0.118056 0.006067
0.166384 0.123448 0.007135
0.229824 0.123716 0.007688
0.300398 0.123326 0.007302
0.372800 0.122996 0.016632
0.449746 0.122653 0.035098
0.529444 0.124280 0.052333
0.606645 0.134671 0.071313
0.683002 0.146302 0.086799
0.751142 0.163274 0.103836
0.797732 0.175745 0.116256
0.797764 0.172964 0.116259
0.797764 0.172530 0.116258
0.797765 0.172248 0.116258
0.797765 0.172248 0.116258
0.797765 0.172248 0.116258
0.797765 0.172248 0.116258
0.797765 0.172248 0.116258
0.797765 0.172248 0.116258
0.797765 0.172248 0.116258
0.000314 0.166261 0.001330
0.000314 0.166250 0.001330
0.000367 0.163040 0.001382
0.000467 0.159785 0.001438
0.000577 0.156365 0.001501
0.000581 0.156233 0.001503
0.000682 0.153292 0.001561
0.000700 0.152745 0.001572
0.000698 0.152804 0.001571
0.000799 0.150015 0.001629
0.000810 0.149710 0.001635
0.000916 0.146944 0.001697
0.026768 0.150329 0.003631
0.082237 0.157147 0.004002
0.145827 0.160681 0.004485
0.213763 0.166003 0.004753
0.286674 0.168366 0.004881
0.363142 0.170389 0.010058
0.443293 0.172174 0.029793
0.522776 0.173225 0.049011
0.601477 0.176606 0.068744
0.674716 0.181915 0.087543
0.745180 0.190971 0.104320
0.798156 0.197267 0.115492
0.801316 0.190503 0.116260
0.799037 0.183819 0.116258
0.797730 0.179958 0.116255
0.797731 0.177025 0.116258
0.797763 0.174298 0.116261
0.797764 0.173476 0.116260
0.797764 0.173393 0.116260
0.797764 0.172854 0.116259
0.797764 0.172854 0.116259
0.000654 0.210395 0.001256
0.000654 0.210395 0.001256
0.000623 0.207778 0.001248
0.000591 0.205096 0.001239
0.000589 0.204890 0.001238
0.000567 0.203070 0.001232
0.000556 0.202064 0.001228
0.000547 0.201355 0.001225
0.000532 0.199988 0.001219
0.000526 0.199445 0.001217
0.000503 0.197434 0.001208
0.000484 0.195755 0.001201
0.000507 0.194207 0.001298
0.054210 0.199256 0.002967
0.125649 0.204986 0.003396
0.196556 0.209873 0.003717
0.275326 0.215317 0.003889
0.353021 0.221245 0.003868
0.436130 0.223171 0.021681
0.517170 0.226032 0.046153
0.596637 0.229022 0.069688
0.671757 0.230968 0.088980
0.742178 0.237176 0.105227
0.796731 0.238666 0.117588
0.804544 0.231647 0.119884
0.804360 0.221702 0.119595
0.802103 0.213796 0.117265
0.801154 0.206863 0.116256
0.801199 0.201782 0.116256
0.801238 0.198146 0.116257
0.801276 0.194876 0.116260
0.801311 0.192737 0.116263
0.801311 0.192737 0.116263
0.001387 0.264144 0.001274
0.001387 0.264144 0.001274
0.001334 0.260621 0.001279
0.001304 0.258548 0.001282
0.001277 0.256721 0.001284
0.001252 0.254952 0.001286
0.001253 0.255010 0.001286
0.001243 0.254387 0.001287
0.001215 0.252445 0.001288
0.001201 0.251415 0.001289
0.001201 0.251444 0.001289
0.001150 0.247850 0.001292
0.001104 0.244589 0.001293
0.019501 0.248548 0.002246
0.101839 0.253445 0.002501
0.180608 0.260812 0.002760
0.260109 0.268190 0.002906
0.342180 0.275445 0.002920
0.430024 0.279875 0.012688
0.511082 0.283890 0.046066
0.592654 0.287956 0.069156
0.666844 0.289592 0.088948
0.738496 0.289678 0.106214
0.798239 0.292416 0.119403
0.812525 0.284638 0.123503
0.811029 0.276731 0.122992
0.809454 0.268241 0.121475
0.808485 0.262098 0.120474
0.807983 0.253648 0.119880
0.807552 0.249344 0.119887
0.806645 0.243940 0.119878
0.805897 0.241371 0.119886
0.805908 0.241395 0.119886
0.031091 0.322635 0.001634
0.031091 0.322635 0.001634
0.027119 0.319257 0.001619
0.024668 0.318721 0.001619
0.020395 0.315219 0.001625
0.020449 0.315277 0.001625
0.019625 0.315262 0.001625
0.015665 0.314007 0.001632
0.012815 0.311581 0.001640
0.012880 0.311639 0.001639
0.012937 0.311696 0.001639
0.008651 0.308000 0.001670
0.007766 0.306698 0.001668
0.017390 0.304330 0.001693
0.083730 0.307703 0.001790
0.163200 0.314898 0.002079
0.247386 0.323131 0.002516
0.333237 0.331676 0.003000
0.419411 0.337989 0.003826
0.504227 0.342506 0.040055
0.589218 0.348732 0.067744
0.664528 0.349352 0.088883
0.736333 0.350790 0.107262
0.796717 0.351141 0.121773
0.822487 0.346029 0.127151
0.820729 0.337298 0.127146
0.819612 0.330260 0.127139
0.818547 0.323311 0.126719
0.817589 0.316732 0.125658
0.817074 0.313146 0.124757
0.816213 0.307255 0.123849
0.816038 0.306112 0.123730
0.816038 0.306112 0.123730
0.098573 0.387714 0.002195
0.098540 0.387711 0.002195
0.092928 0.384141 0.002152
0.092633 0.383811 0.002149
0.091687 0.382692 0.002139
0.089581 0.380327 0.002117
0.089626 0.380386 0.002118
0.089626 0.380386 0.002118
0.089377 0.380049 0.002115
0.087742 0.377872 0.002096
0.086846 0.376673 0.002086
0.086339 0.375986 0.002080
0.083550 0.372924 0.002052
0.082604 0.371826 0.002043
0.094748 0.368168 0.002070
0.154053 0.372483 0.002344
0.237536 0.380447 0.002787
0.325599 0.390658 0.003306
0.413959 0.398727 0.003841
0.498586 0.405299 0.031738
0.583748 0.410439 0.065138
0.661641 0.412759 0.088026
0.731996 0.412465 0.106405
0.795772 0.413917 0.123357
0.835936 0.412024 0.132299
0.836918 0.402658 0.131809
0.836084 0.395482 0.131636
0.834541 0.391129 0.131454
0.833422 0.385741 0.131454
0.832296 0.381661 0.131230
0.831510 0.378496 0.130915
0.830821 0.375730 0.130634
0.830821 0.375730 0.130634
0.162144 0.450658 0.002848
0.162144 0.450658 0.002848
0.161698 0.450148 0.002843
0.157003 0.446787 0.002800
0.156916 0.446820 0.002800
0.156867 0.446766 0.002799
0.155842 0.445651 0.002788
0.153729 0.443350 0.002764
0.153781 0.443405 0.002764
0.153851 0.443462 0.002765
0.153593 0.443183 0.002762
0.150475 0.439989 0.002728
0.150438 0.439984 0.002728
0.147768 0.436032 0.002691
0.146910 0.435027 0.002681
0.166917 0.434330 0.002768
0.231935 0.440148 0.003120
0.316786 0.448284 0.003622
0.406887 0.457278 0.004190
0.495729 0.464735 0.033031
0.581121 0.472663 0.062873
0.659970 0.475164 0.086503
0.731787 0.474042 0.105322
0.793800 0.474375 0.122252
0.844503 0.475706 0.134049
0.851966 0.470540 0.135342
0.850114 0.464035 0.135317
0.848603 0.457383 0.135304
0.847764 0.453361 0.135291
0.846942 0.449867 0.135293
0.846153 0.446676 0.135282
0.845179 0.443622 0.135271
0.845172 0.443600 0.135271
0.219511 0.516303 0.003564
0.219554 0.516361 0.003565
0.219213 0.515955 0.003560
0.216682 0.512706 0.003524
0.216682 0.512706 0.003524
0.216682 0.512706 0.003524
0.216479 0.512462 0.003522
0.213949 0.509013 0.003485
0.213949 0.509013 0.003485
0.212631 0.508942 0.003478
0.212674 0.509000 0.003478
0.210382 0.505840 0.003445
0.209910 0.505185 0.003438
0.209511 0.504646 0.003432
0.207096 0.501399 0.003398
0.205872 0.497542 0.003365
0.237756 0.498892 0.003538
0.312192 0.504494 0.003979
0.399365 0.513992 0.004551
0.489086 0.522051 0.027319
0.574014 0.530795 0.067489
0.655523 0.534201 0.087828
0.727632 0.535570 0.104657
0.788830 0.535922 0.120363
0.843899 0.535633 0.132163
0.866622 0.532439 0.139020
0.864915 0.525604 0.139022
0.864076 0.521885 0.139017
0.863211 0.518157 0.139002
0.862532 0.514402 0.138988
0.861795 0.510957 0.138989
0.861751 0.510794 0.138988
0.861751 0.510794 0.138988
0.274717 0.576603 0.004305
0.274698 0.576580 0.004304
0.272252 0.573572 0.004267
0.272256 0.573587 0.004268
0.272161 0.573265 0.004265
0.270167 0.570756 0.004234
0.270167 0.570756 0.004234
0.269749 0.570251 0.004228
0.269827 0.570355 0.004229
0.269827 0.570355 0.004229
0.268239 0.568351 0.004205
0.266703 0.567174 0.004188
0.266065 0.566530 0.004179
0.263784 0.563708 0.004145
0.262707 0.562346 0.004129
0.260718 0.559876 0.004099
0.263307 0.556679 0.004089
0.313006 0.560362 0.004396
0.392209 0.567395 0.004918
0.480804 0.576770 0.015100
0.566734 0.582706 0.064499
0.648556 0.589974 0.094192
0.721108 0.591990 0.109674
0.785990 0.591497 0.122993
0.838319 0.592743 0.132948
0.875460 0.587791 0.140440
0.878743 0.584394 0.141725
0.878195 0.580397 0.141550
0.877708 0.577126 0.141356
0.877111 0.573663 0.139606
0.876591 0.571124 0.139185
0.876453 0.570549 0.139173
0.876458 0.570571 0.139173
0.316980 0.628264 0.004967
0.316980 0.628264 0.004967
0.316466 0.627458 0.004958
0.314879 0.625133 0.004928
0.314879 0.625133 0.004928
0.314959 0.625234 0.004930
0.314959 0.625234 0.004930
0.314959 0.625234 0.004930
0.314317 0.624283 0.004918
0.311728 0.621805 0.004882
0.311753 0.621841 0.004882
0.311753 0.621841 0.004882
0.311068 0.620831 0.004870
0.309179 0.618243 0.004837
0.308131 0.617310 0.004823
0.305936 0.614314 0.004785
0.303145 0.610786 0.004740
0.319951 0.611219 0.004842
0.386924 0.615676 0.005300
0.471912 0.623062 0.010371
0.556233 0.631897 0.061316
0.637608 0.635574 0.090545
0.711932 0.640932 0.114538
0.776020 0.642628 0.128248
0.830038 0.642466 0.136880
0.874188 0.640016 0.146647
0.886985 0.636908 0.151407
0.886617 0.633685 0.151410
0.886653 0.630563 0.151416
0.886427 0.627685 0.151449
0.886396 0.627399 0.151451
0.885834 0.624220 0.147434
0.885831 0.624211 0.147436
0.353184 0.672717 0.006197
0.353184 0.672717 0.006197
0.352363 0.671638 0.006146
0.352323 0.671562 0.006142
0.351875 0.671581 0.006133
0.350383 0.669835 0.006046
0.350124 0.669541 0.006032
0.349231 0.668634 0.005984
0.349274 0.668678 0.005986
0.349326 0.668722 0.005989
0.349326 0.668722 0.005989
0.347932 0.667292 0.005914
0.346638 0.665960 0.005845
0.346324 0.665643 0.005829
0.343768 0.662867 0.005687
0.343308 0.662233 0.005658
0.340448 0.658849 0.005494
0.341743 0.656105 0.005439
0.383244 0.658388 0.006411
0.461364 0.665092 0.008373
0.542770 0.671436 0.047508
0.621536 0.678055 0.081972
0.698251 0.681952 0.107957
0.763002 0.683306 0.128144
0.818994 0.683858 0.138639
0.863781 0.684324 0.151227
0.891834 0.683580 0.158093
0.893794 0.680181 0.158406
0.893802 0.677404 0.158531
0.893810 0.674497 0.158704
0.893811 0.674194 0.158725
0.893347 0.671341 0.158954
0.893347 0.671341 0.158954
0.380757 0.713421 0.008095
0.380750 0.713409 0.008094
0.379850 0.711942 0.008027
0.378877 0.710354 0.007954
0.378892 0.710379 0.007956
0.378735 0.710114 0.007943
0.378036 0.708915 0.007889
0.378036 0.708915 0.007889
0.378065 0.708965 0.007891
0.377480 0.708000 0.007847
0.376574 0.707115 0.007798
0.376066 0.706381 0.007764
0.375097 0.704814 0.007692
0.374116 0.702739 0.007604
0.373231 0.701226 0.007536
0.371907 0.698961 0.007434
0.370850 0.697147 0.007353
0.368850 0.693832 0.007204
0.385284 0.694871 0.007603
0.451188 0.699886 0.009262
0.531078 0.706517 0.028239
0.609295 0.712073 0.069126
0.682231 0.716385 0.097104
0.746411 0.718126 0.120366
0.802678 0.721183 0.136938
0.850564 0.720535 0.149556
0.887772 0.719901 0.161086
0.898501 0.718364 0.162523
0.898556 0.715860 0.163121
0.898472 0.715180 0.161235
0.898020 0.712864 0.161673
0.897609 0.712408 0.160317
0.897609 0.712408 0.160317
0.402760 0.744525 0.009612
0.402760 0.744525 0.009612
0.401684 0.742864 0.009532
0.400930 0.741700 0.009476
0.400886 0.741635 0.009472
0.400886 0.741635 0.009472
0.400915 0.741679 0.009475
0.400915 0.741679 0.009475
0.400944 0.741722 0.009477
0.399772 0.739895 0.009389
0.398608 0.739139 0.009338
0.398112 0.738844 0.009317
0.398072 0.738865 0.009317
0.396799 0.736905 0.009223
0.396228 0.736013 0.009181
0.394789 0.733781 0.009074
0.393765 0.732191 0.008999
0.391745 0.729067 0.008851
0.395714 0.727682 0.008895
0.443877 0.728777 0.010042
0.518271 0.734213 0.011978
0.595367 0.739985 0.055347
0.668541 0.745534 0.085367
0.732702 0.746042 0.108177
0.787676 0.749929 0.127520
0.835635 0.749909 0.141689
0.872877 0.751104 0.158548
0.898415 0.750519 0.161619
0.899651 0.748028 0.162389
0.899653 0.745444 0.162892
0.899653 0.745299 0.162917
0.899675 0.744420 0.162992
0.899675 0.744420 0.162992
0.417556 0.765374 0.010653
0.417556 0.765374 0.010653
0.417556 0.765374 0.010653
0.417556 0.765374 0.010653
0.417143 0.765046 0.010632
0.417125 0.765024 0.010631
0.417118 0.765024 0.010631
0.417118 0.765024 0.010631
0.417118 0.765024 0.010631
0.417118 0.765024 0.010631
0.417128 0.765035 0.010632
0.416344 0.763784 0.010571
0.416165 0.763501 0.010557
0.416165 0.763501 0.010557
0.414516 0.760932 0.010432
0.414516 0.760932 0.010432
0.412729 0.758189 0.010299
0.410172 0.755366 0.010144
0.409750 0.753227 0.010063
0.439831 0.752510 0.010741
0.509143 0.757834 0.012572
0.584615 0.763839 0.035204
0.654726 0.767321 0.075817
0.719058 0.770070 0.098388
0.775744 0.772574 0.117405
0.821943 0.772431 0.134108
0.860554 0.774984 0.154382
0.890784 0.775038 0.162089
0.899560 0.773196 0.161493
