example/ios/lut1.cube
LUT_3D_SIZE 9
# LUT data points begin
0.000000 0.000140 0.000000
0.000000 0.000140 0.000000
0.075410 0.007024 0.003871
0.166954 0.015638 0.010795
0.370659 0.014642 0.017915
0.651888 0.107443 0.079725
0.797765 0.172248 0.116258
0.797765 0.172248 0.116258
0.797765 0.172248 0.116258
0.000000 0.000140 0.000000
0.000000 0.000140 0.000000
0.000195 0.000394 0.000195
0.136505 0.013929 0.007242
0.346904 0.013113 0.012906
0.636858 0.103569 0.075960
0.797765 0.172248 0.116258
0.797765 0.172248 0.116258
0.797765 0.172248 0.116258
0.000000 0.000140 0.000000
0.000000 0.000140 0.000000
0.000000 0.000140 0.000000
0.120744 0.012100 0.005457
0.333525 0.012252 0.012743
0.625932 0.096581 0.073194
0.797765 0.172248 0.116258
0.797765 0.172248 0.116258
0.797765 0.172248 0.116258
0.001649 0.097277 0.001654
0.001391 0.089972 0.001396
0.001266 0.086365 0.001270
0.080989 0.084099 0.004799
0.309966 0.080399 0.009623
0.611691 0.103349 0.069636
0.797765 0.172248 0.116258
0.797765 0.172248 0.116258
0.797765 0.172248 0.116258
0.001387 0.264144 0.001274
0.001277 0.256721 0.001284
0.001215 0.252445 0.001288
0.001104 0.244589 0.001293
0.260109 0.268190 0.002906
0.592654 0.287956 0.069156
0.812525 0.284638 0.123503
0.807983 0.253648 0.119880
0.805908 0.241395 0.119886
0.219511 0.516303 0.003564
0.216682 0.512706 0.003524
0.213949 0.509013 0.003485
0.209910 0.505185 0.003438
0.237756 0.498892 0.003538
0.574014 0.530795 0.067489
0.843899 0.535633 0.132163
0.863211 0.518157 0.139002
0.861751 0.510794 0.138988
0.380757 0.713421 0.008095
0.378892 0.710379 0.007956
0.378065 0.708965 0.007891
0.375097 0.704814 0.007692
0.370850 0.697147 0.007353
0.531078 0.706517 0.028239
0.802678 0.721183 0.136938
0.898556 0.715860 0.163121
0.897609 0.712408 0.160317
0.418474 0.765379 0.010675
0.418474 0.765379 0.010675
0.418474 0.765379 0.010675
0.418474 0.765379 0.010675
0.418470 0.765379 0.010675
0.483456 0.769434 0.012357
0.754259 0.792724 0.108230
0.895953 0.804134 0.158577
0.899384 0.804140 0.159858
0.418474 0.765379 0.010675
0.418474 0.765379 0.010675
0.418474 0.765379 0.010675
0.418474 0.765379 0.010675
0.418474 0.765379 0.010675
0.458364 0.768441 0.011722
0.733491 0.792664 0.104976
0.881717 0.803111 0.161866
0.899233 0.804144 0.165092
0.000000 0.000140 0.000000
0.000000 0.000140 0.000000
0.069675 0.006419 0.003698
0.163703 0.015815 0.010424
0.367733 0.014453 0.017141
0.651873 0.107446 0.079721
0.797765 0.172248 0.116258
0.797765 0.172248 0.116258
0.797765 0.172248 0.116258
0.000000 0.000140 0.000000
0.000000 0.000140 0.000000
0.000000 0.000140 0.000000
0.134638 0.013709 0.007024
0.343378 0.012886 0.012622
0.633623 0.099645 0.075129
0.797765 0.172248 0.116258
0.797765 0.172248 0.116258
0.797765 0.172248 0.116258
0.000000 0.000140 0.000000
0.000000 0.000140 0.000000
0.000000 0.000140 0.000000
0.117360 0.011709 0.005225
0.330810 0.012078 0.012882
0.625569 0.096324 0.073102
0.797765 0.172248 0.116258
0.797765 0.172248 0.116258
0.797765 0.172248 0.116258
0.001640 0.097019 0.001645
0.001385 0.089775 0.001389
0.001240 0.085635 0.001244
0.076227 0.083544 0.004649
0.306688 0.080002 0.009722
0.607621 0.099346 0.068714
0.797765 0.172248 0.116258
0.797765 0.172248 0.116258
0.797765 0.172248 0.116258
0.001359 0.262288 0.001277
0.001276 0.256677 0.001284
0.001201 0.251423 0.001289
0.001105 0.244632 0.001293
0.256282 0.266779 0.002920
0.589064 0.287480 0.067891
0.812532 0.284673 0.123503
0.807982 0.253711 0.119881
0.805908 0.241395 0.119886
0.219598 0.516419 0.003565
0.216694 0.512719 0.003525
0.213326 0.508963 0.003481
0.209954 0.505244 0.003439
0.235267 0.498749 0.003524
0.573508 0.530732 0.067269
0.841694 0.534407 0.131700
0.863123 0.517716 0.139000
0.861751 0.510794 0.138988
0.379901 0.712023 0.008031
0.378914 0.710404 0.007957
0.378065 0.708965 0.007891
0.375097 0.704814 0.007692
0.370880 0.697195 0.007355
0.528732 0.706315 0.026600
0.800690 0.721035 0.136718
0.898556 0.715860 0.163121
0.897643 0.712451 0.160314
0.418474 0.765379 0.010675
0.418474 0.765379 0.010675
0.418474 0.765379 0.010675
0.418474 0.765379 0.010675
0.418470 0.765379 0.010675
0.481708 0.769425 0.012314
0.754055 0.792724 0.108169
0.895722 0.804134 0.158495
0.899384 0.804140 0.159858
0.418474 0.765379 0.010675
0.418474 0.765379 0.010675
0.418474 0.765379 0.010675
0.418474 0.765379 0.010675
0.418474 0.765379 0.010675
0.456992 0.767978 0.011673
0.730580 0.792646 0.104020
0.879268 0.802899 0.161586
0.899233 0.804144 0.165092
0.000000 0.000140 0.000000
0.000000 0.000140 0.000000
0.065870 0.006022 0.003585
0.161016 0.015896 0.010117
0.366357 0.014363 0.016784
0.648170 0.106822 0.078796
0.797765 0.172248 0.116258
0.797765 0.172248 0.116258
0.797765 0.172259 0.116258
0.000000 0.000140 0.000000
0.000000 0.000140 0.000000
0.000000 0.000140 0.000000
0.132816 0.013496 0.006813
0.343023 0.012864 0.012600
0.633318 0.099460 0.075052
0.797765 0.172248 0.116258
0.797765 0.172248 0.116258
0.797765 0.172248 0.116258
0.000000 0.000140 0.000000
0.000000 0.000140 0.000000
0.000000 0.000140 0.000000
0.115621 0.011506 0.005166
0.329637 0.012003 0.012942
0.624160 0.095802 0.072748
0.797765 0.172248 0.116258
0.797765 0.172248 0.116258
0.797765 0.172248 0.116258
0.001642 0.097083 0.001647
0.001381 0.089676 0.001385
0.001215 0.084897 0.001219
0.073134 0.083291 0.004555
0.303589 0.079622 0.009816
0.607389 0.099154 0.068646
0.797765 0.172248 0.116258
0.797765 0.172248 0.116258
0.797765 0.172248 0.116258
0.001360 0.262375 0.001277
0.001253 0.255083 0.001286
0.001201 0.251444 0.001289
0.001105 0.244661 0.001293
0.255024 0.265781 0.002933
0.589016 0.287464 0.067864
0.812489 0.284439 0.123503
0.807982 0.253774 0.119881
0.805908 0.241437 0.119886
0.219598 0.516419 0.003565
0.216773 0.512818 0.003526
0.213420 0.509080 0.003483
0.209997 0.505302 0.003439
0.233673 0.498569 0.003514
0.570677 0.530279 0.066254
0.841391 0.534411 0.131626
0.863132 0.517769 0.139000
0.861758 0.510834 0.138989
0.379923 0.712058 0.008032
0.378914 0.710404 0.007957
0.378095 0.709016 0.007894
0.375127 0.704840 0.007694
0.370872 0.697185 0.007355
0.528198 0.706306 0.025691
0.799852 0.720947 0.136600
0.898574 0.715880 0.163121
0.897644 0.712485 0.160303
0.418474 0.765379 0.010675
0.418474 0.765379 0.010675
0.418474 0.765379 0.010675
0.418474 0.765379 0.010675
0.418470 0.765379 0.010675
0.480195 0.769417 0.012277
0.751437 0.792716 0.107295
0.893515 0.804130 0.157758
0.899384 0.804140 0.159858
0.418474 0.765379 0.010675
0.418474 0.765379 0.010675
0.418474 0.765379 0.010675
0.418474 0.765379 0.010675
0.418474 0.765379 0.010675
0.455788 0.767588 0.011631
0.730647 0.792647 0.104040
0.879290 0.802899 0.161593
0.899233 0.804144 0.165092
0.000326 0.001408 0.121713
0.000344 0.001379 0.118955
0.045703 0.005250 0.120518
0.146627 0.015214 0.128028
0.361709 0.023153 0.144905
0.651760 0.128977 0.172556
0.801374 0.189826 0.192380
0.801415 0.190877 0.198179
0.801348 0.196459 0.219024
0.000387 0.001305 0.111990
0.000388 0.001303 0.111785
0.000402 0.001278 0.109469
0.114065 0.012291 0.117656
0.339485 0.015481 0.134854
0.635918 0.118882 0.161964
0.800815 0.187365 0.181917
0.801405 0.190502 0.196570
0.801381 0.193786 0.209075
0.000419 0.001217 0.104433
0.000415 0.001246 0.106651
0.000416 0.001240 0.106178
0.095816 0.010053 0.108657
0.324089 0.011529 0.127674
0.624791 0.113523 0.153826
0.800058 0.185270 0.174899
0.801380 0.189492 0.190312
0.801405 0.191824 0.201641
0.002150 0.103453 0.071343
0.001884 0.095537 0.070961
0.001726 0.090824 0.070403
0.051472 0.087549 0.079097
0.299816 0.090238 0.110009
0.607343 0.113954 0.141778
0.798759 0.181467 0.160003
0.800571 0.186681 0.179805
0.801415 0.190845 0.198179
0.001725 0.269531 0.026260
0.001620 0.262893 0.026085
0.001563 0.259735 0.024809
0.001452 0.253164 0.023128
0.250841 0.272982 0.066820
0.587597 0.289590 0.118343
0.813188 0.286209 0.132298
0.808695 0.259271 0.153850
0.808064 0.253909 0.181716
0.219779 0.518053 0.003578
0.216958 0.514523 0.003539
0.212908 0.510818 0.003492
0.210191 0.507746 0.003457
0.230185 0.498259 0.003494
0.570013 0.532298 0.086477
0.837831 0.533176 0.132631
0.863304 0.518231 0.140954
0.862967 0.513319 0.165684
0.379953 0.712112 0.008035
0.378855 0.710307 0.007952
0.377619 0.708248 0.007858
0.375094 0.704837 0.007693
0.370894 0.697231 0.007357
0.525992 0.705848 0.024359
0.799270 0.720893 0.136499
0.898574 0.715880 0.163121
0.898038 0.712954 0.162030
0.418474 0.765379 0.010675
0.418474 0.765379 0.010675
0.418474 0.765379 0.010675
0.418474 0.765379 0.010675
0.418470 0.765379 0.010675
0.478444 0.769408 0.012235
0.751348 0.792715 0.107269
0.893317 0.804130 0.157686
0.899384 0.804140 0.159858
0.418474 0.765379 0.010675
0.418474 0.765379 0.010675
0.418474 0.765379 0.010675
0.418474 0.765379 0.010675
0.418474 0.765379 0.010675
0.454693 0.767431 0.011600
0.727891 0.792618 0.103130
0.876466 0.802780 0.160858
0.899233 0.804144 0.165092
0.000000 0.025456 0.298180
0.000000 0.024803 0.296690
0.000000 0.033254 0.296782
0.124705 0.041858 0.307025
0.351839 0.083173 0.330731
0.647431 0.180512 0.366044
0.804373 0.242802 0.392175
0.804217 0.245048 0.399874
0.804167 0.253910 0.431897
0.000000 0.023276 0.293132
0.000000 0.022774 0.291400
0.000000 0.022781 0.291415
0.077620 0.038692 0.299882
0.327859 0.075930 0.323448
0.629561 0.171704 0.360561
0.804333 0.241001 0.385421
0.804319 0.243941 0.396243
0.804189 0.252272 0.426358
0.000000 0.026174 0.288486
0.000000 0.021962 0.288991
0.000000 0.021703 0.288117
0.036771 0.037437 0.294495
0.311959 0.070173 0.319318
0.619521 0.167652 0.356232
0.804274 0.240403 0.382965
0.804425 0.242993 0.392979
0.804181 0.251389 0.423485
0.001273 0.124745 0.261312
0.001224 0.117576 0.260173
0.001203 0.112651 0.261138
0.001219 0.108623 0.266460
0.290408 0.122478 0.304676
0.604960 0.166755 0.346481
0.804184 0.239317 0.378652
0.804367 0.241291 0.386549
0.804181 0.250318 0.419932
0.002368 0.301893 0.248233
0.002292 0.294423 0.246072
0.002255 0.290763 0.245029
0.002191 0.283692 0.244876
0.247232 0.299875 0.277068
0.588344 0.325684 0.332826
0.819896 0.333202 0.368788
0.814779 0.306586 0.377415
0.812739 0.305152 0.418141
0.223907 0.548786 0.240427
0.220603 0.545007 0.240563
0.217984 0.542221 0.240602
0.214787 0.538777 0.239050
0.228638 0.529079 0.238651
0.570478 0.561648 0.301108
0.843693 0.568396 0.331825
0.872474 0.557429 0.355426
0.871759 0.557492 0.401546
0.383777 0.729451 0.195540
0.381854 0.726518 0.195147
0.380788 0.724757 0.193768
0.378716 0.721946 0.193332
0.372717 0.714935 0.190398
0.522213 0.722977 0.217838
0.798549 0.736794 0.268362
0.902610 0.734895 0.296945
0.901236 0.738747 0.349143
0.418838 0.776223 0.156943
0.418830 0.775822 0.153717
0.418830 0.775847 0.153875
0.418830 0.775858 0.153932
0.418822 0.775407 0.150545
0.475958 0.780574 0.158063
0.747749 0.803874 0.211946
0.894572 0.815293 0.257864
0.903319 0.821546 0.308429
0.418810 0.774090 0.145289
0.418801 0.773829 0.143610
0.418802 0.773843 0.143734
0.418801 0.773719 0.142240
0.418793 0.773304 0.138727
0.449676 0.776719 0.139553
0.727713 0.800112 0.198033
0.877570 0.812759 0.249686
0.903160 0.819919 0.300514
0.001373 0.091977 0.545934
0.001374 0.092006 0.546008
0.001483 0.094118 0.542170
0.001959 0.108659 0.544882
0.319603 0.154536 0.571377
0.629819 0.253349 0.612211
0.794444 0.314696 0.638886
0.794843 0.314161 0.637057
0.788589 0.329867 0.693186
0.001349 0.090340 0.541752
0.001348 0.090283 0.541606
0.001347 0.090197 0.541386
0.001805 0.103265 0.541270
0.291245 0.147397 0.564121
0.612171 0.246656 0.607048
0.794919 0.313721 0.635539
0.795170 0.313304 0.633909
0.788860 0.328750 0.688776
0.001333 0.089044 0.537872
0.001335 0.089087 0.538004
0.001334 0.089130 0.538136
0.001686 0.099678 0.541049
0.272998 0.144096 0.561582
0.602586 0.240815 0.601921
0.794905 0.313751 0.635653
0.795196 0.313227 0.633588
0.789184 0.327655 0.684446
0.003348 0.169901 0.516537
0.003238 0.162242 0.517898
0.003167 0.157657 0.518782
0.003072 0.151858 0.521351
0.249524 0.174050 0.550134
0.585817 0.239354 0.596748
0.795287 0.312807 0.632179
0.795485 0.312339 0.630009
0.789538 0.326447 0.679527
0.004578 0.346951 0.511126
0.004508 0.339118 0.508402
0.004484 0.335389 0.507931
0.004421 0.327905 0.505655
0.211729 0.338764 0.529882
0.571580 0.373871 0.585696
0.812229 0.391858 0.624885
0.806601 0.365467 0.623166
0.800343 0.368372 0.670077
0.224064 0.598818 0.515259
0.221041 0.595511 0.515260
0.219369 0.593384 0.512560
0.213374 0.588445 0.512545
0.217238 0.579387 0.514850
0.560605 0.610740 0.565131
0.833865 0.621585 0.604056
0.868223 0.603892 0.608070
0.864165 0.605976 0.652136
0.379289 0.772840 0.472396
0.378556 0.771259 0.471144
0.377403 0.769716 0.471529
0.375565 0.766550 0.470395
0.370812 0.760372 0.471929
0.509865 0.765474 0.491010
0.788917 0.779896 0.528751
0.897041 0.778100 0.551005
0.893336 0.781802 0.605237
0.415869 0.816135 0.443158
0.415869 0.816080 0.442975
0.415869 0.816116 0.443098
0.415850 0.815420 0.440739
0.415854 0.815354 0.440520
0.464565 0.818799 0.444449
0.737986 0.840957 0.478847
0.885226 0.849821 0.504839
0.896087 0.859957 0.565414
0.415838 0.814540 0.437145
0.415837 0.814561 0.437246
0.415838 0.814587 0.437399
0.415837 0.814517 0.437207
0.415827 0.813984 0.434444
0.439626 0.815659 0.433563
0.719156 0.839522 0.471423
0.871645 0.847918 0.486465
0.896089 0.859293 0.559917
0.041842 0.176827 0.771900
0.041349 0.175984 0.770215
0.041347 0.175984 0.770215
0.041725 0.184894 0.770165
0.236488 0.224011 0.783463
0.591364 0.314528 0.821001
0.772440 0.376574 0.848098
0.772610 0.376106 0.846514
0.765315 0.384458 0.878780
0.041288 0.175883 0.770012
0.040820 0.175113 0.768472
0.040820 0.175113 0.768472
0.041047 0.180007 0.768488
0.197940 0.216840 0.779333
0.574152 0.308815 0.814963
0.772609 0.376113 0.846536
0.772668 0.375235 0.843788
0.765476 0.384260 0.878102
0.040820 0.175113 0.768472
0.040252 0.174286 0.766729
0.040292 0.174315 0.766816
0.040478 0.178076 0.766843
0.173030 0.213512 0.775550
0.561739 0.304375 0.814525
0.772637 0.375702 0.845239
0.772669 0.375216 0.843725
0.765455 0.384281 0.878188
0.029104 0.229390 0.755301
0.029732 0.223320 0.753966
0.029810 0.219062 0.754145
0.032339 0.211502 0.756864
0.134744 0.225648 0.767188
0.545249 0.300429 0.807501
0.772695 0.374831 0.842514
0.772729 0.374317 0.840885
0.765886 0.383822 0.876398
0.007505 0.388176 0.739180
0.007460 0.382188 0.739431
0.007402 0.376425 0.738667
0.007343 0.370573 0.737992
0.101745 0.370194 0.745608
0.529596 0.411062 0.794474
0.787418 0.439519 0.836033
0.783633 0.416944 0.834607
0.775171 0.417075 0.869326
0.193034 0.638593 0.743534
0.189655 0.634839 0.742083
0.185068 0.631100 0.741967
0.181398 0.627314 0.741822
0.174842 0.615973 0.740476
0.520455 0.638455 0.776591
0.799754 0.648895 0.802351
0.843454 0.638350 0.816133
0.834053 0.635449 0.851627
0.360634 0.810347 0.699360
0.358636 0.808154 0.699041
0.357831 0.806999 0.698528
0.355772 0.804660 0.699147
0.351309 0.798491 0.699870
0.478688 0.800389 0.715343
0.759807 0.811250 0.741567
0.875532 0.808956 0.762063
0.870087 0.811393 0.798861
0.396422 0.851278 0.670697
0.396416 0.851174 0.668942
0.396417 0.851178 0.669021
0.396543 0.850989 0.667677
0.396527 0.850957 0.667470
0.433536 0.854120 0.668432
0.712466 0.871135 0.694698
0.862299 0.878648 0.706321
0.875938 0.886066 0.755505
0.396774 0.850655 0.665245
0.396629 0.850345 0.663573
0.396637 0.850356 0.663690
0.396622 0.850373 0.663804
0.396601 0.850396 0.663917
0.412948 0.850952 0.664109
0.690647 0.870371 0.688035
0.845118 0.877503 0.700959
0.876646 0.886063 0.752169
0.070679 0.220782 0.882070
0.070679 0.220782 0.882070
0.070679 0.220782 0.882070
0.070834 0.225940 0.881938
0.146636 0.257513 0.889659
0.555321 0.339469 0.919545
0.751740 0.404952 0.941846
0.751840 0.404849 0.941849
0.751740 0.404952 0.941846
0.070679 0.220782 0.882070
0.070679 0.220782 0.882070
0.070679 0.220782 0.882070
0.070781 0.223898 0.882026
0.089999 0.251037 0.885760
0.538249 0.332937 0.917954
0.751851 0.404838 0.941849
0.751851 0.404838 0.941849
0.751740 0.404952 0.941846
0.070679 0.220782 0.882070
0.070679 0.220782 0.882070
0.070679 0.220782 0.882070
0.070680 0.220802 0.882070
0.074190 0.248447 0.885301
0.527274 0.329721 0.916335
0.751851 0.404838 0.941849
0.751843 0.404845 0.941849
0.751740 0.404952 0.941846
0.071542 0.262798 0.873934
0.071425 0.256666 0.874040
0.071357 0.253183 0.874197
0.071243 0.245889 0.876057
0.072377 0.255335 0.882482
0.506684 0.324693 0.915579
0.751843 0.404845 0.941849
0.751939 0.404753 0.941851
0.751740 0.404952 0.941846
0.070143 0.411344 0.859384
0.069779 0.404422 0.859321
0.069807 0.400861 0.859432
0.069838 0.393768 0.859592
0.072039 0.388423 0.864336
0.490405 0.426072 0.905187
0.762193 0.466172 0.940115
0.762058 0.444311 0.940732
0.758850 0.438655 0.940898
0.144033 0.652948 0.861024
0.135266 0.645988 0.861180
0.133349 0.645943 0.860842
0.123783 0.639167 0.861033
0.113370 0.630266 0.860919
0.480242 0.646403 0.888558
0.768306 0.662128 0.916000
0.818897 0.650864 0.930910
0.814731 0.646434 0.934371
0.338488 0.827605 0.823291
0.336828 0.825031 0.822954
0.335564 0.823695 0.823576
0.334044 0.822481 0.823900
0.326293 0.815454 0.826780
0.445449 0.815342 0.834206
0.731971 0.825289 0.856595
0.856772 0.822258 0.877273
0.854585 0.820444 0.893780
0.376626 0.869411 0.795064
0.376615 0.869418 0.795107
0.376619 0.869420 0.795093
0.376619 0.869425 0.795093
0.377365 0.868848 0.792024
0.404127 0.869695 0.795215
0.687999 0.886448 0.813542
0.837803 0.893496 0.821877
0.860493 0.897282 0.850037
0.377508 0.868701 0.791443
0.377494 0.868716 0.791500
0.377487 0.868723 0.791529
0.377473 0.868737 0.791586
0.378325 0.867854 0.788085
0.386115 0.868237 0.790129
0.666188 0.885630 0.808926
0.823257 0.891099 0.817134
0.861214 0.897278 0.846498
0.070679 0.220782 0.882070
0.070679 0.220782 0.882070
0.070679 0.220782 0.882070
0.070793 0.224636 0.881957
0.135043 0.256367 0.889527
0.551207 0.338386 0.919571
0.751740 0.404952 0.941846
0.824181 0.889747 0.808074
0.863200 0.894150 0.831804
0.070679 0.220782 0.882070
0.070679 0.220782 0.882070
0.070679 0.220782 0.882070
0.070749 0.222911 0.882040
0.083139 0.250270 0.885378
0.534552 0.331733 0.917191
0.751740 0.404952 0.941846
0.824225 0.889747 0.808074
0.863200 0.894150 0.831804
0.070679 0.220782 0.882070
0.070679 0.220782 0.882070
0.070679 0.220782 0.882070
0.070679 0.220782 0.882070
0.074170 0.247597 0.885315
0.523351 0.328640 0.916083
0.751740 0.404952 0.941846
0.824291 0.889747 0.808074
0.863200 0.894150 0.831804
0.071514 0.261259 0.873961
0.071416 0.256280 0.874046
0.071341 0.252360 0.874317
0.071221 0.244138 0.876716
0.072716 0.252619 0.883074
0.502042 0.323450 0.915258
0.751740 0.404952 0.941846
0.824357 0.889748 0.808074
0.863200 0.894150 0.831804
0.070221 0.411405 0.859602
0.069953 0.404602 0.859756
0.069970 0.401029 0.859837
0.070000 0.393836 0.860000
0.071941 0.388100 0.864433
0.486173 0.425299 0.905097
0.761064 0.465853 0.940126
0.824445 0.889748 0.808074
0.863200 0.894150 0.831804
0.136743 0.649984 0.865486
0.132236 0.646643 0.865553
0.129781 0.644900 0.865588
0.122888 0.639946 0.865686
0.107577 0.628933 0.865899
0.471894 0.646004 0.895807
0.763732 0.662172 0.922954
0.824555 0.889748 0.808073
0.863200 0.894150 0.831804
0.333042 0.829489 0.840626
0.330448 0.826712 0.841630
0.329103 0.825334 0.842023
0.326797 0.823046 0.842552
0.320859 0.818187 0.843018
0.435313 0.817604 0.855859
0.724199 0.826023 0.879052
0.824644 0.889748 0.808073
0.863200 0.894150 0.831804
0.370113 0.873264 0.825297
0.370113 0.873264 0.825297
0.370113 0.873264 0.825297
0.370113 0.873264 0.825297
0.370113 0.873264 0.825297
0.394513 0.873628 0.826334
0.678216 0.889714 0.846511
0.824754 0.889748 0.808073
0.863200 0.894150 0.831804
0.370113 0.873264 0.825297
0.370113 0.873264 0.825297
0.370113 0.873264 0.825297
0.370113 0.873264 0.825297
0.370113 0.873264 0.825297
0.376436 0.873315 0.825228
0.656822 0.889390 0.846352
0.824842 0.889749 0.808073
0.863200 0.894150 0.831804
