example/ios/lut1.cube
LUT_3D_SIZE 5
# LUT data points begin
0.000000 0.000140 0.000000
0.075410 0.007024 0.003871
0.370659 0.014642 0.017915
0.797765 0.172248 0.116258
0.797765 0.172248 0.116258
0.000000 0.000140 0.000000
0.000000 0.000140 0.000000
0.333525 0.012252 0.012743
0.797765 0.172248 0.116258
0.797765 0.172248 0.116258
0.001387 0.264144 0.001274
0.001215 0.252445 0.001288
0.260109 0.268190 0.002906
0.812525 0.284638 0.123503
0.805908 0.241395 0.119886
0.380757 0.713421 0.008095
0.378065 0.708965 0.007891
0.370850 0.697147 0.007353
0.802678 0.721183 0.136938
0.897609 0.712408 0.160317
0.418474 0.765379 0.010675
0.418474 0.765379 0.010675
0.418474 0.765379 0.010675
0.733491 0.792664 0.104976
0.899233 0.804144 0.165092
0.000000 0.000140 0.000000
0.065870 0.006022 0.003585
0.366357 0.014363 0.016784
0.797765 0.172248 0.116258
0.797765 0.172259 0.116258
0.000000 0.000140 0.000000
0.000000 0.000140 0.000000
0.329637 0.012003 0.012942
0.797765 0.172248 0.116258
0.797765 0.172248 0.116258
0.001360 0.262375 0.001277
0.001201 0.251444 0.001289
0.255024 0.265781 0.002933
0.812489 0.284439 0.123503
0.805908 0.241437 0.119886
0.379923 0.712058 0.008032
0.378095 0.709016 0.007894
0.370872 0.697185 0.007355
0.799852 0.720947 0.136600
0.897644 0.712485 0.160303
0.418474 0.765379 0.010675
0.418474 0.765379 0.010675
0.418474 0.765379 0.010675
0.730647 0.792647 0.104040
0.899233 0.804144 0.165092
0.000000 0.025456 0.298180
0.000000 0.033254 0.296782
0.351839 0.083173 0.330731
0.804373 0.242802 0.392175
0.804167 0.253910 0.431897
0.000000 0.026174 0.288486
0.000000 0.021703 0.288117
0.311959 0.070173 0.319318
0.804274 0.240403 0.382965
0.804181 0.251389 0.423485
0.002368 0.301893 0.248233
0.002255 0.290763 0.245029
0.247232 0.299875 0.277068
0.819896 0.333202 0.368788
0.812739 0.305152 0.418141
0.383777 0.729451 0.195540
0.380788 0.724757 0.193768
0.372717 0.714935 0.190398
0.798549 0.736794 0.268362
0.901236 0.738747 0.349143
0.418810 0.774090 0.145289
0.418802 0.773843 0.143734
0.418793 0.773304 0.138727
0.727713 0.800112 0.198033
0.903160 0.819919 0.300514
0.041842 0.176827 0.771900
0.041347 0.175984 0.770215
0.236488 0.224011 0.783463
0.772440 0.376574 0.848098
0.765315 0.384458 0.878780
0.040820 0.175113 0.768472
0.040292 0.174315 0.766816
0.173030 0.213512 0.775550
0.772637 0.375702 0.845239
0.765455 0.384281 0.878188
0.007505 0.388176 0.739180
0.007402 0.376425 0.738667
0.101745 0.370194 0.745608
0.787418 0.439519 0.836033
0.775171 0.417075 0.869326
0.360634 0.810347 0.699360
0.357831 0.806999 0.698528
0.351309 0.798491 0.699870
0.759807 0.811250 0.741567
0.870087 0.811393 0.798861
0.396774 0.850655 0.665245
0.396637 0.850356 0.663690
0.396601 0.850396 0.663917
0.690647 0.870371 0.688035
0.876646 0.886063 0.752169
0.070679 0.220782 0.882070
0.070679 0.220782 0.882070
0.135043 0.256367 0.889527
0.751740 0.404952 0.941846
0.863200 0.894150 0.831804
0.070679 0.220782 0.882070
0.070679 0.220782 0.882070
0.074170 0.247597 0.885315
0.751740 0.404952 0.941846
0.863200 0.894150 0.831804
0.070221 0.411405 0.859602
0.069970 0.401029 0.859837
0.071941 0.388100 0.864433
0.761064 0.465853 0.940126
0.863200 0.894150 0.831804
0.333042 0.829489 0.840626
0.329103 0.825334 0.842023
0.320859 0.818187 0.843018
0.724199 0.826023 0.879052
0.863200 0.894150 0.831804
0.370113 0.873264 0.825297
0.370113 0.873264 0.825297
0.370113 0.873264 0.825297
0.656822 0.889390 0.846352
0.863200 0.894150 0.831804
