example/ios/lut2.cube
LUT_3D_SIZE 16
0.002615 0.004876 0.005812
0.025298 0.006629 0.003684
0.060017 0.008123 -0.005859
0.100097 0.010194 -0.009996
0.159752 0.013295 -0.015919
0.249336 -0.011849 -0.024732
0.387113 -0.033171 -0.038283
0.501868 -0.045997 -0.049596
0.605138 -0.056984 -0.059781
0.689351 -0.065659 -0.068092
0.765554 -0.073203 -0.075618
0.803944 -0.077049 -0.079401
0.808253 -0.077834 -0.079832
0.810772 -0.078252 -0.080075
0.811511 -0.078388 -0.080143
0.812093 -0.078482 -0.080202
0.002150 0.028988 0.015443
0.022785 0.024358 0.010678
0.052347 0.023913 -0.005075
0.087695 0.024472 -0.009269
0.138366 0.028211 -0.014165
0.229276 0.024155 -0.022913
0.381336 -0.031932 -0.037721
0.498662 -0.045489 -0.049283
0.602567 -0.056598 -0.059531
0.687363 -0.065355 -0.067899
0.764374 -0.073007 -0.075501
0.802847 -0.076879 -0.079304
0.807505 -0.077696 -0.079751
0.809972 -0.078122 -0.079994
0.810857 -0.078268 -0.080084
0.811285 -0.078350 -0.080125
0.010406 0.055608 0.025995
0.021062 0.052805 0.024136
0.048576 0.045875 0.016693
0.081337 0.045213 -0.008977
0.124269 0.048248 -0.014025
0.203152 0.055077 -0.021390
0.319800 0.036380 -0.031999
0.484258 -0.042135 -0.047881
0.599238 -0.056093 -0.059205
0.684978 -0.064969 -0.067663
0.762598 -0.072715 -0.075329
0.801729 -0.076677 -0.079193
0.806541 -0.077524 -0.079658
0.808908 -0.077951 -0.079895
0.809816 -0.078093 -0.079978
0.810203 -0.078171 -0.080020
0.018910 0.085885 0.042842
0.019259 0.085550 0.042601
0.044967 0.080150 0.037061
0.079898 0.072915 0.025676
0.129061 0.071946 -0.016521
0.196749 0.082372 -0.022691
0.307754 0.090158 -0.032768
0.418951 0.068020 -0.042352
0.545168 -0.038398 -0.053997
0.680747 -0.064291 -0.067250
0.759314 -0.072187 -0.075011
0.799814 -0.076315 -0.079001
0.804808 -0.077209 -0.079487
0.807234 -0.077644 -0.079725
0.807808 -0.077746 -0.079778
0.808172 -0.077805 -0.079815
0.037448 0.129102 0.070449
0.037332 0.128918 0.070333
0.037587 0.128615 0.070058
0.071818 0.123871 0.061881
0.126214 0.114985 0.045036
0.205534 0.115764 -0.026597
0.319399 0.135308 -0.036968
0.432994 0.143847 -0.047139
0.524122 0.133933 -0.054791
0.609864 0.101148 -0.061710
0.694826 0.032945 -0.069051
0.786362 -0.073004 -0.077696
0.800601 -0.076452 -0.079074
0.796311 -0.075143 -0.078668
0.778686 -0.069519 -0.076980
0.769935 -0.065939 -0.076141
0.073509 0.193555 0.110265
0.073459 0.193430 0.110195
0.073371 0.193254 0.110112
0.073494 0.192967 0.109835
0.100940 0.193388 0.097796
0.198566 0.183275 0.079689
0.343854 0.194376 -0.044565
0.474577 0.214681 -0.056125
0.578648 0.226492 -0.065450
0.652221 0.228687 -0.071807
0.723981 0.228325 -0.078038
0.752743 0.220090 -0.080123
0.751258 0.211978 -0.079546
0.758611 0.224794 -0.080911
0.770284 0.246773 -0.083266
0.779629 0.265751 -0.085320
0.108531 0.281899 0.150174
0.108503 0.281864 0.150149
0.108475 0.281728 0.150101
0.108415 0.281559 0.150045
0.108936 0.281149 0.149555
0.152029 0.289867 0.135657
0.311767 0.282035 0.086239
0.493773 0.300656 -0.066318
0.624051 0.323705 -0.077794
0.713410 0.337006 -0.085692
0.784283 0.348102 -0.092150
0.822121 0.354953 -0.095731
0.823883 0.358426 -0.096166
0.829769 0.372386 -0.097867
0.836927 0.393879 -0.100386
0.842752 0.411709 -0.102531
0.126083 0.378809 0.175677
0.126073 0.378722 0.175697
0.126052 0.378675 0.175687
0.126047 0.378574 0.175647
0.126043 0.378223 0.175591
0.129020 0.379132 0.173749
0.246426 0.394998 0.151869
0.442812 0.395894 0.042391
0.606394 0.412931 -0.086134
0.729722 0.437062 -0.097266
0.806314 0.451859 -0.104082
0.854398 0.465086 -0.108809
0.856214 0.471183 -0.109593
0.858931 0.485590 -0.111342
0.862364 0.506495 -0.113895
0.865139 0.523611 -0.116028
0.126629 0.478978 0.190213
0.126628 0.478883 0.190199
0.126635 0.478809 0.190181
0.126624 0.478824 0.190163
0.126657 0.478461 0.190132
0.126686 0.478047 0.190072
0.146508 0.496643 0.171348
0.366841 0.501171 0.126871
0.551365 0.505174 -0.076324
0.704201 0.522154 -0.105070
0.806128 0.539840 -0.113991
0.862990 0.555230 -0.119444
0.869497 0.564591 -0.120747
0.870743 0.579402 -0.122279
0.872191 0.600639 -0.124207
0.873327 0.617677 -0.125605
0.109032 0.584155 0.199045
0.109041 0.584101 0.199040
0.109070 0.584107 0.199044
0.109095 0.584056 0.199036
0.109142 0.583872 0.199026
0.109248 0.583484 0.198965
0.109457 0.582670 0.198938
0.221821 0.626309 0.136996
0.490266 0.604512 0.027942
0.652298 0.611019 -0.109418
0.786647 0.623300 -0.122671
0.859311 0.635139 -0.127696
0.875823 0.648223 -0.128473
0.876222 0.665005 -0.130150
0.875019 0.690625 -0.132976
0.873928 0.710431 -0.135686
0.054684 0.682373 0.209907
0.054705 0.682367 0.209912
0.054756 0.682306 0.209896
0.054881 0.682193 0.209880
0.054993 0.682090 0.209863
0.055353 0.681806 0.209816
0.056047 0.681187 0.209765
0.072021 0.699657 0.190233
0.371076 0.729774 0.055840
0.596853 0.701605 -0.114302
0.751032 0.711845 -0.133323
0.840715 0.720515 -0.138515
0.873028 0.732700 -0.139644
0.872403 0.747797 -0.142374
0.870824 0.765229 -0.145577
0.870000 0.777332 -0.147602
-0.093680 0.763571 0.221541
-0.093664 0.763556 0.221537
-0.093653 0.763526 0.221528
-0.093621 0.763545 0.221518
-0.093599 0.763507 0.221539
-0.093535 0.763534 0.221500
-0.093305 0.763003 0.221428
-0.092960 0.762491 0.221398
0.200416 0.812944 0.115895
0.546702 0.786985 -0.092483
0.716124 0.776635 -0.138105
0.819166 0.779787 -0.146506
0.865505 0.786502 -0.148978
0.869088 0.793472 -0.150108
0.868845 0.796846 -0.150604
0.868829 0.797236 -0.150669
-0.102578 0.778234 0.223322
-0.102578 0.778234 0.223322
-0.102578 0.778234 0.223322
-0.102578 0.778234 0.223322
-0.102578 0.778234 0.223322
-0.102578 0.778234 0.223322
-0.102578 0.778234 0.223322
-0.102578 0.778234 0.223322
0.051220 0.819536 0.161854
0.523580 0.811138 -0.072933
0.707554 0.794482 -0.132375
0.811884 0.796304 -0.148786
0.856932 0.796910 -0.150349
0.868797 0.797232 -0.150668
0.868797 0.797232 -0.150668
0.868829 0.797236 -0.150669
-0.102578 0.778234 0.223322
-0.102578 0.778234 0.223322
-0.102578 0.778234 0.223322
-0.102578 0.778234 0.223322
-0.102578 0.778234 0.223322
-0.102578 0.778234 0.223322
-0.102578 0.778234 0.223322
-0.102578 0.778234 0.223322
0.070697 0.820891 0.156705
0.547507 0.807382 -0.081596
0.724602 0.795215 -0.136205
0.817891 0.796157 -0.148952
0.857706 0.796919 -0.150397
0.868797 0.797232 -0.150668
0.868797 0.797232 -0.150668
0.868829 0.797236 -0.150669
-0.102578 0.778234 0.223322
-0.102578 0.778234 0.223322
-0.102578 0.778234 0.223322
-0.102578 0.778234 0.223322
-0.102578 0.778234 0.223322
-0.102578 0.778234 0.223322
-0.102578 0.778234 0.223322
-0.102578 0.778234 0.223322
0.239195 0.831959 0.109974
0.591847 0.797158 -0.097758
0.760486 0.796139 -0.143852
0.831941 0.796267 -0.149446
0.864514 0.797214 -0.150575
0.868797 0.797232 -0.150668
0.868797 0.797232 -0.150668
0.868829 0.797236 -0.150669
-0.102585 0.778261 0.223321
-0.102585 0.778261 0.223321
-0.102585 0.778261 0.223321
-0.102585 0.778261 0.223321
-0.102585 0.778261 0.223321
-0.102585 0.778261 0.223321
-0.102585 0.778261 0.223321
-0.102585 0.778261 0.223321
0.323842 0.841121 0.078913
0.629097 0.792246 -0.109486
0.781952 0.796541 -0.146457
0.840765 0.796470 -0.149800
0.866393 0.797108 -0.150599
0.868797 0.797255 -0.150671
0.868797 0.797255 -0.150671
0.868829 0.797260 -0.150673
0.003871 0.008089 0.010134
0.040421 0.007943 0.015952
0.078810 0.006314 0.007370
0.126084 -0.007554 -0.011979
0.191204 -0.015210 -0.018920
0.279639 -0.023366 -0.027661
0.412230 -0.037887 -0.040732
0.524660 -0.049681 -0.051831
0.624111 -0.059898 -0.061643
0.702765 -0.067791 -0.069403
0.774765 -0.074739 -0.076514
0.810832 -0.078265 -0.080082
0.814752 -0.078919 -0.080463
0.816926 -0.079275 -0.080672
0.817967 -0.079444 -0.080780
0.818692 -0.079567 -0.080848
0.009379 0.024505 0.023998
0.015376 0.024789 0.026129
0.048422 0.026320 0.022269
0.093059 0.026409 0.013165
0.162730 0.021884 -0.016060
0.261718 -0.014225 -0.025951
0.408206 -0.037223 -0.040340
0.523268 -0.049498 -0.051693
0.623173 -0.059784 -0.061553
0.702114 -0.067714 -0.069343
0.774366 -0.074697 -0.076480
0.810582 -0.078230 -0.080054
0.814449 -0.078877 -0.080436
0.816594 -0.079227 -0.080642
0.817300 -0.079342 -0.080711
0.817781 -0.079413 -0.080761
-0.008525 0.052125 0.034494
0.008842 0.051994 0.034277
0.041144 0.048312 0.030861
0.079426 0.047615 0.019611
0.133156 0.047166 -0.013081
0.219928 0.045660 -0.022545
0.343284 0.015255 -0.034111
0.512641 -0.047636 -0.050652
0.620149 -0.059364 -0.061255
0.700110 -0.067425 -0.069147
0.773048 -0.074499 -0.076354
0.809696 -0.078080 -0.079971
0.813621 -0.078743 -0.080352
0.815652 -0.079076 -0.080551
0.816329 -0.079192 -0.080622
0.816815 -0.079265 -0.080663
-0.005544 0.083480 0.047174
-0.005424 0.083109 0.047484
0.037424 0.081027 0.044967
0.077057 0.074344 0.036903
0.129008 0.073396 -0.011423
0.202402 0.079494 -0.022917
0.315163 0.083783 -0.033100
0.425281 0.053040 -0.042633
0.575766 -0.049484 -0.056938
0.696674 -0.066922 -0.068810
0.770403 -0.074102 -0.076094
0.808090 -0.077793 -0.079808
0.812088 -0.078483 -0.080202
0.814176 -0.078827 -0.080408
0.814719 -0.078916 -0.080460
0.815063 -0.078971 -0.080497
0.036575 0.127655 0.069599
0.035790 0.127377 0.069842
0.036291 0.127071 0.069515
0.070387 0.122515 0.061736
0.125299 0.113903 0.045784
0.206039 0.114595 -0.026501
0.320926 0.133832 -0.036967
0.437642 0.140306 -0.047318
0.528736 0.126868 -0.054890
0.618160 0.090491 -0.062246
0.707628 -0.036635 -0.070185
0.800028 -0.076086 -0.079022
0.808693 -0.077897 -0.079872
0.803893 -0.076691 -0.079402
0.790937 -0.073097 -0.078159
0.785707 -0.071372 -0.077659
0.073041 0.192629 0.109754
0.072951 0.192417 0.109654
0.072873 0.192297 0.109572
0.072994 0.191981 0.109305
0.100522 0.192291 0.097345
0.198035 0.182165 0.078767
0.343224 0.193550 -0.044440
0.474202 0.213842 -0.056020
0.579104 0.225378 -0.065403
0.654586 0.226786 -0.071877
0.725645 0.225515 -0.078014
0.754356 0.216267 -0.080056
0.753644 0.208058 -0.079547
0.759950 0.221154 -0.080832
0.771203 0.243464 -0.083145
0.780197 0.262543 -0.085151
0.108356 0.281284 0.149962
0.108309 0.281131 0.149900
0.108281 0.281042 0.149876
0.108220 0.280814 0.149794
0.108698 0.280492 0.149348
0.151694 0.289115 0.135411
0.311403 0.281285 0.085698
0.493466 0.300093 -0.066233
0.623765 0.323356 -0.077738
0.713248 0.336654 -0.085644
0.784213 0.347784 -0.092116
0.822403 0.354431 -0.095699
0.824225 0.358040 -0.096154
0.830144 0.371909 -0.097840
0.836933 0.393189 -0.100330
0.842596 0.410883 -0.102439
0.126044 0.378385 0.175600
0.126043 0.378228 0.175592
0.126025 0.378144 0.175577
0.126014 0.378074 0.175577
0.126003 0.377761 0.175485
0.128976 0.378629 0.173672
0.246484 0.394445 0.151875
0.442639 0.395483 0.042143
0.606174 0.412537 -0.086084
0.729508 0.436836 -0.097231
0.806231 0.451657 -0.104051
0.854325 0.464994 -0.108792
0.856202 0.471081 -0.109583
0.858889 0.485366 -0.111317
0.862225 0.506173 -0.113859
0.865011 0.523199 -0.115970
0.126645 0.478589 0.190146
0.126653 0.478502 0.190131
0.126649 0.478503 0.190107
0.126649 0.478367 0.190112
0.126674 0.478214 0.190097
0.126709 0.477697 0.190038
0.146551 0.496336 0.171227
0.366927 0.500698 0.126847
0.551273 0.504812 -0.076297
0.704181 0.521898 -0.105037
0.805961 0.539690 -0.113974
0.862934 0.555153 -0.119423
0.869487 0.564489 -0.120736
0.870730 0.579271 -0.122278
0.872224 0.600417 -0.124177
0.873289 0.617443 -0.125590
0.109126 0.583943 0.199030
0.109146 0.583844 0.199025
0.109163 0.583812 0.199028
0.109182 0.583723 0.199019
0.109226 0.583524 0.198979
0.109336 0.583159 0.199016
0.109551 0.582400 0.198896
0.222371 0.625968 0.137044
0.490222 0.604152 0.028366
0.652215 0.610704 -0.109373
0.786567 0.623151 -0.122650
0.859397 0.635115 -0.127692
0.875848 0.648196 -0.128471
0.876226 0.664886 -0.130136
0.875023 0.690531 -0.132962
0.873937 0.710064 -0.135647
0.054924 0.682166 0.209875
0.055001 0.682079 0.209860
0.055034 0.682078 0.209848
0.055114 0.681975 0.209842
0.055274 0.681871 0.209823
0.055612 0.681541 0.209828
0.056358 0.680874 0.209707
0.072295 0.699685 0.190029
0.371538 0.729499 0.055656
0.596999 0.701509 -0.114325
0.750953 0.711570 -0.133290
0.840767 0.720295 -0.138489
0.873037 0.732595 -0.139634
0.872416 0.747662 -0.142353
0.870841 0.765050 -0.145556
0.870002 0.777229 -0.147579
-0.093611 0.763547 0.221546
-0.093598 0.763505 0.221539
-0.093602 0.763547 0.221536
-0.093602 0.763562 0.221496
-0.093561 0.763523 0.221513
-0.093470 0.763343 0.221474
-0.093266 0.762948 0.221405
-0.092933 0.762510 0.221375
0.201372 0.812915 0.115659
0.546933 0.786817 -0.092691
0.716072 0.776451 -0.138104
0.819080 0.779573 -0.146472
0.865485 0.786319 -0.148959
0.869096 0.793540 -0.150117
0.868846 0.796832 -0.150603
0.868829 0.797236 -0.150669
-0.102578 0.778234 0.223322
-0.102578 0.778234 0.223322
-0.102578 0.778234 0.223322
-0.102578 0.778234 0.223322
-0.102578 0.778234 0.223322
-0.102578 0.778234 0.223322
-0.102578 0.778234 0.223322
-0.102578 0.778234 0.223322
0.050841 0.819711 0.161672
0.523789 0.811200 -0.072969
0.707649 0.794499 -0.132393
0.811839 0.796296 -0.148782
0.856901 0.796944 -0.150353
0.868797 0.797232 -0.150668
0.868797 0.797232 -0.150668
0.868829 0.797236 -0.150669
-0.102578 0.778234 0.223322
-0.102578 0.778234 0.223322
-0.102578 0.778234 0.223322
-0.102578 0.778234 0.223322
-0.102578 0.778234 0.223322
-0.102578 0.778234 0.223322
-0.102578 0.778234 0.223322
-0.102578 0.778234 0.223322
0.072323 0.820914 0.156309
0.547657 0.807324 -0.081662
0.724605 0.795213 -0.136206
0.817886 0.796237 -0.148963
0.857628 0.796902 -0.150392
0.868797 0.797232 -0.150668
0.868797 0.797232 -0.150668
0.868829 0.797236 -0.150669
-0.102578 0.778234 0.223322
-0.102578 0.778234 0.223322
-0.102578 0.778234 0.223322
-0.102578 0.778234 0.223322
-0.102578 0.778234 0.223322
-0.102578 0.778234 0.223322
-0.102578 0.778234 0.223322
-0.102578 0.778234 0.223322
0.239120 0.831966 0.109902
0.591757 0.797155 -0.097715
0.760413 0.796141 -0.143836
0.831909 0.796290 -0.149448
0.864473 0.797198 -0.150570
0.868797 0.797232 -0.150668
0.868797 0.797232 -0.150668
0.868829 0.797236 -0.150669
-0.102585 0.778261 0.223321
-0.102585 0.778261 0.223321
-0.102585 0.778261 0.223321
-0.102585 0.778261 0.223321
-0.102585 0.778261 0.223321
-0.102585 0.778261 0.223321
-0.102585 0.778261 0.223321
-0.102585 0.778261 0.223321
0.323277 0.841113 0.079151
0.628969 0.792246 -0.109427
0.781975 0.796542 -0.146450
0.840705 0.796445 -0.149793
0.866352 0.797099 -0.150596
0.868797 0.797255 -0.150671
0.868797 0.797255 -0.150671
0.868829 0.797260 -0.150673
0.003681 0.012707 0.018226
0.039033 0.014359 0.034433
0.098563 0.007909 0.025432
0.149419 -0.012229 0.006975
0.223140 -0.021710 -0.021754
0.321063 -0.031240 -0.031705
0.447409 -0.043290 -0.044187
0.551054 -0.053451 -0.054420
0.643038 -0.062566 -0.063504
0.715924 -0.069710 -0.070691
0.783872 -0.076189 -0.077412
0.818684 -0.079559 -0.080847
0.822834 -0.080222 -0.081252
0.825561 -0.080630 -0.081518
0.827009 -0.080847 -0.081666
0.827983 -0.080990 -0.081754
0.011690 0.022304 0.026878
0.012413 0.024372 0.032758
0.067698 0.023673 0.035093
0.120853 0.020181 0.022790
0.198413 -0.010019 -0.016594
0.313320 -0.030111 -0.030945
0.443912 -0.042841 -0.043841
0.548968 -0.053192 -0.054218
0.641657 -0.062394 -0.063365
0.714986 -0.069602 -0.070611
0.783199 -0.076099 -0.077347
0.818089 -0.079464 -0.080789
0.822314 -0.080141 -0.081202
0.824993 -0.080549 -0.081462
0.826240 -0.080742 -0.081592
0.827350 -0.080892 -0.081697
0.016600 0.046935 0.045475
0.018874 0.047051 0.046391
0.031424 0.049067 0.050249
0.076826 0.051279 0.042849
0.141375 0.051104 0.030039
0.256651 0.035829 -0.025531
0.393512 -0.030650 -0.038944
0.541325 -0.052075 -0.053462
0.641335 -0.062373 -0.063334
0.714950 -0.069598 -0.070597
0.783167 -0.076102 -0.077337
0.818139 -0.079481 -0.080793
0.822100 -0.080117 -0.081181
0.824564 -0.080473 -0.081418
0.825209 -0.080579 -0.081486
0.825769 -0.080662 -0.081541
-0.013724 0.079102 0.059005
-0.013674 0.078793 0.059069
0.014901 0.080436 0.060320
0.069990 0.079589 0.056956
0.128659 0.078899 0.037450
0.224805 0.076185 -0.024197
0.328063 0.072451 -0.033795
0.443978 0.031915 -0.044192
0.608702 -0.056830 -0.060141
0.712086 -0.069231 -0.070326
0.781175 -0.075827 -0.077144
0.816664 -0.079244 -0.080651
0.820635 -0.079876 -0.081042
0.822712 -0.080210 -0.081245
0.823360 -0.080304 -0.081303
0.823855 -0.080374 -0.081359
0.012101 0.125871 0.079395
0.010248 0.125604 0.079544
0.009689 0.125150 0.079977
0.058437 0.124951 0.078207
0.122593 0.117893 0.066239
0.213903 0.115745 -0.026360
0.327690 0.131349 -0.037311
0.446433 0.135979 -0.047831
0.535364 0.120599 -0.055244
0.620047 0.081415 -0.062239
0.723511 -0.053847 -0.071626
0.813586 -0.078729 -0.080350
0.817247 -0.079331 -0.080707
0.812490 -0.078273 -0.080247
0.806850 -0.076844 -0.079694
0.806108 -0.076545 -0.079633
0.072204 0.191434 0.109310
0.071911 0.191339 0.109395
0.070871 0.191177 0.110037
0.071115 0.190886 0.109866
0.099175 0.191323 0.099049
0.197751 0.181882 0.081646
0.345582 0.193217 -0.044557
0.479062 0.213827 -0.056394
0.584301 0.224841 -0.065793
0.659062 0.225929 -0.072210
0.728149 0.224490 -0.078182
0.756718 0.214992 -0.080204
0.756786 0.206971 -0.079771
0.761659 0.217896 -0.080807
0.771625 0.238685 -0.082889
0.779652 0.256657 -0.084717
0.108104 0.280452 0.149653
0.108082 0.280330 0.149644
0.108013 0.280124 0.149552
0.107959 0.279927 0.149495
0.108403 0.279583 0.149054
0.151676 0.288222 0.135014
0.310994 0.280324 0.085067
0.493080 0.299780 -0.066180
0.623793 0.323534 -0.077760
0.714185 0.337199 -0.085773
0.785762 0.348383 -0.092290
0.823914 0.355170 -0.095881
0.826241 0.358311 -0.096348
0.831468 0.371234 -0.097888
0.837390 0.391708 -0.100221
0.842557 0.408707 -0.102222
0.125993 0.377792 0.175494
0.125991 0.377675 0.175482
0.125966 0.377563 0.175433
0.125971 0.377392 0.175430
0.125935 0.377148 0.175350
0.128974 0.377996 0.173544
0.247517 0.393617 0.151806
0.442291 0.394733 0.041821
0.605825 0.412407 -0.086048
0.729282 0.436937 -0.097228
0.806225 0.452048 -0.104099
0.854427 0.465484 -0.108846
0.856459 0.471492 -0.109633
0.858897 0.485265 -0.111309
0.862080 0.505441 -0.113763
0.864845 0.522005 -0.115827
0.126674 0.478217 0.190095
0.126684 0.478105 0.190080
0.126688 0.477903 0.190051
0.126683 0.477895 0.190094
0.126708 0.477696 0.190037
0.126746 0.477070 0.189953
0.146918 0.496352 0.170706
0.367766 0.500002 0.126626
0.551129 0.504390 -0.076266
0.703906 0.521862 -0.105013
0.805745 0.539838 -0.113975
0.862828 0.555472 -0.119460
0.869515 0.564784 -0.120769
0.870730 0.579223 -0.122274
0.872084 0.599890 -0.124131
0.873181 0.616568 -0.125503
0.109223 0.583534 0.198979
0.109232 0.583522 0.198971
0.109284 0.583421 0.198964
0.109309 0.583356 0.198967
0.109335 0.583151 0.199015
0.109421 0.582803 0.198955
0.109652 0.581997 0.198882
0.225158 0.625847 0.136670
0.490797 0.603744 0.027304
0.652122 0.610356 -0.109312
0.786392 0.623057 -0.122627
0.859267 0.635175 -0.127696
0.875858 0.648244 -0.128469
0.876227 0.664888 -0.130141
0.874859 0.690072 -0.132887
0.873970 0.709478 -0.135540
0.055236 0.681897 0.209838
0.055316 0.681817 0.209814
0.055417 0.681727 0.209803
0.055475 0.681729 0.209781
0.055622 0.681533 0.209827
0.055980 0.681241 0.209762
0.056697 0.680557 0.209651
0.073067 0.700108 0.189286
0.373610 0.728667 0.054511
0.597301 0.701191 -0.114349
0.750893 0.711452 -0.133253
0.840633 0.720198 -0.138477
0.873043 0.732558 -0.139629
0.872426 0.747693 -0.142333
0.870873 0.764832 -0.145522
0.870044 0.776919 -0.147535
-0.093570 0.763530 0.221515
-0.093560 0.763498 0.221510
-0.093527 0.763505 0.221495
-0.093526 0.763455 0.221489
-0.093472 0.763346 0.221475
-0.093364 0.763098 0.221449
-0.093181 0.762946 0.221484
-0.092832 0.762252 0.221316
0.205247 0.813193 0.114665
0.547649 0.786303 -0.092962
0.716452 0.776124 -0.138141
0.819223 0.779330 -0.146444
0.865509 0.786343 -0.148943
0.869109 0.793368 -0.150099
0.868849 0.796795 -0.150598
0.868829 0.797236 -0.150669
-0.102578 0.778234 0.223322
-0.102578 0.778234 0.223322
-0.102578 0.778234 0.223322
-0.102578 0.778234 0.223322
-0.102578 0.778234 0.223322
-0.102578 0.778234 0.223322
-0.102578 0.778234 0.223322
-0.102578 0.778234 0.223322
0.052065 0.820318 0.160806
0.524875 0.810898 -0.073334
0.707968 0.794535 -0.132467
0.811815 0.796291 -0.148779
0.856755 0.796915 -0.150345
0.868797 0.797232 -0.150668
0.868797 0.797232 -0.150668
0.868829 0.797236 -0.150669
-0.102578 0.778234 0.223322
-0.102578 0.778234 0.223322
-0.102578 0.778234 0.223322
-0.102578 0.778234 0.223322
-0.102578 0.778234 0.223322
-0.102578 0.778234 0.223322
-0.102578 0.778234 0.223322
-0.102578 0.778234 0.223322
0.075996 0.821047 0.155380
0.547914 0.807250 -0.081810
0.724790 0.795215 -0.136242
0.817879 0.796236 -0.148963
0.857605 0.796936 -0.150397
0.868797 0.797232 -0.150668
0.868797 0.797232 -0.150668
0.868829 0.797236 -0.150669
-0.102578 0.778234 0.223322
-0.102578 0.778234 0.223322
-0.102578 0.778234 0.223322
-0.102578 0.778234 0.223322
-0.102578 0.778234 0.223322
-0.102578 0.778234 0.223322
-0.102578 0.778234 0.223322
-0.102578 0.778234 0.223322
0.237492 0.831762 0.110448
0.591248 0.797143 -0.097551
0.760198 0.796138 -0.143796
0.831678 0.796247 -0.149436
0.864370 0.797220 -0.150571
0.868797 0.797232 -0.150668
0.868797 0.797232 -0.150668
0.868829 0.797236 -0.150669
-0.102585 0.778261 0.223321
-0.102585 0.778261 0.223321
-0.102585 0.778261 0.223321
-0.102585 0.778261 0.223321
-0.102585 0.778261 0.223321
-0.102585 0.778261 0.223321
-0.102585 0.778261 0.223321
-0.102585 0.778261 0.223321
0.319887 0.841656 0.080019
0.627929 0.792197 -0.109049
0.781507 0.796549 -0.146411
0.840526 0.796435 -0.149784
0.866286 0.797130 -0.150600
0.868797 0.797255 -0.150671
0.868797 0.797255 -0.150671
0.868829 0.797260 -0.150673
0.006867 0.020256 0.028132
0.038199 0.023808 0.058630
0.119017 0.013665 0.058306
0.173385 -0.013781 0.040948
0.241348 -0.023652 0.012197
0.355858 -0.035125 -0.033771
0.486777 -0.048023 -0.047988
0.586680 -0.057796 -0.057922
0.667268 -0.065606 -0.065875
0.733969 -0.072101 -0.072474
0.798237 -0.078253 -0.078824
0.831797 -0.081540 -0.082136
0.836964 -0.082245 -0.082641
0.840973 -0.082759 -0.083035
0.843971 -0.083128 -0.083327
0.846420 -0.083422 -0.083557
0.008261 0.021798 0.029448
0.020906 0.024624 0.048346
0.097062 0.019896 0.060198
0.163510 -0.009907 0.042478
0.234381 -0.022706 0.015455
0.351697 -0.034703 -0.033390
0.484503 -0.047794 -0.047773
0.584948 -0.057613 -0.057752
0.666077 -0.065482 -0.065767
0.733321 -0.072016 -0.072403
0.797628 -0.078181 -0.078763
0.831436 -0.081488 -0.082096
0.836452 -0.082173 -0.082590
0.840372 -0.082685 -0.082979
0.843343 -0.083049 -0.083263
0.845687 -0.083332 -0.083489
0.024201 0.041891 0.047636
0.024314 0.042386 0.048496
0.025731 0.048438 0.061150
0.082887 0.049596 0.067442
0.163586 0.045568 0.050454
0.295377 0.021666 -0.012429
0.468666 -0.045667 -0.046178
0.582861 -0.057392 -0.057545
0.665405 -0.065415 -0.065704
0.732989 -0.071993 -0.072374
0.797509 -0.078167 -0.078745
0.831456 -0.081485 -0.082094
0.836243 -0.082144 -0.082566
0.839937 -0.082617 -0.082936
0.842282 -0.082920 -0.083162
0.844092 -0.083135 -0.083338
0.027831 0.073516 0.071889
0.028097 0.073228 0.071748
0.030110 0.076282 0.075035
0.056737 0.081252 0.082922
0.123800 0.085175 0.073190
0.234863 0.084692 0.046034
0.382771 0.060549 -0.037012
0.525384 -0.040622 -0.051990
0.648577 -0.063040 -0.064046
0.731575 -0.071807 -0.072242
0.797506 -0.078188 -0.078745
0.831775 -0.081537 -0.082134
0.835688 -0.082062 -0.082512
0.838105 -0.082392 -0.082752
0.838992 -0.082509 -0.082835
0.839654 -0.082592 -0.082904
-0.020946 0.120473 0.093578
-0.020897 0.120168 0.093603
-0.020828 0.119792 0.093778
0.026234 0.122876 0.096406
0.115603 0.124161 0.091887
0.218125 0.126039 0.053195
0.353803 0.127032 -0.038829
0.466429 0.126399 -0.049106
0.546823 0.109193 -0.055901
0.626146 0.061214 -0.062505
0.760728 -0.069484 -0.075184
0.828759 -0.081108 -0.081832
0.830144 -0.081251 -0.081975
0.830814 -0.081308 -0.082044
0.830625 -0.081244 -0.082015
0.830962 -0.081305 -0.082055
0.047348 0.191300 0.125697
0.046762 0.191185 0.125876
0.044866 0.190883 0.126484
0.043419 0.190504 0.127220
0.085683 0.193113 0.125114
0.197620 0.187068 0.106025
0.358870 0.195304 -0.045251
0.490097 0.213194 -0.057204
0.591836 0.223810 -0.066343
0.663715 0.224988 -0.072548
