example/ios/lut2.cube
LUT_3D_SIZE 6
0.002615 0.004876 0.005812
0.100097 0.010194 -0.009996
0.387113 -0.033171 -0.038283
0.689351 -0.065659 -0.068092
0.808253 -0.077834 -0.079832
0.812093 -0.078482 -0.080202
0.018910 0.085885 0.042842
0.079898 0.072915 0.025676
0.307754 0.090158 -0.032768
0.680747 -0.064291 -0.067250
0.804808 -0.077209 -0.079487
0.808172 -0.077805 -0.079815
0.108531 0.281899 0.150174
0.108415 0.281559 0.150045
0.311767 0.282035 0.086239
0.713410 0.337006 -0.085692
0.823883 0.358426 -0.096166
0.842752 0.411709 -0.102531
0.109032 0.584155 0.199045
0.109095 0.584056 0.199036
0.109457 0.582670 0.198938
0.652298 0.611019 -0.109418
0.875823 0.648223 -0.128473
0.873928 0.710431 -0.135686
-0.102578 0.778234 0.223322
-0.102578 0.778234 0.223322
-0.102578 0.778234 0.223322
0.523580 0.811138 -0.072933
0.856932 0.796910 -0.150349
0.868829 0.797236 -0.150669
-0.102585 0.778261 0.223321
-0.102585 0.778261 0.223321
-0.102585 0.778261 0.223321
0.629097 0.792246 -0.109486
0.866393 0.797108 -0.150599
0.868829 0.797260 -0.150673
0.006867 0.020256 0.028132
0.173385 -0.013781 0.040948
0.486777 -0.048023 -0.047988
0.733969 -0.072101 -0.072474
0.836964 -0.082245 -0.082641
0.846420 -0.083422 -0.083557
0.027831 0.073516 0.071889
0.056737 0.081252 0.082922
0.382771 0.060549 -0.037012
0.731575 -0.071807 -0.072242
0.835688 -0.082062 -0.082512
0.839654 -0.082592 -0.082904
0.106844 0.279423 0.150561
0.105311 0.279421 0.152410
0.312168 0.280131 0.087534
0.718381 0.338131 -0.086180
0.828877 0.358013 -0.096539
0.843614 0.403304 -0.101783
0.109373 0.582979 0.198983
0.109456 0.582671 0.198939
0.109831 0.581375 0.198845
0.651888 0.609664 -0.109204
0.875962 0.648288 -0.128496
0.874066 0.707742 -0.135249
-0.102578 0.778234 0.223322
-0.102578 0.778234 0.223322
-0.102578 0.778234 0.223322
0.526097 0.810789 -0.073756
0.856657 0.796869 -0.150333
0.868829 0.797236 -0.150669
-0.102585 0.778261 0.223321
-0.102585 0.778261 0.223321
-0.102585 0.778261 0.223321
0.624866 0.792021 -0.107907
0.866241 0.797148 -0.150598
0.868829 0.797260 -0.150673
0.054760 0.134251 0.184899
0.221109 0.111871 0.233294
0.499330 0.057672 0.237890
0.770423 -0.070712 0.196278
0.868331 -0.084620 0.198304
0.857234 -0.074283 0.259956
0.054262 0.133215 0.183162
0.143493 0.124119 0.245688
0.494171 0.057601 0.236388
0.768912 -0.069780 0.199782
0.868452 -0.084522 0.200575
0.858728 -0.076295 0.252665
0.114088 0.260130 0.260135
0.114293 0.259711 0.259851
0.293880 0.338331 0.345609
0.785077 0.353718 0.259239
0.891492 0.328271 0.230853
0.891630 0.314606 0.229950
-0.090324 0.611964 0.330572
-0.093174 0.612571 0.335866
-0.097332 0.612580 0.345541
0.700439 0.686908 0.281925
0.901765 0.712657 0.238516
0.901355 0.745900 0.223516
-0.104879 0.779875 0.231639
-0.105113 0.779913 0.232525
-0.105519 0.779992 0.233142
0.519404 0.828767 0.102800
0.867764 0.820280 -0.084088
0.874045 0.807690 -0.139201
-0.128242 0.792786 0.308352
-0.126436 0.791234 0.299277
-0.102585 0.778261 0.223321
0.584682 0.797671 -0.095103
0.864381 0.797246 -0.150575
0.868829 0.797260 -0.150673
0.217870 0.212168 0.506573
0.217912 0.212188 0.506629
0.513683 0.149495 0.463724
0.656586 0.127318 0.475809
0.772962 0.105493 0.504795
0.747601 0.131732 0.562822
0.217548 0.212044 0.506175
0.217549 0.212039 0.506158
0.513669 0.149412 0.463439
0.655288 0.127382 0.474955
0.772708 0.105642 0.505286
0.748239 0.130980 0.561118
0.078837 0.215338 0.347449
0.068157 0.212783 0.324157
0.249476 0.233567 0.486581
0.649693 0.154868 0.493803
0.776126 0.103823 0.500993
0.756421 0.122796 0.543748
0.264482 0.561610 0.568837
0.264672 0.561433 0.568767
0.265962 0.560032 0.568174
0.752270 0.745319 0.735838
0.940483 0.744590 0.677130
0.940569 0.742609 0.677514
-0.136141 0.782042 0.617634
-0.136159 0.782086 0.618615
-0.136115 0.781815 0.618065
0.413083 0.910783 0.696916
0.911390 0.914282 0.720515
0.929218 0.916002 0.722763
-0.137982 0.789718 0.663654
-0.137944 0.789581 0.662336
-0.137459 0.787659 0.649515
0.278642 0.900867 0.671693
0.915135 0.915523 0.710969
0.928703 0.915250 0.716878
0.240844 0.275262 0.675861
0.240862 0.275285 0.675897
0.470916 0.241246 0.562704
0.655100 0.169904 0.618228
0.737458 0.154737 0.658469
0.737455 0.155479 0.661581
0.240784 0.275192 0.675556
0.240785 0.275193 0.675560
0.469886 0.241778 0.559990
0.654812 0.169870 0.617879
0.737446 0.154742 0.658342
0.737455 0.155479 0.661581
0.240438 0.274346 0.673452
0.240429 0.274339 0.673399
0.408323 0.249372 0.593731
0.647613 0.170374 0.612397
0.737363 0.154303 0.656449
0.737455 0.155479 0.661581
0.317916 0.589156 0.699891
0.318924 0.589617 0.699566
0.316445 0.588733 0.700832
0.738402 0.686259 0.896348
0.907598 0.679977 0.859931
0.904053 0.665158 0.867403
0.301149 0.785088 0.769137
0.301171 0.785031 0.769172
0.302475 0.784406 0.769052
0.492653 0.886711 0.863031
0.932423 0.926689 0.904419
0.956717 0.928192 0.900660
0.291691 0.809549 0.786328
0.291245 0.809705 0.786385
0.290054 0.809526 0.785684
0.395689 0.896495 0.859939
0.917892 0.950068 0.903337
0.954769 0.946764 0.904606
0.241689 0.277298 0.681023
0.241689 0.277298 0.681023
0.512773 0.230793 0.569665
0.692272 0.164935 0.641604
0.737513 0.155480 0.661585
0.737455 0.155479 0.661601
0.241689 0.277298 0.681023
0.241689 0.277298 0.681023
0.504620 0.233404 0.568545
0.690466 0.165317 0.640682
0.737513 0.155480 0.661585
0.737455 0.155479 0.661601
0.241689 0.277298 0.681023
0.241689 0.277298 0.681023
0.388596 0.253566 0.629144
0.672920 0.168337 0.631123
0.737513 0.155480 0.661585
0.737455 0.155479 0.661601
0.375145 0.648486 0.736428
0.373232 0.646918 0.736445
0.356784 0.637689 0.742332
0.729797 0.659494 0.908915
0.901409 0.648905 0.866487
0.900827 0.646324 0.865994
0.337061 0.802976 0.797340
0.337132 0.802947 0.797345
0.339998 0.801399 0.797033
0.495186 0.889832 0.887037
0.935694 0.923733 0.926862
0.961063 0.924508 0.923402
0.320362 0.812184 0.798833
0.320433 0.812190 0.798875
0.320465 0.812209 0.798920
0.436564 0.894747 0.877371
0.918443 0.952771 0.929523
0.960640 0.952187 0.932159
