example/ios/lut7.cube
LUT_3D_SIZE 6
0 0 0.012069
0.032182 0 0.003398
0.338779 0 0
0.660009 0 0
0.788319 0 0
0.792737 0 0
0.015435 0.027546 0.033003
0.0152 0.022717 0.019576
0.236517 0.026293 0
0.649969 0 0
0.783886 0 0
0.788484 0 0
0.089077 0.252174 0.161894
0.08873 0.251649 0.161675
0.337143 0.235619 0.006241
0.670749 0.27724 0
0.791575 0.30831 0
0.82046 0.3838 0
0.227219 0.674318 0.191858
0.227157 0.674052 0.191864
0.23064 0.672027 0.191975
0.667877 0.623801 0
0.857246 0.672561 0
0.866249 0.755329 0.092687
0.301924 0.877941 0.177791
0.301924 0.877941 0.177791
0.301924 0.877941 0.177791
0.651407 0.819061 0.161522
0.867291 0.833865 0.177662
0.878077 0.834917 0.178925
0.301923 0.877991 0.17779
0.301923 0.877991 0.17779
0.301923 0.877991 0.17779
0.731013 0.821007 0.156218
0.876388 0.834727 0.178726
0.878076 0.834951 0.178924
0 0 0.022261
0.031604 0 0.046804
0.375644 0 0
0.696924 0 0
0.800952 0 0
0.802232 0 0
0 0.019989 0.052207
0.004978 0.029001 0.063138
0.288633 0 0.005057
0.693996 0 0
0.800135 0 0
0.800773 0 0
0.087466 0.248582 0.165819
0.087048 0.248116 0.165036
0.335703 0.233358 0.020238
0.67183 0.272778 0
0.792636 0.297101 0
0.816482 0.361204 0
0.226912 0.672838 0.192133
0.226875 0.67264 0.192119
0.229882 0.670616 0.19228
0.667458 0.622642 0
0.856953 0.669541 0
0.865626 0.749887 0.085357
0.301924 0.877941 0.177791
0.301924 0.877941 0.177791
0.301924 0.877941 0.177791
0.648658 0.81909 0.161719
0.867092 0.833849 0.17764
0.878077 0.834917 0.178925
0.301923 0.877991 0.17779
0.301923 0.877991 0.17779
0.301923 0.877991 0.17779
0.723958 0.820508 0.156621
0.876262 0.834692 0.178705
0.878076 0.834951 0.178924
0 0.031916 0.081156
0.005936 0.042568 0.094638
0.252123 0.076665 0.236365
0.677199 0.014511 0.230659
0.792435 0 0.264045
0.765429 0.074922 0.338939
0 0.031426 0.08063
0 0.035365 0.085724
0.245765 0.07634 0.234236
0.677377 0 0.226891
0.794817 0 0.256069
0.772911 0.063241 0.318674
0.125787 0.224077 0.232705
0.125701 0.223572 0.232361
0.245674 0.293457 0.314976
0.727952 0.303711 0.287921
0.87837 0.255357 0.268022
0.878214 0.23863 0.265427
0.183348 0.687388 0.324112
0.184203 0.687171 0.322593
0.186309 0.68648 0.323774
0.696081 0.680131 0.304556
0.883041 0.724427 0.313717
0.883613 0.762684 0.295772
0.300427 0.880459 0.194189
0.300603 0.880131 0.19208
0.301432 0.878812 0.183104
0.638147 0.82311 0.173995
0.867995 0.836942 0.196351
0.878824 0.836494 0.187858
0.290563 0.889342 0.29875
0.294474 0.885364 0.257167
0.301923 0.877991 0.17779
0.684771 0.817915 0.159423
0.874687 0.834653 0.178536
0.878076 0.834951 0.178924
0.051672 0.113959 0.160114
0.051694 0.113981 0.160112
0.096224 0.211111 0.295673
0.532539 0.187828 0.523862
0.684536 0.173997 0.588784
0.693943 0.188738 0.647054
0.05156 0.113792 0.159955
0.051581 0.113828 0.159986
0.095117 0.207252 0.28893
0.530991 0.187896 0.522931
0.684457 0.173572 0.586841
0.69311 0.187378 0.643354
0.069045 0.138713 0.182759
0.067411 0.136354 0.180549
0.097031 0.200191 0.268804
0.529346 0.205307 0.528354
0.685174 0.171882 0.578662
0.689091 0.181843 0.622939
0.301654 0.623425 0.616192
0.301821 0.623094 0.616076
0.302954 0.620857 0.615025
0.706203 0.733524 0.745178
0.920834 0.745808 0.73377
0.921583 0.74256 0.733934
0.197869 0.896812 0.693213
0.198233 0.89693 0.691688
0.199437 0.897719 0.686339
0.589262 0.928587 0.72831
0.90774 0.918941 0.745436
0.923173 0.922444 0.743383
0.247715 0.887053 0.750193
0.242011 0.887894 0.746535
0.214989 0.893117 0.726608
0.510158 0.924811 0.707767
0.911568 0.920528 0.73542
0.922543 0.921399 0.736331
0.094662 0.178933 0.225149
0.094669 0.178943 0.225156
0.120116 0.245973 0.328562
0.529058 0.294583 0.672389
0.713699 0.223851 0.721134
0.715554 0.227737 0.726718
0.094598 0.17884 0.225061
0.094641 0.178861 0.225014
0.117807 0.238533 0.316069
0.524853 0.295199 0.67379
0.713614 0.223802 0.720986
0.715554 0.227737 0.726718
0.094096 0.177982 0.224053
0.094081 0.178012 0.224122
0.09882 0.189653 0.241456
0.499579 0.298267 0.684415
0.713164 0.222871 0.719688
0.715554 0.227737 0.726718
0.339043 0.594816 0.700842
0.336015 0.590674 0.697335
0.323976 0.574189 0.683422
0.589233 0.687063 0.865231
0.87721 0.670101 0.875769
0.871372 0.655647 0.877823
0.400086 0.857449 0.832787
0.400168 0.857412 0.832801
0.40037 0.857173 0.832833
0.548107 0.884706 0.865412
0.916422 0.934019 0.920294
0.941527 0.933441 0.92206
0.418535 0.872791 0.844382
0.41813 0.87282 0.84421
0.41676 0.872947 0.843477
0.513152 0.893006 0.86345
0.906698 0.957101 0.918259
0.943876 0.95608 0.920664
0.096923 0.182563 0.229081
0.096923 0.182563 0.229081
0.12946 0.286583 0.403605
0.629461 0.266215 0.689611
0.715512 0.227738 0.726565
0.715554 0.227737 0.726564
0.096923 0.182563 0.229081
0.096923 0.182563 0.229081
0.126613 0.2726 0.376917
0.620347 0.27067 0.685876
0.715512 0.227738 0.726565
0.715554 0.227737 0.726564
0.096923 0.182563 0.229081
0.096923 0.182563 0.229081
0.100209 0.190696 0.241212
0.573576 0.287789 0.675933
0.715512 0.227738 0.726565
0.715554 0.227737 0.726564
0.425442 0.718367 0.801749
0.420385 0.711582 0.799357
0.384488 0.662458 0.764848
0.554411 0.660753 0.877331
0.866194 0.635581 0.874879
0.865506 0.632029 0.874067
0.43552 0.866069 0.853704
0.435517 0.865914 0.853774
0.435667 0.864706 0.85378
0.535899 0.884125 0.880018
0.91322 0.928454 0.936088
0.940891 0.931395 0.944311
0.434606 0.871947 0.853133
0.434632 0.871945 0.85315
0.434861 0.871934 0.853251
0.525753 0.890535 0.874461
0.904636 0.953073 0.939045
0.945253 0.960487 0.94716
