example/ios/lut7.cube
LUT_3D_SIZE 16
0 0 0.012069
0 0 0.011764
0 0 0.007981
0.032182 0 0.003398
0.110385 0 0
0.207142 0 0
0.338779 0 0
0.462839 0 0
0.571364 0 0
0.660009 0 0
0.729846 0 0
0.780465 0 0
0.788319 0 0
0.791236 0 0
0.792131 0 0
0.792737 0 0
0 0 0.0162
0 0 0.013931
0 0 0.008524
0.015166 0 0.004883
0.083819 0 0
0.180272 0 0
0.32952 0 0
0.46112 0 0
0.569804 0 0
0.658169 0 0
0.728139 0 0
0.778985 0 0
0.787593 0 0
0.79041 0 0
0.791387 0 0
0.791959 0 0
0 0.003217 0.022856
0 0.002386 0.020789
0 0.002129 0.014042
0.010071 0.002062 0.007546
0.065423 0 0
0.142703 0 0
0.260147 0 0
0.431901 0 0
0.567726 0 0
0.655866 0 0
0.725792 0 0
0.777179 0 0
0.786389 0 0
0.78952 0 0
0.790273 0 0
0.790861 0 0
0.015435 0.027546 0.033003
0.014949 0.026983 0.032664
0.012463 0.023552 0.02963
0.0152 0.022717 0.019576
0.072897 0.023856 0
0.143942 0.028573 0
0.236517 0.026293 0
0.350848 0 0
0.521104 0 0
0.649969 0 0
0.722325 0 0
0.773833 0 0
0.783886 0 0
0.787488 0 0
0.78811 0 0
0.788484 0 0
0.015334 0.075042 0.063562
0.015422 0.074774 0.063406
0.015162 0.074266 0.0629
0.022674 0.071119 0.059188
0.089723 0.067689 0.025995
0.168591 0.070515 0
0.258601 0.080917 0
0.361582 0.079736 0
0.457932 0.056984 0
0.571704 0 0
0.691531 0 0
0.76603 0 0
0.777148 0 0
0.781123 0 0
0.779825 0 0
0.780312 0 0
0.018805 0.147664 0.109037
0.018684 0.147477 0.108943
0.018528 0.147257 0.108805
0.026794 0.148132 0.107742
0.09686 0.14367 0.10213
0.198716 0.136573 0.028082
0.303662 0.144459 0
0.410107 0.158282 0
0.510145 0.165663 0
0.598163 0.164013 0
0.663874 0.151719 0
0.709616 0.126534 0
0.728048 0.124003 0
0.725143 0.160623 0
0.739577 0.196597 0
0.74599 0.21301 0
0.089077 0.252174 0.161894
0.089004 0.252046 0.161853
0.088886 0.251897 0.161772
0.08873 0.251649 0.161675
0.096797 0.252291 0.161917
0.204187 0.245107 0.156298
0.337143 0.235619 0.006241
0.470024 0.24766 0
0.58498 0.264999 0
0.670749 0.27724 0
0.738646 0.287991 0
0.785633 0.298553 0
0.791575 0.30831 0
0.803653 0.33321 0
0.815149 0.368177 0
0.82046 0.3838 0
0.159829 0.381706 0.201692
0.15979 0.381565 0.201673
0.159755 0.381436 0.201646
0.159677 0.381255 0.201606
0.159535 0.380902 0.201547
0.182015 0.379263 0.20316
0.325332 0.365736 0.183236
0.465757 0.358308 0
0.609229 0.374948 0
0.703117 0.392896 0
0.778652 0.412761 0
0.830525 0.431879 0
0.834625 0.447275 0
0.839666 0.476115 0
0.844992 0.512611 0
0.847509 0.528763 0
0.20087 0.536643 0.209546
0.200864 0.536585 0.209534
0.200842 0.53647 0.209543
0.200791 0.536351 0.209557
0.200734 0.536055 0.209566
0.20063 0.535437 0.209567
0.258034 0.53121 0.207366
0.440105 0.504151 0.161913
0.579449 0.505446 0.03186
0.690516 0.509323 0
0.783212 0.529526 0
0.842702 0.551927 0
0.851586 0.570308 0
0.853753 0.598574 0
0.855127 0.630617 0
0.855703 0.645212 0
0.227219 0.674318 0.191858
0.227199 0.67429 0.19187
0.227199 0.674162 0.191887
0.227157 0.674052 0.191864
0.227113 0.673965 0.191915
0.227034 0.673518 0.192008
0.23064 0.672027 0.191975
0.392928 0.636089 0.171444
0.553308 0.622289 0.100336
0.667877 0.623801 0
0.766117 0.632224 0
0.836588 0.648934 0
0.857246 0.672561 0
0.859601 0.703777 0
0.864369 0.741193 0.073098
0.866249 0.755329 0.092687
0.254059 0.787917 0.16842
0.254051 0.787881 0.168413
0.254041 0.787834 0.168418
0.254019 0.787756 0.168428
0.253991 0.787688 0.168449
0.253913 0.787342 0.16849
0.253747 0.786975 0.168521
0.292794 0.777347 0.165044
0.520869 0.726233 0.128936
0.657484 0.725684 0.082437
0.758061 0.731918 0.066024
0.835495 0.74816 0.075927
0.867973 0.767026 0.107357
0.871133 0.789882 0.132919
0.873998 0.810525 0.154155
0.875243 0.8176 0.161477
0.288028 0.85864 0.171787
0.288013 0.858617 0.17177
0.288022 0.858557 0.171789
0.287991 0.858505 0.171769
0.287932 0.858457 0.171748
0.287858 0.858221 0.171715
0.287639 0.857942 0.171666
0.288704 0.857024 0.171465
0.489366 0.818254 0.159298
0.64947 0.79369 0.143608
0.760239 0.801484 0.131138
0.831663 0.807681 0.149693
0.871217 0.820002 0.163483
0.877445 0.831542 0.175601
0.878026 0.834917 0.178926
0.878077 0.834917 0.178925
0.301924 0.877941 0.177791
0.301924 0.877941 0.177791
0.301924 0.877941 0.177791
0.301924 0.877941 0.177791
0.301924 0.877941 0.177791
0.301924 0.877941 0.177791
0.301924 0.877941 0.177791
0.301924 0.877941 0.177791
0.4498 0.85155 0.171977
0.651407 0.819061 0.161522
0.765969 0.823963 0.154249
0.83419 0.830484 0.159967
0.867291 0.833865 0.177662
0.878026 0.834917 0.178926
0.878026 0.834917 0.178926
0.878077 0.834917 0.178925
0.301924 0.877941 0.177791
0.301924 0.877941 0.177791
0.301924 0.877941 0.177791
0.301924 0.877941 0.177791
0.301924 0.877941 0.177791
0.301924 0.877941 0.177791
0.301924 0.877941 0.177791
0.301924 0.877941 0.177791
0.492667 0.843654 0.169691
0.67235 0.816519 0.160118
0.785511 0.825937 0.153136
0.842681 0.831469 0.164456
0.870086 0.834106 0.177995
0.878026 0.834917 0.178926
0.878026 0.834917 0.178926
0.878077 0.834917 0.178925
0.301924 0.877941 0.177791
0.301924 0.877941 0.177791
0.301924 0.877941 0.177791
0.301924 0.877941 0.177791
0.301924 0.877941 0.177791
0.301924 0.877941 0.177791
0.301924 0.877941 0.177791
0.301924 0.877941 0.177791
0.556277 0.832381 0.166501
0.714763 0.819765 0.157268
0.812451 0.828349 0.152067
0.855228 0.83285 0.176346
0.875693 0.834603 0.178664
0.878026 0.834917 0.178926
0.878026 0.834917 0.178926
0.878077 0.834917 0.178925
0.301923 0.877991 0.17779
0.301923 0.877991 0.17779
0.301923 0.877991 0.17779
0.301923 0.877991 0.17779
0.301923 0.877991 0.17779
0.301923 0.877991 0.17779
0.301923 0.877991 0.17779
0.301923 0.877991 0.17779
0.584221 0.827489 0.16464
0.731013 0.821007 0.156218
0.820003 0.829134 0.15436
0.858863 0.833039 0.176747
0.876388 0.834727 0.178726
0.878026 0.834951 0.178926
0.878026 0.834951 0.178926
0.878076 0.834951 0.178924
0 0 0.013861
0 0 0.018096
0.000626 0 0.015609
0.037055 0 0.011998
0.124387 0 0
0.227987 0 0
0.348518 0 0
0.475382 0 0
0.585623 0 0
0.67383 0 0
0.742746 0 0
0.789552 0 0
0.794863 0 0
0.79781 0 0
0.798387 0 0
0.798587 0 0
0 0 0.019447
0 0 0.021797
0 0 0.01907
0.017612 0 0.014315
0.098075 0 0
0.207798 0 0
0.344265 0 0
0.471941 0 0
0.582408 0 0
0.670965 0 0
0.740169 0 0
0.787956 0 0
0.793503 0 0
0.796171 0 0
0.796943 0 0
0.797472 0 0
0 0.001379 0.025294
0 0.001978 0.025963
0 0.002043 0.022598
0.007856 0.002445 0.016063
0.067096 0 0.00691
0.158452 0 0
0.283155 0 0
0.452427 0 0
0.579717 0 0
0.668698 0 0
0.7381 0 0
0.786846 0 0
0.792485 0 0
0.795253 0 0
0.795916 0 0
0.796443 0 0
0.011736 0.025403 0.035248
0.011881 0.025349 0.034836
0.010633 0.023533 0.033143
0.016286 0.022103 0.023429
0.072213 0.02258 0.005135
0.147164 0.02387 0
0.239551 0.016891 0
0.362938 0 0
0.541878 0 0
0.663327 0 0
0.734928 0 0
0.784768 0 0
0.790968 0 0
0.793579 0 0
0.794143 0 0
0.794433 0 0
0.018047 0.072948 0.063297
0.017775 0.072886 0.063116
0.017508 0.072672 0.062826
0.022035 0.069628 0.059215
0.087926 0.066342 0.027285
0.167425 0.068406 0
0.258103 0.077649 0
0.361545 0.074155 0
0.460593 0.04741 0
0.585351 0 0
0.70865 0 0
0.779683 0 0
0.787103 0 0
0.789667 0 0
0.790356 0 0
0.791622 0 0
0.017902 0.146355 0.108252
0.017868 0.146299 0.108207
0.017705 0.146068 0.108095
0.025196 0.146827 0.107107
0.094785 0.142436 0.101447
0.197577 0.135436 0.027859
0.302341 0.143127 0
0.408648 0.156716 0
0.509089 0.163509 0
0.598165 0.160531 0
0.664002 0.146184 0
0.712546 0.117058 0
0.736233 0.115014 0
0.72498 0.153371 0
0.739097 0.190049 0
0.745247 0.206529 0
0.088475 0.25128 0.161511
0.088462 0.25125 0.161514
0.088353 0.251092 0.161421
0.088185 0.250842 0.161313
0.095521 0.251396 0.161519
0.202833 0.2443 0.156084
0.336528 0.234852 0.003105
0.469313 0.246801 0
0.584341 0.263916 0
0.669987 0.275906 0
0.737721 0.286539 0
0.785306 0.296959 0
0.791193 0.306424 0
0.803167 0.331217 0
0.814619 0.365797 0
0.819685 0.381141 0
0.159559 0.380964 0.201571
0.159545 0.380913 0.201565
0.15951 0.380837 0.201536
0.159428 0.38069 0.201512
0.159293 0.380224 0.201485
0.181023 0.378665 0.202996
0.324572 0.365109 0.183392
0.465489 0.357725 0
0.60913 0.374227 0
0.702937 0.392152 0
0.778621 0.411839 0
0.830378 0.430926 0
0.8345 0.446105 0
0.839334 0.47482 0
0.844921 0.510971 0
0.847399 0.527115 0
0.200771 0.53611 0.209559
0.200766 0.536129 0.209562
0.200724 0.536009 0.20957
0.200708 0.535863 0.209584
0.200675 0.535599 0.209599
0.200523 0.534981 0.209598
0.256407 0.530814 0.207481
0.439655 0.503762 0.162122
0.579322 0.505004 0.031578
0.690488 0.508779 0
0.783161 0.529021 0
0.842668 0.551345 0
0.851525 0.569598 0
0.853754 0.597816 0
0.855054 0.629681 0
0.855696 0.644074 0
0.22713 0.673993 0.191902
0.22713 0.673976 0.191905
0.227104 0.673936 0.19192
0.227139 0.673794 0.191946
0.227083 0.673617 0.191973
0.227011 0.673105 0.192056
0.230425 0.671724 0.192014
0.392241 0.635951 0.171675
0.552899 0.622028 0.100548
0.667845 0.623583 0
0.766058 0.631843 0
0.836518 0.648586 0
0.8572 0.672025 0
0.859529 0.703093 0
0.864234 0.740575 0.072014
0.866175 0.754615 0.091842
0.254002 0.78764 0.168443
0.254 0.787632 0.168444
0.253989 0.787677 0.168451
0.253967 0.787599 0.168447
0.253931 0.787443 0.168476
0.253852 0.787295 0.168483
0.253688 0.786734 0.168552
0.291663 0.77746 0.165174
0.520411 0.726008 0.129034
0.657144 0.725378 0.082424
0.758048 0.731635 0.065755
0.835414 0.747988 0.07561
0.867955 0.766784 0.107054
0.871062 0.789633 0.132659
0.873904 0.810152 0.153887
0.875198 0.817391 0.161188
0.287951 0.858491 0.171755
0.28795 0.858488 0.171754
0.287931 0.858456 0.171747
0.287919 0.858348 0.171739
0.287888 0.858244 0.171732
0.287793 0.858187 0.171694
0.287564 0.85776 0.171634
0.288605 0.856938 0.17145
0.488598 0.818293 0.159329
0.649202 0.793524 0.14355
0.760223 0.801501 0.13104
0.831561 0.807529 0.149594
0.87115 0.819796 0.163356
0.877417 0.831441 0.17548
0.878026 0.834917 0.178926
0.878077 0.834917 0.178925
0.301924 0.877941 0.177791
0.301924 0.877941 0.177791
0.301924 0.877941 0.177791
0.301924 0.877941 0.177791
0.301924 0.877941 0.177791
0.301924 0.877941 0.177791
0.301924 0.877941 0.177791
0.301924 0.877941 0.177791
0.44806 0.851938 0.172017
0.651005 0.8191 0.161549
0.765793 0.823937 0.15426
0.834091 0.830473 0.159918
0.867236 0.833861 0.177652
0.878026 0.834917 0.178926
0.878026 0.834917 0.178926
0.878077 0.834917 0.178925
0.301924 0.877941 0.177791
0.301924 0.877941 0.177791
0.301924 0.877941 0.177791
0.301924 0.877941 0.177791
0.301924 0.877941 0.177791
0.301924 0.877941 0.177791
0.301924 0.877941 0.177791
0.301924 0.877941 0.177791
0.491326 0.844009 0.169762
0.671737 0.816486 0.160163
0.785206 0.825926 0.153148
0.842598 0.831461 0.164396
0.870001 0.8341 0.177989
0.878026 0.834917 0.178926
0.878026 0.834917 0.178926
0.878077 0.834917 0.178925
0.301924 0.877941 0.177791
0.301924 0.877941 0.177791
0.301924 0.877941 0.177791
0.301924 0.877941 0.177791
0.301924 0.877941 0.177791
0.301924 0.877941 0.177791
0.301924 0.877941 0.177791
0.301924 0.877941 0.177791
0.554407 0.832849 0.166578
0.713948 0.819705 0.157321
0.812114 0.82829 0.152082
0.855155 0.832837 0.17635
0.875629 0.834599 0.178659
0.878026 0.834917 0.178926
0.878026 0.834917 0.178926
0.878077 0.834917 0.178925
0.301923 0.877991 0.17779
0.301923 0.877991 0.17779
0.301923 0.877991 0.17779
0.301923 0.877991 0.17779
0.301923 0.877991 0.17779
0.301923 0.877991 0.17779
0.301923 0.877991 0.17779
0.301923 0.877991 0.17779
0.582923 0.827806 0.164694
0.730254 0.821062 0.156258
0.819698 0.829095 0.154302
0.858741 0.833004 0.176751
0.876385 0.834723 0.178721
0.878026 0.834951 0.178926
0.878026 0.834951 0.178926
0.878076 0.834951 0.178924
0 0 0.016999
0 0 0.024445
0.000904 0 0.027201
0.04178 0 0.022661
0.133594 0 0.012393
0.24487 0 0
0.365938 0 0
0.495002 0 0
0.60244 0 0
0.687592 0 0
0.752178 0 0
0.796952 0 0
0.799095 0 0
0.799614 0 0
0.799793 0 0
0.800009 0 0
0 0 0.021367
0 0 0.024598
0 0 0.029825
0.025683 0 0.024806
0.115569 0 0.015729
0.234919 0 0
0.363175 0 0
0.492278 0 0
0.600317 0 0
0.686236 0 0
0.751255 0 0
0.796426 0 0
0.798791 0 0
0.799448 0 0
0.799706 0 0
0.799712 0 0
0 0 0.030761
0 0 0.032293
0 0.00307 0.037867
0.005941 0.00442 0.031864
0.070521 0 0.02392
0.180071 0 0
0.319436 0 0
0.482523 0 0
0.597207 0 0
0.684149 0 0
0.749738 0 0
0.795036 0 0
0.798255 0 0
0.799058 0 0
0.799249 0 0
0.799256 0 0
0.005767 0.02252 0.042525
0.005647 0.022311 0.042331
0.007361 0.024741 0.043855
0.01212 0.024633 0.037567
0.068938 0.024822 0.023662
0.15774 0.018594 0
0.254832 0 0
0.389976 0 0
0.570837 0 0
0.680506 0 0
0.747784 0 0
0.793612 0 0
0.797637 0 0
0.798726 0 0
0.798855 0 0
0.79897 0 0
0.031999 0.069216 0.067621
0.031793 0.06906 0.067395
0.03137 0.069541 0.067528
0.029018 0.069589 0.065495
0.084281 0.067375 0.04014
0.171034 0.06442 0
0.260938 0.070576 0
0.363241 0.063835 0
0.471941 0.028884 0
0.608833 0 0
0.731943 0 0
0.790947 0 0
0.79547 0 0
0.797228 0 0
0.798819 0 0
0.799533 0 0
0.016062 0.144857 0.109611
0.016026 0.144729 0.109443
0.015976 0.144571 0.109187
0.021801 0.145202 0.108517
0.091385 0.141496 0.10272
0.196805 0.134463 0.031855
0.302024 0.140787 0
0.408507 0.153894 0
0.509924 0.159382 0
0.598842 0.154593 0
0.664008 0.136705 0
0.725414 0.100608 0
0.751763 0.09996 0
0.731641 0.13433 0
0.740763 0.1708 0
0.745591 0.186781 0
0.08772 0.250149 0.16101
0.087672 0.25007 0.160984
0.087608 0.249961 0.160943
0.087433 0.249719 0.160831
0.093867 0.25015 0.160988
0.200922 0.24324 0.155767
0.335786 0.233819 0
0.468382 0.245471 0
0.583387 0.262382 0
0.669535 0.274345 0
0.737866 0.284551 0
0.785338 0.29437 0
0.79088 0.30299 0
0.802888 0.326717 0
0.813056 0.359319 0
0.817698 0.373851 0
0.159248 0.380144 0.201442
0.159208 0.380084 0.201443
0.159182 0.379946 0.201425
0.159113 0.379782 0.201373
0.158958 0.379444 0.201348
0.179584 0.37787 0.202817
0.323544 0.364327 0.183538
0.465217 0.356862 0
0.609036 0.373262 0
0.702751 0.390987 0
0.77828 0.410626 0
0.830141 0.429168 0
0.83387 0.44373 0
0.838806 0.471456 0
0.844211 0.506555 0
0.846589 0.522086 0
0.200647 0.535517 0.20956
0.200634 0.535456 0.209565
0.200609 0.535418 0.20957
0.200571 0.535293 0.209584
0.200541 0.534962 0.209599
0.20039 0.53436 0.209658
0.254071 0.530292 0.207662
0.439029 0.503199 0.162396
0.579107 0.504404 0.031186
0.690493 0.508079 0
0.783115 0.528221 0
0.842525 0.550229 0
0.851327 0.568106 0
0.853638 0.595969 0
0.854961 0.627113 0
0.855665 0.641062 0
0.227051 0.673617 0.191997
0.227039 0.673576 0.192005
0.227051 0.673482 0.192015
0.22701 0.673413 0.192008
0.227009 0.673216 0.192056
0.226885 0.672741 0.192151
0.230145 0.67133 0.192143
0.391248 0.635754 0.172064
0.552453 0.621706 0.100802
0.66773 0.623149 0
0.766076 0.631367 0
0.836459 0.647847 0
0.857077 0.670932 0
0.859405 0.70166 0
0.86406 0.738661 0.068854
0.866029 0.752871 0.089576
0.253922 0.787386 0.168485
0.253918 0.787362 0.168487
0.253912 0.787336 0.168491
0.253893 0.787458 0.168452
0.253853 0.787301 0.168482
0.253785 0.787017 0.168514
0.253619 0.786415 0.168591
0.29017 0.777594 0.165353
0.51961 0.725855 0.129217
0.656782 0.725257 0.08232
0.757979 0.731548 0.065427
0.835304 0.747638 0.075076
0.867808 0.766344 0.106462
0.870952 0.789057 0.132084
0.873927 0.809545 0.153088
0.875073 0.81656 0.160437
0.287866 0.858207 0.171724
0.287859 0.858195 0.171721
0.28787 0.858183 0.171718
0.287852 0.85816 0.171709
0.287779 0.858207 0.171698
0.287696 0.858057 0.171681
0.287483 0.857727 0.171593
0.288441 0.856725 0.171453
0.486987 0.818322 0.159375
0.648625 0.793363 0.143511
0.759863 0.801289 0.130909
0.8315 0.807369 0.149446
0.871144 0.819594 0.163147
0.877363 0.831204 0.175323
0.878026 0.834917 0.178926
0.878077 0.834917 0.178925
0.301924 0.877941 0.177791
0.301924 0.877941 0.177791
0.301924 0.877941 0.177791
0.301924 0.877941 0.177791
0.301924 0.877941 0.177791
0.301924 0.877941 0.177791
0.301924 0.877941 0.177791
0.301924 0.877941 0.177791
0.444315 0.852541 0.172207
0.649964 0.819193 0.161616
0.765378 0.823877 0.154274
0.833949 0.830455 0.15985
0.867222 0.833857 0.177647
0.878026 0.834917 0.178926
0.878026 0.834917 0.178926
0.878077 0.834917 0.178925
0.301924 0.877941 0.177791
0.301924 0.877941 0.177791
0.301924 0.877941 0.177791
0.301924 0.877941 0.177791
0.301924 0.877941 0.177791
0.301924 0.877941 0.177791
0.301924 0.877941 0.177791
0.301924 0.877941 0.177791
0.48756 0.844619 0.169914
0.67031 0.816301 0.16027
0.784625 0.825845 0.153178
0.842422 0.831467 0.164213
0.869954 0.83409 0.177977
0.878026 0.834917 0.178926
0.878026 0.834917 0.178926
0.878077 0.834917 0.178925
0.301924 0.877941 0.177791
0.301924 0.877941 0.177791
0.301924 0.877941 0.177791
0.301924 0.877941 0.177791
0.301924 0.877941 0.177791
0.301924 0.877941 0.177791
0.301924 0.877941 0.177791
0.301924 0.877941 0.177791
0.548593 0.833827 0.166863
0.711627 0.819612 0.157482
0.811048 0.828197 0.152124
0.854871 0.832811 0.176358
0.875539 0.834591 0.17865
0.878026 0.834917 0.178926
0.878026 0.834917 0.178926
0.878077 0.834917 0.178925
0.301923 0.877991 0.17779
0.301923 0.877991 0.17779
0.301923 0.877991 0.17779
0.301923 0.877991 0.17779
0.301923 0.877991 0.17779
0.301923 0.877991 0.17779
0.301923 0.877991 0.17779
0.301923 0.877991 0.17779
0.579105 0.82842 0.164839
0.727998 0.820795 0.156388
0.818995 0.828993 0.154093
0.85844 0.833228 0.1767
0.876422 0.834713 0.178734
0.878026 0.834951 0.178926
0.878026 0.834951 0.178926
0.878076 0.834951 0.178924
0 0 0.022261
0 0 0.030206
0 0 0.046116
0.031604 0 0.046804
0.128828 0 0.037961
0.244442 0 0.017383
0.375644 0 0
0.507949 0 0
0.612 0 0
0.696924 0 0
0.758742 0 0
0.799677 0 0
0.800952 0 0
0.801609 0 0
0.802154 0 0
0.802232 0 0
0 0 0.024189
0 0 0.027859
0 0 0.043118
0.023137 0 0.046594
0.122258 0 0.03768
0.242234 0 0.015873
0.374282 0 0
0.507317 0 0
0.611359 0 0
0.696255 0 0
0.758568 0 0
0.799463 0 0
0.800776 0 0
0.801479 0 0
0.801901 0 0
0.802168 0 0
0 0.000575 0.035594
0 0.001163 0.036285
0 0.003438 0.044426
0.004972 0.006415 0.051319
0.080454 0.00504 0.04393
0.200664 0 0.027921
0.354732 0 0
0.506248 0 0
0.610363 0 0
0.695419 0 0
0.757961 0 0
0.799232 0 0
0.800699 0 0
0.801167 0 0
0.801468 0 0
0.801642 0 0
0 0.019989 0.052207
0 0.019698 0.052084
0 0.0228 0.05665
0.004978 0.029001 0.063138
0.056281 0.032055 0.055109
0.157662 0.029462 0.041199
0.288633 0 0.005057
0.448239 0 0
0.598632 0 0
0.693996 0 0
0.756917 0 0
0.798897 0 0
0.800135 0 0
0.800669 0 0
0.800849 0 0
0.800773 0 0
0.038551 0.065008 0.072164
0.038426 0.064801 0.071988
0.038611 0.06513 0.072426
0.041961 0.070689 0.077017
0.072567 0.073585 0.068971
0.174461 0.069343 0.031654
0.280684 0.061357 0
0.389599 0.045864 0
0.517082 0 0
0.655831 0 0
0.757623 0 0
0.798673 0 0
0.799759 0 0
0.800135 0 0
0.800248 0 0
0.800214 0 0
0.02575 0.14271 0.118857
0.025512 0.142573 0.118636
0.025214 0.142401 0.118355
0.025681 0.143224 0.118886
0.081558 0.144884 0.114949
0.195387 0.138326 0.059148
0.306883 0.137012 0
0.412004 0.148876 0
0.515606 0.15219 0
0.605746 0.143872 0
0.682017 0.115593 0
0.773217 0.075071 0
0.785732 0.071195 0
0.77231 0.091524 0
0.767081 0.125446 0
0.768528 0.140168 0
0.087466 0.248582 0.165819
0.087383 0.248458 0.165603
0.087246 0.248314 0.165232
0.087048 0.248116 0.165036
0.091223 0.248633 0.16434
0.197902 0.242824 0.158155
0.335703 0.233358 0.020238
0.469134 0.244175 0
0.584825 0.26091 0
0.67183 0.272778 0
0.73981 0.282412 0
0.787682 0.290531 0
0.792636 0.297101 0
0.803294 0.318117 0
0.812685 0.348055 0
0.816482 0.361204 0
0.158701 0.378741 0.201212
0.158661 0.378685 0.201199
0.158634 0.378546 0.201209
0.158577 0.378371 0.20116
0.158423 0.378063 0.201139
0.178398 0.376545 0.202568
0.322377 0.363022 0.183522
0.464827 0.355508 0
0.608618 0.372006 0
0.702318 0.389648 0
0.778012 0.408914 0
0.830006 0.427287 0
0.833703 0.440569 0
0.838031 0.466053 0
0.843128 0.49874 0
0.845229 0.512928 0
0.200413 0.534412 0.20965
0.200413 0.534393 0.209654
0.200389 0.534353 0.209659
0.200369 0.534206 0.209655
