example/ios/rthlut1-17.cube
#LUT size
LUT_3D_SIZE 17
#LUT data points
0.024963 0.029724 0.034637
0.029938 0.030945 0.035583
0.076324 0.040527 0.039001
0.105774 0.045593 0.040192
0.142365 0.048615 0.039917
0.189484 0.052551 0.038483
0.254211 0.055511 0.037628
0.349396 0.046112 0.047363
0.466461 0.010498 0.078430
0.580292 0.007690 0.122772
0.678284 0.032074 0.197021
0.747498 0.104523 0.294250
0.802277 0.211731 0.405304
0.854431 0.339691 0.531891
0.904419 0.494080 0.654144
0.948486 0.657990 0.758240
0.974609 0.764557 0.836700
0.024963 0.029724 0.034637
0.024963 0.029724 0.034637
0.030792 0.032593 0.032349
0.058472 0.040070 0.030914
0.083313 0.047119 0.030670
0.133972 0.054077 0.027008
0.210388 0.062103 0.010071
0.316162 0.070099 0.000000
0.456635 0.070831 0.000000
0.574463 0.045349 0.008972
0.674652 0.052399 0.117218
0.748322 0.116547 0.245575
0.803589 0.220001 0.376129
0.855957 0.344757 0.514832
0.905548 0.498047 0.645203
0.949219 0.660217 0.754852
0.974915 0.765564 0.834839
0.024231 0.032623 0.036377
0.024963 0.029724 0.034637
0.024963 0.029724 0.034637
0.035095 0.036591 0.031036
0.066315 0.043671 0.031677
0.106934 0.053986 0.030334
0.191376 0.064484 0.021729
0.301086 0.076294 0.000000
0.444183 0.087952 0.000000
0.578583 0.087708 0.000000
0.672272 0.055725 0.071411
0.748383 0.120667 0.218353
0.804077 0.223114 0.362335
0.856598 0.346863 0.506805
0.906067 0.499786 0.641357
0.949463 0.661072 0.753113
0.975098 0.766083 0.834167
0.011414 0.048889 0.047180
0.031403 0.041626 0.038879
0.032471 0.039490 0.037476
0.036285 0.041809 0.036865
0.059052 0.046844 0.033813
0.094330 0.056671 0.033142
0.174652 0.065948 0.024506
0.288147 0.082123 0.000122
0.439301 0.095825 0.000000
0.573151 0.105042 0.000000
0.675171 0.075043 0.023621
0.748291 0.123505 0.193848
0.804474 0.225189 0.350616
0.857056 0.348328 0.500549
0.906403 0.500946 0.638062
0.949799 0.661957 0.751709
0.975159 0.766388 0.833527
0.000000 0.069183 0.056519
0.015198 0.061279 0.043427
0.032349 0.058228 0.040833
0.044098 0.057983 0.040588
0.066071 0.064789 0.041107
0.098572 0.075195 0.035828
0.181519 0.086700 0.025421
0.288818 0.096497 0.000366
0.433899 0.102295 0.000000
0.570984 0.113708 0.000000
0.684326 0.109467 0.000519
0.747986 0.126007 0.166046
0.804779 0.226959 0.338318
0.857544 0.349731 0.494141
0.906738 0.502167 0.634949
0.949982 0.662567 0.750305
0.975281 0.766724 0.832977
0.000000 0.096222 0.073700
0.000000 0.086609 0.050964
0.014313 0.083557 0.046783
0.056122 0.082001 0.043823
0.079224 0.087494 0.044464
0.109558 0.098846 0.044220
0.190155 0.111481 0.026672
0.305542 0.126678 0.000336
0.454132 0.133179 0.000000
0.571625 0.124359 0.000000
0.686554 0.134094 0.000000
0.748199 0.133087 0.117706
0.805237 0.229584 0.316040
0.858246 0.352081 0.483124
0.907288 0.504059 0.629730
0.950348 0.663666 0.748077
0.975403 0.767212 0.832031
0.000000 0.146698 0.109100
0.000000 0.134674 0.065399
0.001343 0.134308 0.057281
0.027527 0.132935 0.049683
0.069366 0.131287 0.044861
0.117950 0.145325 0.042877
0.205353 0.165405 0.035339
0.322266 0.184204 0.000000
0.483765 0.200623 0.000000
0.615784 0.198273 0.000000
0.689728 0.164154 0.000000
0.755524 0.164886 0.006042
0.805725 0.232422 0.269165
0.859314 0.355438 0.461456
0.908264 0.507355 0.620392
0.950958 0.665283 0.744171
0.975739 0.768005 0.829987
0.000000 0.212769 0.161072
0.000000 0.202454 0.105011
0.000000 0.197632 0.076233
0.000000 0.201813 0.068756
0.000031 0.204620 0.058044
0.082825 0.206299 0.037140
0.211395 0.233398 0.016907
0.346741 0.266968 0.000000
0.509521 0.284241 0.000000
0.658417 0.296265 0.000000
0.740173 0.282715 0.000000
0.771637 0.240692 0.000000
0.809784 0.248291 0.162170
0.860992 0.359985 0.418701
0.909821 0.511871 0.602905
0.951996 0.668213 0.737366
0.976166 0.769257 0.826813
0.000000 0.306061 0.243042
0.000000 0.302460 0.192078
0.000000 0.298462 0.163879
0.000000 0.294403 0.137115
0.000000 0.289032 0.099854
0.000000 0.302490 0.068481
0.117584 0.315186 0.007660
0.343445 0.367035 0.000092
0.528931 0.405579 0.002838
0.699677 0.430603 0.000000
0.783051 0.421722 0.000000
0.837555 0.404694 0.000000
0.850372 0.343781 0.000000
0.865692 0.370300 0.320618
0.912567 0.518921 0.567047
0.953705 0.672668 0.724915
0.977020 0.771454 0.821136
0.000000 0.417755 0.353577
0.000000 0.420563 0.316956
0.000000 0.420837 0.296448
0.000000 0.420776 0.277618
0.000000 0.420105 0.256348
0.000000 0.417297 0.214386
0.000000 0.419281 0.138733
0.218567 0.454895 0.012665
0.502411 0.521820 0.015686
0.699036 0.560822 0.033447
0.821136 0.589233 0.000000
0.895325 0.583832 0.000000
0.917023 0.542755 0.000061
0.899353 0.466034 0.114594
0.918579 0.528229 0.468964
0.956604 0.678406 0.695190
0.978455 0.774994 0.811249
0.000000 0.531586 0.471039
0.000000 0.540283 0.449097
0.000000 0.543518 0.438385
0.000000 0.546265 0.429535
0.000000 0.548401 0.419800
0.000000 0.551117 0.402191
0.000000 0.552948 0.363342
0.000031 0.545563 0.253632
0.342926 0.590515 0.099243
0.668976 0.660126 0.097046
0.802765 0.690765 0.165466
0.902161 0.694824 0.012177
0.952301 0.684296 0.009796
0.965729 0.665070 0.161652
0.959808 0.633026 0.323639
0.962280 0.683228 0.614716
0.980774 0.779755 0.789551
0.000000 0.639954 0.594788
0.000000 0.648712 0.582489
0.000000 0.651947 0.576569
0.000000 0.654358 0.571686
0.000000 0.656586 0.566803
0.000000 0.659943 0.557892
0.000000 0.664581 0.540161
0.000000 0.670532 0.503265
0.000000 0.672150 0.405853
0.495972 0.713165 0.241791
0.777618 0.768402 0.274719
0.887787 0.789703 0.330109
0.962372 0.784363 0.252045
0.995453 0.782532 0.282990
0.999054 0.777985 0.375397
0.993530 0.757172 0.489319
0.985718 0.784882 0.729553
0.000000 0.720062 0.698334
0.000000 0.725922 0.691742
0.000000 0.728271 0.688751
0.000000 0.730103 0.686340
0.000000 0.731750 0.683990
0.000000 0.734253 0.679779
0.000000 0.738373 0.672577
0.000000 0.744537 0.658722
0.000000 0.752655 0.629150
0.179565 0.760223 0.549011
0.659149 0.794983 0.395081
0.857819 0.839417 0.430420
0.946747 0.857452 0.480042
0.997894 0.854492 0.436462
1.000000 0.852509 0.461609
1.000000 0.854797 0.540192
1.000000 0.842926 0.632355
0.000000 0.784302 0.778046
0.000061 0.788269 0.774872
0.000519 0.789734 0.773499
0.000977 0.790833 0.772369
0.001404 0.791809 0.771179
0.002106 0.793457 0.769409
0.003174 0.796173 0.766205
0.004639 0.800385 0.760803
0.036102 0.807007 0.751587
0.268768 0.817291 0.734467
0.473877 0.829132 0.681580
0.762665 0.860199 0.544189
0.918640 0.898010 0.580414
0.981415 0.913483 0.624969
1.000000 0.908112 0.593597
1.000000 0.909698 0.620209
1.000000 0.913177 0.678467
0.243103 0.838104 0.840881
0.286194 0.840790 0.840607
0.304871 0.841919 0.840332
0.316925 0.842743 0.840210
0.323517 0.843567 0.840027
0.333984 0.844849 0.839935
0.350433 0.846863 0.839630
0.378235 0.850250 0.839020
0.423309 0.855927 0.837799
0.491119 0.864624 0.834534
0.571442 0.876587 0.823761
0.667816 0.889709 0.785248
0.837952 0.912964 0.681366
0.958618 0.941833 0.709534
0.996155 0.953735 0.741638
1.000000 0.948212 0.721954
1.000000 0.950684 0.741791
0.578094 0.893036 0.906219
0.587006 0.894745 0.906555
0.590607 0.895477 0.906677
0.593689 0.895996 0.906860
0.596405 0.896545 0.906921
0.600189 0.897369 0.907043
0.605560 0.898407 0.907196
0.614288 0.900269 0.907196
0.628571 0.903320 0.906952
0.650909 0.908264 0.906494
0.684021 0.915955 0.904633
0.725006 0.925507 0.897186
0.776550 0.936218 0.867767
0.895966 0.953094 0.783722
0.981995 0.972229 0.806915
0.999939 0.978760 0.832916
1.000000 0.974762 0.817963
0.730316 0.934570 0.950531
0.732971 0.935303 0.950745
0.734070 0.935638 0.950806
0.734955 0.935852 0.950928
0.735840 0.936127 0.950958
0.737122 0.936523 0.951080
0.739014 0.937042 0.951172
0.742035 0.937866 0.951355
0.747131 0.939362 0.951691
0.755219 0.941620 0.952087
0.767944 0.945282 0.952271
0.787506 0.950897 0.951996
0.813690 0.958099 0.949371
0.849945 0.966034 0.930756
0.939575 0.977356 0.868134
0.994843 0.989258 0.887390
1.000000 0.991302 0.906464
0.024963 0.029724 0.034637
0.026947 0.030029 0.036133
0.070526 0.039154 0.050354
0.098694 0.044189 0.063141
0.133759 0.046387 0.071899
0.182159 0.049042 0.082245
0.246979 0.049927 0.094025
0.343292 0.038147 0.110931
0.463654 0.003601 0.139618
0.580109 0.000549 0.188873
0.677582 0.015930 0.250153
0.745636 0.092377 0.329071
0.800842 0.203735 0.429169
0.853119 0.335327 0.545502
0.903503 0.490662 0.661804
0.947906 0.656158 0.761444
0.974365 0.763794 0.838379
0.024963 0.029724 0.034637
0.024963 0.029724 0.034637
0.030457 0.031342 0.035828
0.068054 0.038818 0.039032
0.095337 0.045502 0.040985
0.151062 0.051239 0.040649
0.224243 0.057220 0.039948
0.324890 0.052429 0.048615
0.450165 0.025787 0.076813
0.571503 0.014618 0.121979
0.673828 0.040405 0.196350
0.746460 0.108704 0.293976
0.801880 0.213654 0.405701
0.853912 0.342010 0.530670
0.903717 0.495667 0.653412
0.947266 0.655365 0.755920
0.974640 0.764771 0.836639
0.024353 0.032043 0.037048
0.024750 0.030548 0.035156
0.025421 0.030243 0.034698
0.037811 0.035309 0.031982
0.072998 0.042999 0.030701
0.121582 0.051331 0.029083
0.204712 0.058533 0.023376
0.312408 0.057709 0.012054
0.444000 0.038483 0.022400
0.567596 0.022552 0.080994
0.672699 0.049347 0.165009
0.746826 0.114929 0.273895
0.802490 0.217560 0.393402
0.854492 0.344452 0.523376
0.904205 0.497498 0.649628
0.947571 0.656342 0.754333
0.974792 0.765228 0.835907
0.007904 0.048737 0.051483
0.019806 0.041748 0.043518
0.029388 0.039337 0.038116
0.035370 0.040741 0.038239
0.061646 0.045959 0.033661
0.106567 0.054016 0.030731
0.185364 0.060516 0.018158
0.297119 0.066833 0.000519
0.439758 0.060089 0.001099
0.566589 0.039978 0.041595
0.671661 0.055115 0.137787
0.746948 0.119110 0.256500
0.802887 0.220215 0.383423
0.855011 0.346252 0.517548
0.904541 0.498749 0.646667
0.947784 0.657013 0.753021
0.974915 0.765564 0.835327
0.000000 0.070038 0.071442
0.001862 0.062622 0.053436
0.013977 0.058563 0.044708
0.032562 0.057007 0.042175
0.063843 0.064026 0.044281
0.108612 0.072906 0.035980
0.191376 0.081085 0.020844
0.297546 0.084686 0.001129
0.432098 0.080597 0.000000
0.567322 0.065674 0.011536
0.670685 0.061859 0.103271
0.747070 0.122711 0.237061
0.803223 0.222687 0.372864
0.855438 0.347870 0.511597
0.904938 0.500031 0.643555
0.947998 0.657715 0.751740
0.975006 0.765930 0.834747
0.000000 0.098511 0.102600
0.000000 0.091003 0.072083
0.000183 0.086700 0.058014
0.007141 0.084503 0.051788
0.060211 0.088440 0.050018
0.111176 0.101471 0.051117
0.200226 0.111786 0.030182
0.318207 0.121857 0.001556
0.457153 0.123077 0.000000
0.567749 0.104767 0.000000
0.672363 0.083099 0.046204
0.746979 0.127563 0.201874
0.803864 0.226135 0.355011
0.856140 0.350342 0.502014
0.905487 0.502045 0.638763
0.948395 0.658813 0.749756
0.975159 0.766418 0.833832
0.000000 0.150726 0.142273
0.000000 0.142426 0.108704
0.000000 0.137421 0.085052
0.000153 0.133911 0.069672
0.011597 0.132996 0.060364
0.095642 0.147003 0.055939
0.203918 0.167908 0.048615
0.336761 0.183624 0.000946
0.494141 0.193756 0.000000
0.619141 0.184692 0.000000
0.687714 0.142700 0.000000
0.747040 0.137177 0.123505
0.804626 0.231079 0.319550
0.857269 0.354065 0.484070
0.906464 0.505157 0.630341
0.948944 0.660461 0.746155
0.975403 0.767212 0.832367
0.000000 0.218048 0.201630
0.000000 0.213043 0.163696
0.000000 0.209290 0.140564
0.000000 0.205719 0.117859
0.000000 0.202423 0.093536
0.006561 0.206329 0.066345
0.178345 0.236267 0.048584
0.343262 0.267914 0.021149
0.525421 0.291748 0.000000
0.667786 0.296631 0.000000
0.744354 0.276031 0.000336
0.770386 0.217041 0.015076
0.805695 0.237610 0.234558
0.859070 0.359619 0.447906
0.908020 0.510254 0.614502
0.949951 0.663361 0.739960
0.975891 0.768463 0.829102
0.000000 0.309143 0.282623
0.000000 0.309845 0.247833
0.000000 0.308594 0.226501
0.000000 0.306885 0.207214
0.000000 0.304321 0.183960
0.000000 0.298950 0.137665
0.007233 0.310883 0.072357
0.310608 0.363464 0.030334
0.521637 0.403137 0.027344
0.698151 0.428436 0.000122
0.786072 0.423187 0.000336
0.827789 0.387878 0.010895
0.832703 0.318726 0.082062
0.861755 0.364960 0.361359
0.910645 0.517609 0.581329
0.951569 0.667725 0.727844
0.976685 0.770691 0.823608
0.000000 0.418549 0.382263
0.000000 0.423615 0.356354
0.000000 0.425201 0.341125
0.000000 0.426117 0.327484
0.000000 0.426758 0.312073
0.000000 0.426788 0.283295
0.000000 0.422729 0.216492
0.083740 0.442719 0.094940
0.474304 0.517792 0.068726
0.691925 0.558258 0.076447
0.807159 0.573456 0.010864
0.872589 0.562805 0.024658
0.897705 0.528412 0.088440
0.895996 0.466980 0.222595
0.915436 0.525330 0.495636
0.954407 0.674042 0.701477
0.978149 0.774231 0.813843
0.000000 0.530273 0.491150
0.000000 0.539551 0.473602
0.000000 0.543182 0.464111
0.000000 0.545898 0.456329
0.000000 0.548523 0.448090
0.000000 0.552246 0.433716
0.000000 0.556732 0.404419
0.000000 0.556244 0.326660
0.259369 0.584015 0.164917
0.652252 0.661621 0.163147
0.800140 0.692535 0.199799
0.891388 0.693085 0.112274
0.941528 0.685059 0.147278
0.960999 0.670837 0.259430
0.954742 0.632324 0.371277
0.959991 0.680664 0.628204
0.980499 0.779358 0.793152
0.000000 0.637482 0.606018
0.000000 0.645294 0.594421
0.000000 0.648956 0.589111
0.000000 0.651611 0.584839
0.000000 0.654144 0.580414
0.000000 0.657867 0.572815
0.000000 0.663361 0.558258
0.000031 0.670563 0.527252
0.005157 0.675598 0.446777
0.444244 0.708588 0.277588
0.770477 0.768158 0.299530
0.884155 0.788666 0.344574
0.957764 0.786377 0.300720
0.989777 0.784576 0.334900
0.995453 0.779175 0.415222
0.990234 0.755798 0.514709
0.985168 0.784760 0.737244
0.000000 0.718445 0.704529
0.000000 0.724060 0.697510
0.000000 0.726624 0.694641
0.000000 0.728424 0.692474
0.000000 0.730225 0.690186
0.000000 0.732910 0.686584
0.000000 0.737122 0.680084
0.000946 0.743378 0.667450
0.023132 0.751892 0.640717
0.150391 0.760651 0.570648
0.631439 0.792114 0.413177
0.852264 0.839447 0.442902
0.944519 0.857178 0.487915
0.993713 0.855438 0.458069
0.999969 0.854614 0.488556
1.000000 0.855560 0.560333
1.000000 0.843719 0.645874
0.000000 0.783051 0.780731
0.002106 0.785645 0.775635
0.002289 0.787354 0.774200
0.003387 0.788574 0.773163
0.006927 0.789734 0.772247
0.012665 0.791473 0.770782
0.022491 0.794373 0.768127
0.046143 0.798798 0.763672
0.106934 0.805725 0.755341
0.256378 0.815948 0.738708
0.459015 0.828278 0.690552
0.752563 0.858246 0.554199
0.915131 0.897461 0.585938
0.979767 0.912689 0.627411
0.999969 0.908936 0.604248
1.000000 0.910156 0.631744
1.000000 0.914764 0.688538
0.228668 0.837280 0.841736
0.237762 0.839691 0.840668
0.247894 0.840790 0.840363
0.255951 0.841675 0.840179
0.266479 0.842529 0.839996
0.280304 0.843750 0.839874
0.303406 0.845825 0.839508
0.341309 0.849213 0.838867
0.398285 0.854614 0.837463
0.476807 0.863098 0.834076
0.561493 0.875031 0.823853
0.662231 0.888519 0.787445
0.831665 0.911835 0.684570
0.956757 0.941467 0.710999
0.995300 0.953156 0.741699
1.000000 0.948456 0.725677
1.000000 0.951843 0.747742
0.574829 0.892456 0.906433
0.574585 0.892456 0.904449
0.578827 0.893219 0.904602
0.581879 0.893768 0.904724
0.584839 0.894318 0.904755
0.589050 0.895111 0.904877
0.595154 0.896332 0.904999
0.605072 0.898254 0.905121
0.620819 0.901459 0.905182
0.644958 0.906494 0.904877
0.679016 0.914001 0.903229
0.721680 0.923920 0.896088
0.773895 0.934967 0.867767
0.892517 0.951874 0.784058
0.980957 0.971466 0.805786
0.999786 0.977997 0.830902
1.000000 0.975311 0.820618
0.729431 0.934357 0.950531
0.732056 0.935059 0.950745
0.733154 0.935394 0.950836
0.734070 0.935638 0.950958
0.734924 0.935852 0.951019
0.736237 0.936249 0.951111
0.738251 0.936829 0.951263
0.741241 0.937653 0.951447
0.746338 0.939117 0.951752
0.754517 0.941437 0.952148
0.767365 0.945099 0.952454
0.787018 0.950714 0.952271
0.813171 0.957947 0.949738
0.849579 0.966064 0.931793
0.938568 0.977356 0.869263
0.994781 0.989349 0.888062
1.000000 0.991333 0.906952
0.024933 0.029755 0.036224
0.025635 0.029816 0.035278
0.067719 0.038055 0.059235
0.095276 0.042999 0.075348
0.129791 0.044983 0.085144
0.178650 0.047455 0.095856
0.243469 0.047424 0.111084
0.339935 0.032104 0.130798
0.462128 0.001587 0.163330
0.579803 0.000427 0.210999
0.677094 0.009186 0.267548
0.744904 0.084320 0.341125
0.800262 0.200378 0.438141
0.852570 0.333374 0.550781
0.903076 0.489105 0.664886
0.947693 0.655487 0.762726
0.974243 0.763458 0.839172
0.024963 0.029724 0.034637
0.024963 0.029724 0.035339
0.029175 0.031097 0.038483
0.064941 0.038300 0.045715
0.091766 0.044861 0.049805
0.147186 0.049927 0.058044
0.221222 0.055359 0.068695
0.322449 0.050507 0.083923
0.448853 0.021545 0.106750
0.571503 0.010681 0.152649
0.673584 0.033813 0.222412
0.745789 0.103516 0.310822
0.801270 0.210449 0.416748
0.853333 0.340057 0.537231
0.903320 0.494202 0.656891
0.947052 0.654602 0.757538
0.974548 0.764404 0.837402
0.024414 0.031860 0.037262
0.024811 0.030487 0.035614
0.025269 0.030121 0.035095
0.043854 0.034821 0.038025
0.079163 0.042664 0.040741
0.129608 0.050232 0.041565
0.209167 0.057312 0.040985
0.312653 0.055084 0.048889
0.442535 0.030518 0.076172
0.567749 0.017426 0.121063
0.672394 0.042664 0.195526
0.746246 0.110291 0.293579
0.801880 0.214569 0.405457
0.853973 0.342529 0.530518
0.903809 0.496033 0.653320
0.947327 0.655548 0.755920
0.974670 0.764923 0.836670
0.006409 0.048553 0.053711
0.017548 0.041809 0.046295
0.022736 0.039307 0.041992
0.034302 0.040344 0.039673
0.066803 0.046112 0.037842
0.115082 0.053589 0.035919
0.195679 0.058746 0.029358
0.303589 0.057922 0.020660
0.437439 0.038239 0.033081
0.564789 0.023956 0.092651
0.671722 0.049866 0.172150
0.746521 0.114960 0.278748
0.802307 0.217438 0.396332
0.854462 0.344421 0.525146
0.904144 0.497437 0.650543
0.947540 0.656250 0.754700
0.974792 0.765228 0.836090
0.000000 0.070129 0.078583
0.000854 0.063293 0.061005
0.004242 0.059479 0.052246
0.020020 0.056915 0.045410
0.062408 0.063507 0.046967
0.115204 0.072815 0.042786
0.201965 0.079010 0.033569
0.304474 0.075653 0.008209
0.434082 0.059357 0.000977
0.562378 0.034393 0.049530
0.670837 0.056000 0.145935
0.746765 0.119232 0.262329
0.802765 0.220123 0.386719
0.854950 0.346069 0.519562
0.904510 0.498749 0.647675
0.947754 0.656952 0.753540
0.974915 0.765564 0.835541
0.000000 0.098999 0.112427
0.000000 0.092438 0.088470
0.000000 0.088501 0.071289
0.000336 0.085114 0.058533
0.033966 0.087769 0.054688
0.109711 0.101562 0.054688
0.208771 0.113251 0.042511
0.327087 0.118744 0.010712
0.462799 0.113983 0.000031
0.566772 0.082916 0.001465
0.669037 0.063965 0.095032
0.746948 0.124756 0.232544
0.803375 0.223877 0.370544
0.855652 0.348663 0.510559
0.905060 0.500671 0.643036
0.948120 0.658020 0.751617
0.975098 0.766083 0.834564
0.000000 0.152344 0.155701
0.000000 0.144287 0.127380
0.000000 0.140442 0.108978
0.000000 0.136566 0.088348
0.000061 0.132599 0.068878
0.075806 0.146210 0.061981
0.201996 0.168152 0.054138
0.343323 0.183105 0.015320
0.500824 0.188782 0.000336
0.620483 0.173370 0.001526
0.683044 0.121399 0.009277
0.746490 0.131836 0.165955
0.804260 0.229401 0.338928
0.856812 0.352600 0.493744
0.906067 0.503906 0.634857
0.948700 0.659790 0.748138
0.975281 0.766907 0.833160
0.000000 0.219452 0.217285
0.000000 0.215454 0.183990
0.000000 0.212769 0.164612
0.000000 0.210144 0.146515
0.000000 0.206329 0.121857
0.000031 0.203247 0.079773
0.155731 0.235901 0.063019
0.341064 0.267792 0.036194
0.526398 0.288391 0.002197
0.667908 0.290466 0.002014
0.740540 0.263733 0.008301
0.764618 0.200165 0.048615
0.805176 0.235413 0.264587
0.858643 0.358521 0.460114
0.907562 0.508972 0.619659
0.949646 0.662506 0.742035
0.975769 0.768158 0.830017
0.000000 0.309570 0.296265
0.000000 0.311829 0.267853
0.000000 0.311096 0.249329
0.000000 0.310181 0.232697
0.000000 0.308746 0.212769
0.000000 0.304443 0.173645
0.000336 0.306732 0.096527
0.292206 0.362610 0.060760
0.518890 0.402618 0.045685
0.694672 0.422638 0.006592
0.781219 0.413879 0.007935
0.821625 0.377594 0.043396
0.829926 0.313080 0.137268
0.861328 0.364685 0.380585
0.910187 0.516663 0.588440
0.951324 0.667053 0.730347
0.976562 0.770386 0.824646
0.000000 0.418732 0.392700
0.000000 0.424438 0.370667
0.000000 0.426483 0.357758
0.000000 0.427734 0.346161
0.000000 0.428864 0.332947
0.000000 0.429932 0.308289
0.000000 0.428162 0.250824
0.029602 0.438843 0.129364
0.460052 0.518005 0.097565
0.690796 0.559296 0.097534
0.803040 0.568848 0.032990
0.866547 0.557465 0.057831
0.894318 0.526733 0.146851
0.894897 0.465942 0.258911
0.914948 0.525177 0.507965
0.954071 0.673492 0.704987
0.978058 0.773956 0.814911
0.000000 0.529236 0.498444
0.000000 0.539215 0.483215
0.000000 0.542999 0.474579
0.000000 0.545776 0.467468
0.000000 0.548584 0.460052
0.000000 0.552704 0.447144
0.000000 0.558014 0.420837
0.000000 0.560028 0.353607
0.200623 0.580322 0.188171
0.644592 0.662781 0.183136
0.799591 0.693573 0.215271
0.889374 0.694031 0.158356
0.939270 0.686554 0.203033
0.959930 0.673035 0.294678
0.953461 0.632294 0.390869
0.959564 0.680603 0.634949
0.980347 0.779114 0.794739
0.000000 0.636169 0.609985
0.000000 0.644501 0.600067
0.000000 0.648315 0.595123
0.000000 0.651001 0.591125
0.000000 0.653625 0.587036
0.000000 0.657410 0.580078
0.000000 0.663208 0.566498
0.000031 0.670929 0.537750
0.003479 0.677307 0.463837
0.415680 0.706573 0.292480
0.767609 0.769073 0.310577
0.883606 0.789398 0.351471
0.956909 0.788239 0.321472
0.988983 0.786591 0.357941
0.994904 0.780518 0.432648
0.989502 0.755951 0.526184
0.984985 0.784851 0.740326
0.000000 0.717621 0.706940
0.000000 0.723358 0.700378
0.000000 0.725983 0.697723
0.000000 0.727875 0.695526
0.000000 0.729645 0.693420
0.000000 0.732391 0.689972
0.000000 0.736633 0.683746
0.000580 0.743103 0.671661
0.021118 0.751862 0.646210
0.141663 0.761169 0.580353
0.617523 0.791168 0.421783
0.850525 0.840088 0.448853
0.944183 0.857605 0.491699
0.993195 0.856812 0.468811
0.999939 0.856293 0.500763
1.000000 0.856628 0.569855
1.000000 0.844025 0.651215
0.000000 0.782532 0.781799
0.002014 0.785187 0.777008
0.002228 0.786865 0.775726
0.002441 0.788116 0.774689
0.005798 0.789276 0.773712
0.011688 0.791107 0.772217
0.021271 0.793945 0.769653
0.043854 0.798462 0.765381
0.101532 0.805450 0.757263
0.248230 0.815765 0.741058
0.454285 0.828491 0.695068
0.748108 0.857880 0.558899
0.914276 0.897858 0.589203
0.979584 0.912994 0.629395
0.999939 0.909882 0.609955
1.000000 0.911194 0.637787
1.000000 0.915344 0.692474
0.223389 0.836975 0.842102
0.234009 0.839294 0.841187
0.244629 0.840485 0.840942
0.252289 0.841339 0.840668
0.261383 0.842163 0.840546
0.275940 0.843475 0.840363
0.298706 0.845490 0.840027
0.336639 0.848877 0.839386
0.394470 0.854340 0.838043
0.474152 0.862854 0.834808
0.559509 0.874878 0.825043
0.660919 0.888580 0.789612
0.829529 0.911774 0.686829
0.956329 0.941681 0.712433
0.995239 0.953308 0.742615
1.000000 0.948914 0.728119
1.000000 0.952271 0.750061
0.573883 0.892334 0.906555
0.573090 0.892242 0.904602
0.577332 0.892975 0.904755
0.580505 0.893555 0.904846
0.583374 0.894073 0.904938
0.587646 0.894897 0.904999
0.594025 0.896118 0.905182
0.603851 0.898010 0.905334
0.619812 0.901245 0.905426
0.643982 0.906250 0.905121
0.678223 0.913818 0.903595
0.721161 0.923798 0.896637
0.773468 0.934998 0.868805
0.891602 0.951874 0.785095
0.980804 0.971558 0.806519
0.999725 0.978119 0.831451
1.000000 0.975494 0.821838
0.728973 0.934235 0.950623
0.731598 0.934937 0.950806
0.732727 0.935272 0.950836
0.733582 0.935547 0.950958
0.734467 0.935760 0.951019
0.735779 0.936127 0.951111
0.737823 0.936707 0.951263
0.741058 0.937622 0.951508
0.746155 0.939056 0.951782
0.754089 0.941315 0.952148
0.766998 0.945007 0.952484
0.786743 0.950653 0.952332
0.813019 0.957947 0.949951
0.849426 0.966064 0.932190
0.938171 0.977325 0.869690
0.994751 0.989380 0.888336
1.000000 0.991333 0.907043
0.023956 0.030701 0.049927
0.034027 0.030609 0.045959
0.067688 0.039185 0.067627
0.095367 0.043732 0.085327
0.130157 0.045563 0.095520
0.179626 0.047272 0.109375
0.244537 0.046997 0.125885
0.341034 0.028412 0.149170
0.463745 0.001068 0.181824
0.580872 0.000336 0.227081
0.677094 0.005341 0.279846
0.744232 0.077423 0.349884
0.799774 0.197662 0.444733
0.852142 0.331848 0.554596
0.902832 0.488068 0.667145
0.947510 0.654846 0.763641
0.974121 0.763123 0.839661
0.016022 0.032410 0.040100
0.024506 0.030334 0.044220
0.032257 0.031799 0.044373
