example/ios/rthlut1-33.cube
#LUT size
LUT_3D_SIZE 33
#LUT data points
0.024963 0.029724 0.034637
0.024963 0.029724 0.034637
0.029938 0.030945 0.035583
0.055847 0.035980 0.038055
0.076324 0.040527 0.039001
0.089844 0.043823 0.039703
0.105774 0.045593 0.040192
0.122345 0.046997 0.040283
0.142365 0.048615 0.039917
0.164581 0.050385 0.039276
0.189484 0.052551 0.038483
0.218384 0.054993 0.037811
0.254211 0.055511 0.037628
0.297760 0.053436 0.038818
0.349396 0.046112 0.047363
0.407074 0.031555 0.061005
0.466461 0.010498 0.078430
0.523712 0.007172 0.097198
0.580292 0.007690 0.122772
0.632385 0.016052 0.155670
0.678284 0.032074 0.197021
0.715637 0.062164 0.243500
0.747498 0.104523 0.294250
0.775543 0.153259 0.347931
0.802277 0.211731 0.405304
0.828644 0.273376 0.467682
0.854431 0.339691 0.531891
0.879791 0.412903 0.593658
0.904419 0.494080 0.654144
0.927612 0.579651 0.710327
0.948486 0.657990 0.758240
0.964172 0.717743 0.799042
0.974609 0.764557 0.836700
0.024963 0.029724 0.034637
0.024963 0.029724 0.034637
0.024963 0.029724 0.034637
0.027618 0.030609 0.034180
0.037323 0.034790 0.032715
0.058533 0.038574 0.031097
0.072571 0.042206 0.029938
0.082306 0.045563 0.029907
0.097839 0.048431 0.028992
0.120972 0.051056 0.027191
0.152008 0.053741 0.024414
0.184814 0.057098 0.019867
0.221588 0.060364 0.002838
0.270447 0.062927 0.000824
0.330841 0.063538 0.000366
0.395844 0.058655 0.000549
0.460907 0.052887 0.000000
0.517426 0.030426 0.007690
0.573730 0.021484 0.054749
0.627930 0.026581 0.097565
0.675934 0.047668 0.143097
0.715668 0.074463 0.200897
0.748138 0.113220 0.261536
0.776459 0.160767 0.322815
0.803131 0.217834 0.385284
0.829742 0.278198 0.451965
0.855530 0.343445 0.520172
0.880707 0.416199 0.585358
0.905243 0.497162 0.648010
0.928284 0.581970 0.706543
0.948975 0.659546 0.755890
0.964539 0.718842 0.797424
0.974823 0.765228 0.835358
0.024963 0.029724 0.034637
0.024963 0.029724 0.034637
0.024963 0.029724 0.034637
0.024963 0.029724 0.034637
0.030792 0.032593 0.032349
0.038910 0.036102 0.030579
0.058472 0.040070 0.030914
0.071350 0.043335 0.030579
0.083313 0.047119 0.030670
0.103088 0.050720 0.029480
0.133972 0.054077 0.027008
0.170929 0.057800 0.023132
0.210388 0.062103 0.010071
0.257782 0.066498 0.000671
0.316162 0.070099 0.000000
0.383423 0.072144 0.000000
0.456635 0.070831 0.000000
0.519989 0.065552 0.000000
0.574463 0.045349 0.008972
0.625854 0.030792 0.067657
0.674652 0.052399 0.117218
0.715393 0.078827 0.178772
0.748322 0.116547 0.245575
0.776825 0.163727 0.310974
0.803589 0.220001 0.376129
0.830170 0.279846 0.444580
0.855957 0.344757 0.514832
0.881104 0.417450 0.581665
0.905548 0.498047 0.645203
0.928589 0.583008 0.704620
0.949219 0.660217 0.754852
0.964661 0.719147 0.796600
0.974915 0.765564 0.834839
0.024963 0.029724 0.034637
0.024963 0.029724 0.034637
0.024963 0.029724 0.034637
0.024963 0.029724 0.034637
0.027008 0.030884 0.033325
0.031738 0.034363 0.030334
0.042969 0.038086 0.031189
0.060516 0.041443 0.031342
0.075134 0.045288 0.031128
0.089905 0.049896 0.031189
0.118195 0.053955 0.028809
0.158630 0.058624 0.025360
0.200653 0.063538 0.016449
0.248535 0.068359 0.001099
0.308136 0.072784 0.000000
0.376892 0.077515 0.000000
0.446564 0.082672 0.000000
0.518829 0.081512 0.000000
0.578156 0.076172 0.000000
0.625977 0.044189 0.027039
0.673340 0.054901 0.094391
0.715179 0.082001 0.159668
0.748413 0.118927 0.231445
0.777008 0.165802 0.301147
0.803864 0.221619 0.368866
0.830475 0.281189 0.438904
0.856293 0.345917 0.510559
0.881348 0.418274 0.578522
0.905823 0.499054 0.643219
0.928802 0.583740 0.703033
0.949341 0.660675 0.753937
0.964813 0.719543 0.796112
0.975006 0.765930 0.834442
0.024231 0.032623 0.036377
0.024963 0.029724 0.034637
0.024963 0.029724 0.034637
0.024963 0.029724 0.034637
0.024963 0.029724 0.034637
0.030487 0.033020 0.030762
0.035095 0.036591 0.031036
0.048187 0.039795 0.031708
0.066315 0.043671 0.031677
0.082672 0.048462 0.031738
0.106934 0.053986 0.030334
0.146942 0.059174 0.027039
0.191376 0.064484 0.021729
0.239929 0.069672 0.001495
0.301086 0.076294 0.000000
0.371918 0.082306 0.000000
0.444183 0.087952 0.000000
0.512299 0.092224 0.000000
0.578583 0.087708 0.000000
0.630371 0.070160 0.007904
0.672272 0.055725 0.071411
0.714722 0.084259 0.141693
0.748383 0.120667 0.218353
0.777100 0.167358 0.292023
0.804077 0.223114 0.362335
0.830658 0.282288 0.433960
0.856598 0.346863 0.506805
0.881592 0.419098 0.576050
0.906067 0.499786 0.641357
0.928925 0.584259 0.701782
0.949463 0.661072 0.753113
0.964874 0.719757 0.795593
0.975098 0.766083 0.834167
0.022827 0.039612 0.042572
0.026062 0.036530 0.037354
0.027100 0.035522 0.036407
0.027283 0.034393 0.035828
0.027161 0.033142 0.035431
0.029388 0.033997 0.033203
0.031738 0.036011 0.031067
0.038971 0.038605 0.031860
0.057404 0.042084 0.032104
0.076385 0.047241 0.032013
0.097198 0.053650 0.031677
0.135681 0.059418 0.028473
0.182892 0.065125 0.023224
0.232697 0.071747 0.003601
0.294098 0.079529 0.000000
0.367004 0.086151 0.000000
0.441711 0.092255 0.000000
0.509430 0.097656 0.000000
0.578186 0.098419 0.000000
0.634460 0.091003 0.000000
0.673126 0.063232 0.048401
0.714264 0.085907 0.126160
0.748322 0.122223 0.205841
0.777222 0.168671 0.283447
0.804260 0.224304 0.356445
0.830994 0.283386 0.429382
0.856842 0.347565 0.503571
0.881927 0.419952 0.573853
0.906250 0.500519 0.639648
0.929138 0.584991 0.700714
0.949646 0.661499 0.752411
0.964996 0.720062 0.795258
0.975128 0.766266 0.833801
0.011414 0.048889 0.047180
0.027405 0.042999 0.040009
0.031403 0.041626 0.038879
0.032043 0.040558 0.038086
0.032471 0.039490 0.037476
0.032898 0.039581 0.037811
0.036285 0.041809 0.036865
0.042450 0.043518 0.033844
0.059052 0.046844 0.033813
0.076843 0.051453 0.033539
0.094330 0.056671 0.033142
0.128845 0.061615 0.029968
0.174652 0.065948 0.024506
0.226379 0.073669 0.007111
0.288147 0.082123 0.000122
0.362335 0.089355 0.000000
0.439301 0.095825 0.000000
0.509064 0.101440 0.000000
0.573151 0.105042 0.000000
0.636108 0.102386 0.000000
0.675171 0.075043 0.023621
0.713745 0.087280 0.110596
0.748291 0.123505 0.193848
0.777344 0.169952 0.275299
0.804474 0.225189 0.350616
0.831207 0.284241 0.425140
0.857056 0.348328 0.500549
0.882111 0.420593 0.571716
0.906403 0.500946 0.638062
0.929230 0.585236 0.699738
0.949799 0.661957 0.751709
0.965027 0.720245 0.794708
0.975159 0.766388 0.833527
0.001953 0.058807 0.051117
0.016907 0.052765 0.042267
0.027771 0.050323 0.040955
0.031219 0.048157 0.039886
0.034088 0.046295 0.038971
0.036224 0.045349 0.038269
0.040253 0.047516 0.040924
0.047668 0.050751 0.039154
0.061646 0.054016 0.035339
0.077942 0.059570 0.035156
0.096191 0.065918 0.034149
0.130768 0.071411 0.031219
0.177734 0.076050 0.024628
0.225677 0.079956 0.009033
0.282654 0.084106 0.000305
0.357300 0.092133 0.000000
0.436920 0.098846 0.000000
0.508606 0.104828 0.000000
0.570374 0.109497 0.000000
0.635681 0.108002 0.000000
0.678192 0.088440 0.006958
0.713257 0.088562 0.093781
0.748230 0.124786 0.181793
0.777405 0.171021 0.267303
0.804535 0.225891 0.345062
0.831360 0.284851 0.421082
0.857269 0.349060 0.497742
0.882294 0.421173 0.569794
0.906586 0.501709 0.636688
0.929413 0.585724 0.698761
0.949860 0.662140 0.751129
0.965118 0.720428 0.794312
0.975250 0.766571 0.833313
0.000000 0.069183 0.056519
0.004425 0.063110 0.045532
0.015198 0.061279 0.043427
0.024353 0.059692 0.041901
0.032349 0.058228 0.040833
0.036194 0.056824 0.040131
0.044098 0.057983 0.040588
0.054901 0.061340 0.042969
0.066071 0.064789 0.041107
0.079742 0.068665 0.036835
0.098572 0.075195 0.035828
0.133331 0.081268 0.032715
0.181519 0.086700 0.025421
0.231720 0.091949 0.009552
0.288818 0.096497 0.000366
0.355591 0.097839 0.000000
0.433899 0.102295 0.000000
0.507935 0.108612 0.000000
0.570984 0.113708 0.000000
0.634796 0.116974 0.000000
0.684326 0.109467 0.000519
0.713989 0.095001 0.073761
0.747986 0.126007 0.166046
0.777435 0.172180 0.257172
0.804779 0.226959 0.338318
0.831543 0.285889 0.416138
0.857544 0.349731 0.494141
0.882446 0.421753 0.567261
0.906738 0.502167 0.634949
0.929565 0.586212 0.697449
0.949982 0.662567 0.750305
0.965210 0.720581 0.793762
0.975281 0.766724 0.832977
0.000000 0.079529 0.064178
0.000183 0.073730 0.049561
0.002197 0.072510 0.046753
0.012329 0.071503 0.044617
0.027679 0.070465 0.043365
0.040100 0.069672 0.042236
0.048920 0.068817 0.041290
0.061920 0.072205 0.042633
0.073303 0.076630 0.044891
0.085419 0.080750 0.042877
0.101868 0.085114 0.037842
0.136810 0.091736 0.034546
0.185730 0.097870 0.026550
0.237762 0.104156 0.010376
0.297241 0.110413 0.000397
0.366486 0.114014 0.000000
0.439117 0.114044 0.000000
0.506561 0.113281 0.000000
0.571381 0.118652 0.000000
0.628571 0.122955 0.000000
0.687408 0.122772 0.000000
0.715485 0.103271 0.043579
0.747620 0.127502 0.143860
0.777466 0.173492 0.242798
0.805023 0.228210 0.328918
0.831909 0.286926 0.409393
0.857880 0.350861 0.489502
0.882751 0.422852 0.564209
0.907013 0.503143 0.632782
0.929779 0.586975 0.695862
0.950134 0.662994 0.749359
0.965363 0.720947 0.793152
0.975311 0.766876 0.832550
0.000000 0.096222 0.073700
0.000000 0.088562 0.055481
0.000000 0.086609 0.050964
0.003998 0.085052 0.048370
0.014313 0.083557 0.046783
0.037598 0.082489 0.045441
0.056122 0.082001 0.043823
0.065735 0.082886 0.043060
0.079224 0.087494 0.044464
0.092438 0.093201 0.046478
0.109558 0.098846 0.044220
0.140869 0.103882 0.036194
0.190155 0.111481 0.026672
0.243805 0.119110 0.009369
0.305542 0.126678 0.000336
0.377594 0.131836 0.000000
0.454132 0.133179 0.000000
0.520691 0.131165 0.000000
0.571625 0.124359 0.000000
0.630005 0.128937 0.000000
0.686554 0.134094 0.000000
0.720490 0.121765 0.000488
0.748199 0.133087 0.117706
0.777435 0.175232 0.221588
0.805237 0.229584 0.316040
0.832153 0.288025 0.400360
0.858246 0.352081 0.483124
0.883087 0.423767 0.559906
0.907288 0.504059 0.629730
0.930115 0.588013 0.693939
0.950348 0.663666 0.748077
0.965485 0.721283 0.792328
0.975403 0.767212 0.832031
0.000000 0.119446 0.089203
0.000000 0.111176 0.064880
0.000000 0.108154 0.056732
0.001160 0.106567 0.053619
0.009918 0.104858 0.050476
0.031891 0.103516 0.048706
0.050323 0.102356 0.047058
0.063049 0.101807 0.044891
0.078918 0.103943 0.044281
0.094727 0.110931 0.045410
0.117798 0.118835 0.047058
0.149750 0.126343 0.043610
0.194153 0.131104 0.023804
0.249847 0.141296 0.004608
0.314148 0.151489 0.000000
0.388763 0.158508 0.000000
0.468750 0.161530 0.000000
0.540161 0.161041 0.000000
0.593170 0.154694 0.000000
0.634064 0.139648 0.000000
0.681213 0.144165 0.000000
0.729614 0.151520 0.000000
0.749695 0.143616 0.076630
0.777222 0.176941 0.190338
0.805511 0.231049 0.297241
0.832611 0.289764 0.388062
0.858734 0.353546 0.473938
0.883575 0.425385 0.554291
0.907684 0.505493 0.625763
0.930389 0.588928 0.691193
0.950592 0.664246 0.746368
0.965698 0.721771 0.791199
0.975494 0.767517 0.831116
0.000000 0.146698 0.109100
0.000000 0.138397 0.074585
0.000000 0.134674 0.065399
0.000000 0.134979 0.061401
0.001343 0.134308 0.057281
0.010132 0.133484 0.052979
0.027527 0.132935 0.049683
0.048584 0.132385 0.047607
0.069366 0.131287 0.044861
0.088165 0.135834 0.043640
0.117950 0.145325 0.042877
0.157623 0.155853 0.043457
0.205353 0.165405 0.035339
0.255585 0.170959 0.001526
0.322266 0.184204 0.000000
0.399841 0.194244 0.000000
0.483765 0.200623 0.000000
0.559540 0.202728 0.000000
0.615784 0.198273 0.000000
0.658966 0.185425 0.000000
0.689728 0.164154 0.000000
0.725250 0.166901 0.000000
0.755524 0.164886 0.006042
0.778778 0.186646 0.149048
0.805725 0.232422 0.269165
0.833160 0.291687 0.370605
0.859314 0.355438 0.461456
0.884247 0.427063 0.546570
0.908264 0.507355 0.620392
0.930847 0.590424 0.687714
0.950958 0.665283 0.744171
0.965973 0.722443 0.789703
0.975739 0.768005 0.829987
0.000000 0.176819 0.132812
0.000000 0.169250 0.094971
0.000000 0.165466 0.077393
0.000000 0.164062 0.070587
0.000061 0.165466 0.066956
0.000000 0.165985 0.061981
0.003845 0.166199 0.057007
0.019897 0.166504 0.052582
0.043640 0.166351 0.047485
0.071289 0.166199 0.043396
0.108276 0.173767 0.039551
0.156891 0.186035 0.035217
0.212921 0.199066 0.033173
0.269989 0.211578 0.017242
0.330170 0.218628 0.000000
0.410034 0.231720 0.000000
0.497772 0.241272 0.000000
0.578003 0.246582 0.000000
0.637939 0.246490 0.000000
0.683350 0.238922 0.000000
0.716034 0.223969 0.000000
0.734985 0.200378 0.000000
0.765137 0.200470 0.000000
0.781036 0.199829 0.083893
0.806305 0.235291 0.225128
0.833679 0.293030 0.344391
0.860107 0.357666 0.444092
0.884949 0.429260 0.534821
0.908905 0.509399 0.613129
0.931458 0.592346 0.682983
0.951385 0.666565 0.741272
0.966217 0.723114 0.787750
0.975922 0.768433 0.828552
0.000000 0.212769 0.161072
0.000000 0.205780 0.126068
0.000000 0.202454 0.105011
0.000000 0.199402 0.086609
0.000000 0.197632 0.076233
0.000000 0.200165 0.072906
0.000000 0.201813 0.068756
0.000000 0.203308 0.064697
0.000031 0.204620 0.058044
0.032196 0.205902 0.048248
0.082825 0.206299 0.037140
0.142639 0.217926 0.026245
0.211395 0.233398 0.016907
0.277924 0.250031 0.008301
0.346741 0.266968 0.000000
0.425018 0.277588 0.000000
0.509521 0.284241 0.000000
0.594727 0.292969 0.000000
0.658417 0.296265 0.000000
0.705872 0.292755 0.000000
0.740173 0.282715 0.000000
0.761658 0.266113 0.000000
0.771637 0.240692 0.000000
0.795044 0.234375 0.000000
0.809784 0.248291 0.162170
0.834259 0.293945 0.303192
0.860992 0.359985 0.418701
0.885925 0.431915 0.518219
0.909821 0.511871 0.602905
0.932312 0.594757 0.676575
0.951996 0.668213 0.737366
0.966644 0.724121 0.785278
0.976166 0.769257 0.826813
0.000000 0.255707 0.196747
0.000000 0.250916 0.162231
0.000000 0.248169 0.145508
0.000000 0.245422 0.128693
0.000000 0.242493 0.110840
0.000000 0.240021 0.093842
0.000000 0.239990 0.083344
0.000000 0.242859 0.077606
0.000031 0.246124 0.070251
0.000061 0.249725 0.061859
0.000000 0.252869 0.050262
0.094116 0.254974 0.019928
0.191528 0.271942 0.007874
0.274323 0.292969 0.000031
0.352814 0.314331 0.001099
0.434113 0.332031 0.000000
0.529480 0.345428 0.000000
0.608826 0.347198 0.000000
0.675781 0.352570 0.000000
0.725403 0.352539 0.000000
0.761444 0.345703 0.000000
0.786163 0.333221 0.000000
0.803986 0.316589 0.000000
0.814758 0.292053 0.000000
0.813507 0.261078 0.011414
0.838257 0.304413 0.242584
0.862030 0.362152 0.379700
0.887238 0.435150 0.493866
0.911041 0.515167 0.588409
0.933289 0.597504 0.667267
0.952667 0.670044 0.732086
0.967194 0.725464 0.781891
0.976532 0.770172 0.824371
0.000000 0.306061 0.243042
0.000000 0.304108 0.208679
0.000000 0.302460 0.192078
0.000000 0.300507 0.177094
0.000000 0.298462 0.163879
0.000000 0.296631 0.151215
0.000000 0.294403 0.137115
0.000000 0.292023 0.121155
0.000000 0.289032 0.099854
0.000000 0.295441 0.086487
0.000000 0.302490 0.068481
0.023041 0.309052 0.039917
0.117584 0.315186 0.007660
0.247101 0.340454 0.000031
0.343445 0.367035 0.000092
0.434784 0.388824 0.002533
0.528931 0.405579 0.002838
0.629791 0.424286 0.000000
0.699677 0.430603 0.000000
0.746155 0.427795 0.000000
0.783051 0.421722 0.000000
0.814270 0.415955 0.000000
0.837555 0.404694 0.000000
0.850159 0.381012 0.000000
0.850372 0.343781 0.000000
0.842682 0.316132 0.119080
0.865692 0.370300 0.320618
0.888824 0.438141 0.454926
0.912567 0.518921 0.567047
0.934601 0.600739 0.653717
0.953705 0.672668 0.724915
0.967896 0.727051 0.777496
0.977020 0.771454 0.821136
0.000000 0.361328 0.296631
0.000000 0.361633 0.266632
0.000000 0.361237 0.251404
0.000000 0.360626 0.238068
0.000000 0.359741 0.225037
0.000000 0.358826 0.212341
0.000000 0.357697 0.201385
0.000000 0.356323 0.190094
0.000000 0.354340 0.174927
0.000000 0.351685 0.154541
0.000000 0.347992 0.120941
0.000000 0.360596 0.097595
0.010498 0.371460 0.045898
0.177521 0.384796 0.001251
0.309113 0.418549 0.000000
0.419525 0.446716 0.002838
0.524353 0.466583 0.004700
0.622101 0.484589 0.009369
0.711426 0.508484 0.000000
0.766418 0.515381 0.000000
0.809052 0.513855 0.000000
0.843201 0.508148 0.000000
0.868439 0.498047 0.000000
0.884064 0.478973 0.000000
0.885315 0.444336 0.000000
0.871918 0.392731 0.008911
0.872101 0.383362 0.208832
0.892395 0.445984 0.395355
0.914795 0.522675 0.530487
0.936249 0.604248 0.633759
0.955017 0.675385 0.712921
0.968781 0.729187 0.771515
0.977631 0.772980 0.816895
0.000000 0.417755 0.353577
0.000000 0.419647 0.329254
0.000000 0.420563 0.316956
0.000000 0.420807 0.306274
0.000000 0.420837 0.296448
0.000000 0.420654 0.286896
0.000000 0.420776 0.277618
0.000000 0.420532 0.268219
0.000000 0.420105 0.256348
0.000000 0.419281 0.239502
0.000000 0.417297 0.214386
0.000000 0.413513 0.178528
0.000000 0.419281 0.138733
0.033875 0.435425 0.087860
0.218567 0.454895 0.012665
0.375763 0.492737 0.001312
0.502411 0.521820 0.015686
0.615112 0.542633 0.009277
0.699036 0.560822 0.033447
0.767792 0.579102 0.000000
0.821136 0.589233 0.000000
0.865417 0.590851 0.000000
0.895325 0.583832 0.000000
0.912445 0.567871 0.000000
0.917023 0.542755 0.000061
0.909302 0.506836 0.001770
0.899353 0.466034 0.114594
0.900635 0.463074 0.293396
0.918579 0.528229 0.468964
0.938568 0.607849 0.601929
0.956604 0.678406 0.695190
0.969940 0.731445 0.761688
0.978455 0.774994 0.811249
0.000000 0.473969 0.411987
0.000000 0.478241 0.392517
0.000000 0.479919 0.383453
0.000000 0.481445 0.375793
0.000000 0.482574 0.368652
0.000000 0.483246 0.361908
0.000000 0.483765 0.355530
0.000000 0.484222 0.349121
0.000000 0.484467 0.341125
0.000000 0.484894 0.329712
0.000000 0.485046 0.313171
0.000000 0.484467 0.287903
0.000000 0.482056 0.248169
0.000000 0.476654 0.183441
0.046326 0.499115 0.137207
0.281006 0.521362 0.044373
0.448578 0.560669 0.031250
0.590240 0.591919 0.045593
0.691895 0.612793 0.059082
0.755371 0.628113 0.070801
0.813293 0.636932 0.000000
0.866364 0.644775 0.000000
0.905701 0.644897 0.000000
0.929443 0.636536 0.000000
0.940369 0.621765 0.000000
0.941162 0.601959 0.024078
0.937256 0.580505 0.132111
0.931641 0.552307 0.228790
0.928894 0.548767 0.372406
0.942230 0.610870 0.543976
0.958862 0.681366 0.666290
0.971436 0.734070 0.746826
0.979462 0.777222 0.802643
0.000000 0.531586 0.471039
0.000000 0.537842 0.455994
0.000000 0.540283 0.449097
0.000000 0.541962 0.443420
0.000000 0.543518 0.438385
0.000000 0.545044 0.433929
0.000000 0.546265 0.429535
0.000000 0.547272 0.425232
0.000000 0.548401 0.419800
0.000000 0.549774 0.412445
0.000000 0.551117 0.402191
0.000000 0.552490 0.387299
0.000000 0.552948 0.363342
0.000000 0.551544 0.324524
0.000031 0.545563 0.253632
0.084564 0.565125 0.186096
0.342926 0.590515 0.099243
0.530396 0.630524 0.096497
0.668976 0.660126 0.097046
0.748901 0.679688 0.146790
0.802765 0.690765 0.165466
0.854919 0.690857 0.054840
0.902161 0.694824 0.012177
0.934631 0.692719 0.004669
0.952301 0.684296 0.009796
0.958862 0.671722 0.038177
0.965729 0.665070 0.161652
0.966339 0.654358 0.252625
0.959808 0.633026 0.323639
0.953400 0.629669 0.449280
0.962280 0.683228 0.614716
0.973511 0.736877 0.722382
0.980774 0.779755 0.789551
0.000000 0.587769 0.532379
0.000000 0.595032 0.521179
0.000000 0.597748 0.516052
0.000000 0.599854 0.511932
0.000000 0.601532 0.508087
0.000000 0.602875 0.504822
0.000000 0.604126 0.501495
0.000000 0.605377 0.498474
0.000000 0.606720 0.494415
0.000000 0.608154 0.488953
0.000000 0.610107 0.481750
0.000000 0.612335 0.471741
0.000000 0.614838 0.457397
0.000000 0.616821 0.435028
0.000000 0.617004 0.398468
0.000000 0.612732 0.331818
0.136749 0.628479 0.246521
0.413849 0.657318 0.166656
0.616638 0.695923 0.172974
0.730286 0.720734 0.189117
0.795898 0.736664 0.228058
0.847839 0.745544 0.252197
0.895447 0.742859 0.172577
0.932770 0.740936 0.102905
0.958618 0.738525 0.100006
0.975464 0.735168 0.152496
0.984833 0.731934 0.221039
0.988098 0.727509 0.284729
0.987518 0.719116 0.347992
0.980194 0.701080 0.409271
0.972351 0.697052 0.526245
0.976807 0.739136 0.676453
0.982666 0.782593 0.768707
0.000000 0.639954 0.594788
0.000000 0.646301 0.586365
0.000000 0.648712 0.582489
0.000000 0.650482 0.579285
0.000000 0.651947 0.576569
0.000000 0.653229 0.574066
0.000000 0.654358 0.571686
0.000000 0.655396 0.569489
0.000000 0.656586 0.566803
0.000000 0.658081 0.563141
0.000000 0.659943 0.557892
0.000000 0.662048 0.550537
0.000000 0.664581 0.540161
0.000000 0.667419 0.525055
0.000000 0.670532 0.503265
0.000000 0.672852 0.467834
0.000000 0.672150 0.405853
0.215118 0.684448 0.315247
0.495972 0.713165 0.241791
0.690094 0.748505 0.251465
0.777618 0.768402 0.274719
0.839325 0.781464 0.306946
0.887787 0.789703 0.330109
0.930939 0.786957 0.280487
0.962372 0.784363 0.252045
0.983978 0.783539 0.254242
0.995453 0.782532 0.282990
0.997925 0.780579 0.324127
0.999054 0.777985 0.375397
0.998962 0.772614 0.431763
0.993530 0.757172 0.489319
0.985687 0.751038 0.597656
0.985718 0.784882 0.729553
0.000000 0.682922 0.649109
0.000000 0.688263 0.643188
0.000000 0.690338 0.640472
0.000000 0.691895 0.638336
0.000000 0.693176 0.636414
0.000000 0.694305 0.634735
0.000000 0.695343 0.633087
0.000000 0.696167 0.631622
0.000000 0.697266 0.629761
0.000000 0.698578 0.627258
0.000000 0.700226 0.624054
0.000000 0.702362 0.619659
0.000000 0.705017 0.613495
0.000000 0.707977 0.603882
0.000061 0.711517 0.589966
0.000122 0.715363 0.569336
0.003021 0.718872 0.535553
0.048004 0.720551 0.476685
0.303406 0.729767 0.386047
0.583008 0.757568 0.319427
0.742828 0.789185 0.332397
0.819336 0.806396 0.354706
0.878235 0.818573 0.383911
0.920929 0.826141 0.406281
0.958130 0.823151 0.367493
0.984985 0.821747 0.350677
0.998352 0.821411 0.355560
0.999847 0.820343 0.376923
1.000000 0.819763 0.413086
1.000000 0.819244 0.458801
0.999969 0.816467 0.510895
0.999512 0.803741 0.565125
0.993347 0.795959 0.658691
0.000000 0.720062 0.698334
0.000000 0.724213 0.693787
0.000000 0.725922 0.691742
0.000000 0.727264 0.690186
0.000000 0.728271 0.688751
0.000000 0.729248 0.687500
0.000000 0.730103 0.686340
0.000000 0.730865 0.685272
0.000000 0.731750 0.683990
0.000000 0.732910 0.682190
0.000000 0.734253 0.679779
0.000000 0.736206 0.676697
0.000000 0.738373 0.672577
0.000000 0.741150 0.666931
0.000000 0.744537 0.658722
0.000000 0.748322 0.646820
0.000000 0.752655 0.629150
0.045563 0.756958 0.600586
0.179565 0.760223 0.549011
0.396759 0.766357 0.455505
0.659149 0.794983 0.395081
0.785065 0.823486 0.409424
0.857819 0.839417 0.430420
0.910278 0.850891 0.458191
0.946747 0.857452 0.480042
0.978394 0.855286 0.447998
0.997894 0.854492 0.436462
1.000000 0.852722 0.440918
1.000000 0.852509 0.461609
1.000000 0.853638 0.496552
1.000000 0.854797 0.540192
1.000000 0.853577 0.586884
1.000000 0.842926 0.632355
0.000000 0.753204 0.740753
0.000000 0.756683 0.737610
0.000000 0.758057 0.736176
0.000000 0.759094 0.735077
0.000000 0.760010 0.734222
0.000000 0.760742 0.733368
0.000000 0.761475 0.732574
0.000000 0.762024 0.731903
0.000000 0.762787 0.731049
0.000000 0.763763 0.729797
0.000000 0.764984 0.728394
0.000000 0.766479 0.726288
0.000000 0.768372 0.723785
0.000000 0.770874 0.720215
0.000000 0.773804 0.715332
0.015411 0.777222 0.708405
0.051971 0.781128 0.698151
0.110291 0.785645 0.682892
0.210480 0.790802 0.659943
0.337769 0.795380 0.618805
0.494049 0.799530 0.525635
0.717133 0.828827 0.469727
0.824310 0.854736 0.484375
0.891144 0.869904 0.505249
0.936005 0.880035 0.532074
0.966675 0.886383 0.553986
0.992401 0.884796 0.526306
0.999939 0.882385 0.515961
1.000000 0.880920 0.522095
1.000000 0.881958 0.543457
1.000000 0.884155 0.576508
1.000000 0.885925 0.614746
1.000000 0.884827 0.652924
0.000000 0.784302 0.778046
0.000061 0.787140 0.775818
0.000061 0.788269 0.774872
0.000275 0.789093 0.774139
0.000519 0.789734 0.773499
0.000763 0.790344 0.772858
0.000977 0.790833 0.772369
0.001190 0.791290 0.771820
0.001404 0.791809 0.771179
0.001709 0.792542 0.770416
0.002106 0.793457 0.769409
0.002563 0.794647 0.768005
0.003174 0.796173 0.766205
0.003784 0.797943 0.763916
0.004639 0.800385 0.760803
0.005524 0.803253 0.756500
0.036102 0.807007 0.751587
0.137054 0.811676 0.745087
0.268768 0.817291 0.734467
0.388641 0.823608 0.716888
0.473877 0.829132 0.681580
0.586731 0.832062 0.596588
0.762665 0.860199 0.544189
0.860382 0.884216 0.559357
0.918640 0.898010 0.580414
0.956512 0.906982 0.604919
0.981415 0.913483 0.624969
0.998718 0.911377 0.601929
1.000000 0.908112 0.593597
