example/ios/rthlut1-33.cube
#LUT size
LUT_3D_SIZE 5
#LUT data points
0.024963 0.029724 0.034637
0.142365 0.048615 0.039917
0.466461 0.010498 0.078430
0.802277 0.211731 0.405304
0.974609 0.764557 0.836700
0.000000 0.069183 0.056519
0.066071 0.064789 0.041107
0.433899 0.102295 0.000000
0.804779 0.226959 0.338318
0.975281 0.766724 0.832977
0.000000 0.306061 0.243042
0.000000 0.289032 0.099854
0.528931 0.405579 0.002838
0.850372 0.343781 0.000000
0.977020 0.771454 0.821136
0.000000 0.720062 0.698334
0.000000 0.731750 0.683990
0.000000 0.752655 0.629150
0.946747 0.857452 0.480042
1.000000 0.842926 0.632355
0.730316 0.934570 0.950531
0.735840 0.936127 0.950958
0.747131 0.939362 0.951691
0.813690 0.958099 0.949371
1.000000 0.991302 0.906464
0.015594 0.031860 0.072662
0.130463 0.045776 0.106781
0.466248 0.000641 0.198792
0.799255 0.194885 0.450531
0.974030 0.762970 0.840210
0.000000 0.073334 0.093750
0.053802 0.066528 0.074432
0.434570 0.042908 0.079071
0.801910 0.215851 0.405182
0.974670 0.764923 0.836609
0.000000 0.310547 0.315399
0.000000 0.313385 0.251740
0.515717 0.403351 0.078613
0.828094 0.308258 0.199829
0.976379 0.769897 0.826050
0.000000 0.716492 0.710419
0.000000 0.728790 0.697937
0.017578 0.751740 0.653992
0.943665 0.858307 0.497162
1.000000 0.844543 0.659058
0.728271 0.933990 0.950531
0.734039 0.935638 0.951080
0.745544 0.938904 0.951782
0.812653 0.957855 0.950256
1.000000 0.991364 0.907318
0.000000 0.000000 0.261536
0.163635 0.000000 0.274994
0.490051 0.000244 0.354706
0.803894 0.205109 0.535706
0.972870 0.759033 0.848572
0.000000 0.088440 0.289429
0.000000 0.023560 0.288544
0.453644 0.014343 0.334503
0.806274 0.224304 0.515320
0.973389 0.761017 0.845245
0.000000 0.346588 0.440277
0.000000 0.353729 0.437622
0.477386 0.455505 0.450714
0.827454 0.312714 0.450684
0.975006 0.766113 0.836609
0.000000 0.712708 0.735809
0.000000 0.725769 0.727142
0.001801 0.751923 0.700684
0.940125 0.863586 0.537933
0.999207 0.845764 0.708923
0.723663 0.932739 0.950745
0.729218 0.934357 0.951202
0.741821 0.937866 0.952148
0.810028 0.957336 0.951630
1.000000 0.991547 0.909363
0.000000 0.000000 0.528015
0.012543 0.002228 0.522583
0.500275 0.000000 0.590607
0.823608 0.272919 0.723755
0.973053 0.766510 0.895721
0.000000 0.079376 0.563080
0.000000 0.003510 0.530579
0.421875 0.039001 0.604065
0.824005 0.282349 0.724243
0.973572 0.768341 0.894836
0.000000 0.379639 0.685333
0.000000 0.354431 0.675751
0.195587 0.455872 0.730164
0.833221 0.333099 0.734741
0.974640 0.772675 0.892273
0.000000 0.758911 0.825104
0.000519 0.765625 0.823792
0.014771 0.781311 0.823242
0.906677 0.904510 0.865906
0.989227 0.846191 0.870087
0.703613 0.927765 0.953369
0.709961 0.929382 0.954071
0.724152 0.933289 0.955536
0.798218 0.954742 0.960480
1.000000 0.993042 0.924805
0.000000 0.414825 0.752441
0.000000 0.399719 0.747742
0.000000 0.351898 0.731934
0.855469 0.480103 0.842957
0.981445 0.816864 0.955994
0.000000 0.427338 0.756439
0.000000 0.414886 0.752441
0.000000 0.374207 0.739532
0.856079 0.499054 0.848541
0.981598 0.817627 0.956238
0.000000 0.482452 0.775024
0.000000 0.471893 0.771759
0.000000 0.444183 0.762604
0.854187 0.544312 0.860748
0.981995 0.819519 0.956818
0.000000 0.583221 0.803741
0.000000 0.582855 0.803619
0.000000 0.581879 0.803223
0.832581 0.900452 0.967957
0.988220 0.858551 0.967804
0.785736 0.952423 0.978088
0.787842 0.953064 0.978424
0.792664 0.954529 0.979187
0.826080 0.964447 0.984039
1.000000 1.000000 0.999939
