example/ios/rthlut1-33.cube
#LUT size
LUT_3D_SIZE 9
#LUT data points
0.024963 0.029724 0.034637
0.076324 0.040527 0.039001
0.142365 0.048615 0.039917
0.254211 0.055511 0.037628
0.466461 0.010498 0.078430
0.678284 0.032074 0.197021
0.802277 0.211731 0.405304
0.904419 0.494080 0.654144
0.974609 0.764557 0.836700
0.024231 0.032623 0.036377
0.024963 0.029724 0.034637
0.066315 0.043671 0.031677
0.191376 0.064484 0.021729
0.444183 0.087952 0.000000
0.672272 0.055725 0.071411
0.804077 0.223114 0.362335
0.906067 0.499786 0.641357
0.975098 0.766083 0.834167
0.000000 0.069183 0.056519
0.032349 0.058228 0.040833
0.066071 0.064789 0.041107
0.181519 0.086700 0.025421
0.433899 0.102295 0.000000
0.684326 0.109467 0.000519
0.804779 0.226959 0.338318
0.906738 0.502167 0.634949
0.975281 0.766724 0.832977
0.000000 0.146698 0.109100
0.001343 0.134308 0.057281
0.069366 0.131287 0.044861
0.205353 0.165405 0.035339
0.483765 0.200623 0.000000
0.689728 0.164154 0.000000
0.805725 0.232422 0.269165
0.908264 0.507355 0.620392
0.975739 0.768005 0.829987
0.000000 0.306061 0.243042
0.000000 0.298462 0.163879
0.000000 0.289032 0.099854
0.117584 0.315186 0.007660
0.528931 0.405579 0.002838
0.783051 0.421722 0.000000
0.850372 0.343781 0.000000
0.912567 0.518921 0.567047
0.977020 0.771454 0.821136
0.000000 0.531586 0.471039
0.000000 0.543518 0.438385
0.000000 0.548401 0.419800
0.000000 0.552948 0.363342
0.342926 0.590515 0.099243
0.802765 0.690765 0.165466
0.952301 0.684296 0.009796
0.959808 0.633026 0.323639
0.980774 0.779755 0.789551
0.000000 0.720062 0.698334
0.000000 0.728271 0.688751
0.000000 0.731750 0.683990
0.000000 0.738373 0.672577
0.000000 0.752655 0.629150
0.659149 0.794983 0.395081
0.946747 0.857452 0.480042
1.000000 0.852509 0.461609
1.000000 0.842926 0.632355
0.243103 0.838104 0.840881
0.304871 0.841919 0.840332
0.323517 0.843567 0.840027
0.350433 0.846863 0.839630
0.423309 0.855927 0.837799
0.571442 0.876587 0.823761
0.837952 0.912964 0.681366
0.996155 0.953735 0.741638
1.000000 0.950684 0.741791
0.730316 0.934570 0.950531
0.734070 0.935638 0.950806
0.735840 0.936127 0.950958
0.739014 0.937042 0.951172
0.747131 0.939362 0.951691
0.767944 0.945282 0.952271
0.813690 0.958099 0.949371
0.939575 0.977356 0.868134
1.000000 0.991302 0.906464
0.024933 0.029755 0.036224
0.067719 0.038055 0.059235
0.129791 0.044983 0.085144
0.243469 0.047424 0.111084
0.462128 0.001587 0.163330
0.677094 0.009186 0.267548
0.800262 0.200378 0.438141
0.903076 0.489105 0.664886
0.974243 0.763458 0.839172
0.024414 0.031860 0.037262
0.025269 0.030121 0.035095
0.079163 0.042664 0.040741
0.209167 0.057312 0.040985
0.442535 0.030518 0.076172
0.672394 0.042664 0.195526
0.801880 0.214569 0.405457
0.903809 0.496033 0.653320
0.974670 0.764923 0.836670
0.000000 0.070129 0.078583
0.004242 0.059479 0.052246
0.062408 0.063507 0.046967
0.201965 0.079010 0.033569
0.434082 0.059357 0.000977
0.670837 0.056000 0.145935
0.802765 0.220123 0.386719
0.904510 0.498749 0.647675
0.974915 0.765564 0.835541
0.000000 0.152344 0.155701
0.000000 0.140442 0.108978
0.000061 0.132599 0.068878
0.201996 0.168152 0.054138
0.500824 0.188782 0.000336
0.683044 0.121399 0.009277
0.804260 0.229401 0.338928
0.906067 0.503906 0.634857
0.975281 0.766907 0.833160
0.000000 0.309570 0.296265
0.000000 0.311096 0.249329
0.000000 0.308746 0.212769
0.000336 0.306732 0.096527
0.518890 0.402618 0.045685
0.781219 0.413879 0.007935
0.829926 0.313080 0.137268
0.910187 0.516663 0.588440
0.976562 0.770386 0.824646
0.000000 0.529236 0.498444
0.000000 0.542999 0.474579
0.000000 0.548584 0.460052
0.000000 0.558014 0.420837
0.200623 0.580322 0.188171
0.799591 0.693573 0.215271
0.939270 0.686554 0.203033
0.953461 0.632294 0.390869
0.980347 0.779114 0.794739
0.000000 0.717621 0.706940
0.000000 0.725983 0.697723
0.000000 0.729645 0.693420
0.000000 0.736633 0.683746
0.021118 0.751862 0.646210
0.617523 0.791168 0.421783
0.944183 0.857605 0.491699
0.999939 0.856293 0.500763
1.000000 0.844025 0.651215
0.223389 0.836975 0.842102
0.244629 0.840485 0.840942
0.261383 0.842163 0.840546
0.298706 0.845490 0.840027
0.394470 0.854340 0.838043
0.559509 0.874878 0.825043
0.829529 0.911774 0.686829
0.995239 0.953308 0.742615
1.000000 0.952271 0.750061
0.728973 0.934235 0.950623
0.732727 0.935272 0.950836
0.734467 0.935760 0.951019
0.737823 0.936707 0.951263
0.746155 0.939056 0.951782
0.766998 0.945007 0.952484
0.813019 0.957947 0.949951
0.938171 0.977325 0.869690
1.000000 0.991333 0.907043
0.015594 0.031860 0.072662
0.069366 0.040039 0.076904
0.130463 0.045776 0.106781
0.245728 0.045532 0.142029
0.466248 0.000641 0.198792
0.678345 0.006531 0.292358
0.799255 0.194885 0.450531
0.902527 0.487000 0.669373
0.974030 0.762970 0.840210
0.004486 0.037201 0.046600
0.020905 0.031982 0.059753
0.076691 0.043488 0.070068
0.209198 0.057709 0.088959
0.444916 0.028534 0.125824
0.673309 0.036957 0.235443
0.800934 0.209656 0.421661
0.903137 0.493805 0.658539
0.974518 0.764435 0.837799
0.000000 0.073334 0.093750
0.001312 0.063446 0.077606
0.053802 0.066528 0.074432
0.217621 0.076813 0.070404
0.434570 0.042908 0.079071
0.671722 0.050018 0.196167
0.801910 0.215851 0.405182
0.903900 0.496582 0.653198
0.974670 0.764923 0.836609
0.000000 0.156281 0.176941
0.000000 0.146393 0.143280
0.000000 0.140411 0.113342
0.200500 0.171021 0.071686
0.504181 0.179047 0.066528
0.673798 0.087097 0.081421
0.803650 0.226349 0.363556
0.905334 0.501831 0.641235
0.975159 0.766418 0.834229
0.000000 0.310547 0.315399
0.000000 0.314056 0.280182
0.000000 0.313385 0.251740
0.000000 0.302216 0.142395
0.515717 0.403351 0.078613
0.775909 0.404999 0.085114
0.828094 0.308258 0.199829
0.909546 0.515106 0.597931
0.976379 0.769897 0.826050
0.000000 0.527802 0.509277
0.000000 0.542358 0.488922
0.000000 0.548370 0.476288
0.000000 0.559265 0.442566
0.103790 0.572845 0.219391
0.798798 0.695190 0.232300
0.938049 0.690521 0.262360
0.951660 0.631805 0.416595
0.980133 0.778778 0.796875
0.000000 0.716492 0.710419
0.000000 0.725006 0.701996
0.000000 0.728790 0.697937
0.000000 0.735962 0.688812
0.017578 0.751740 0.653992
0.595520 0.789398 0.433594
0.943665 0.858307 0.497162
0.999878 0.858398 0.517242
1.000000 0.844543 0.659058
0.214355 0.836426 0.842590
0.238953 0.839935 0.841583
0.254822 0.841675 0.841248
0.292206 0.845001 0.840851
0.389160 0.853851 0.838959
0.556763 0.874664 0.826691
0.826233 0.911499 0.690033
0.995148 0.953552 0.743835
1.000000 0.952972 0.753448
0.728271 0.933990 0.950531
0.732269 0.935150 0.950928
0.734039 0.935638 0.951080
0.737457 0.936584 0.951324
0.745544 0.938904 0.951782
0.766602 0.944916 0.952606
0.812653 0.957855 0.950256
0.937439 0.977325 0.870483
1.000000 0.991364 0.907318
0.000000 0.016998 0.144135
0.086090 0.026154 0.145721
0.141266 0.037659 0.161682
0.250824 0.039093 0.199219
0.474976 0.000031 0.256287
0.682678 0.010345 0.337250
0.800537 0.197235 0.478149
0.901245 0.482208 0.678345
0.973755 0.761841 0.842529
0.000000 0.046661 0.114349
0.000153 0.023834 0.130890
0.075317 0.038605 0.143768
0.210602 0.054016 0.168396
0.452667 0.017761 0.213745
0.678253 0.038361 0.299164
0.802002 0.210968 0.454803
0.901886 0.489227 0.668335
0.974121 0.763306 0.840057
0.000000 0.086273 0.149323
0.000000 0.068420 0.151245
0.011353 0.067902 0.171509
0.214600 0.077454 0.177460
0.442627 0.036743 0.184601
0.677307 0.051910 0.275513
0.802856 0.216797 0.441467
0.902618 0.492035 0.663544
0.974365 0.763977 0.839020
0.000000 0.164886 0.222748
0.000000 0.158356 0.211426
0.000000 0.155151 0.205322
0.176331 0.187592 0.209625
0.519806 0.176788 0.200500
0.681213 0.093323 0.212708
0.804504 0.227448 0.408997
0.904053 0.497650 0.653076
0.974762 0.765228 0.836578
0.000000 0.322205 0.357483
0.000000 0.327698 0.337860
0.000000 0.329376 0.323395
0.000000 0.329041 0.265991
0.512146 0.418945 0.186829
0.778229 0.410370 0.230835
0.824097 0.297516 0.288727
0.908203 0.511627 0.615234
0.975983 0.769012 0.829254
0.000000 0.527649 0.531250
0.000000 0.543304 0.516083
0.000000 0.549683 0.506439
0.000000 0.562286 0.481628
0.003632 0.567505 0.304108
0.797241 0.698639 0.265839
0.935059 0.696136 0.340973
0.947998 0.629028 0.460449
0.979736 0.777954 0.801575
0.000000 0.713928 0.717346
0.000000 0.722870 0.709778
0.000000 0.726807 0.706299
0.000000 0.734344 0.698486
0.009338 0.751190 0.667969
0.541046 0.784760 0.456146
0.942688 0.859619 0.507751
0.999786 0.862305 0.547546
0.999939 0.845184 0.674225
0.195190 0.835236 0.843719
0.227570 0.838837 0.842865
0.243500 0.840576 0.842560
0.279694 0.844025 0.842255
0.379456 0.852997 0.840637
0.550995 0.874054 0.829773
0.819336 0.911041 0.696228
0.994965 0.954010 0.746307
1.000000 0.954376 0.760681
0.727112 0.933716 0.950653
0.730896 0.934753 0.950928
0.732666 0.935272 0.951111
0.736176 0.936249 0.951355
0.744568 0.938660 0.951874
0.765686 0.944672 0.952820
0.811951 0.957733 0.950653
0.936066 0.977264 0.871918
1.000000 0.991425 0.907837
0.000000 0.000000 0.261536
0.097687 0.000000 0.262085
0.163635 0.000000 0.274994
0.269440 0.000092 0.301270
0.490051 0.000244 0.354706
0.690674 0.015106 0.422516
0.803894 0.205109 0.535706
0.902069 0.486389 0.703064
0.972870 0.759033 0.848572
0.000000 0.017242 0.253937
0.000000 0.000000 0.255341
0.059509 0.000458 0.266418
0.214813 0.007355 0.297638
0.465546 0.006165 0.341309
0.686798 0.036377 0.405396
0.805328 0.218323 0.522736
0.902557 0.492950 0.695404
0.973236 0.760345 0.846222
0.000000 0.088440 0.289429
0.000000 0.036133 0.279694
0.000000 0.023560 0.288544
0.196777 0.064514 0.318970
0.453644 0.014343 0.334503
0.686157 0.050720 0.395782
0.806274 0.224304 0.515320
0.903168 0.495483 0.691986
0.973389 0.761017 0.845245
0.000000 0.186218 0.341034
0.000000 0.167969 0.340515
0.000000 0.158295 0.345367
0.088318 0.197418 0.383789
0.517059 0.184082 0.395264
0.689331 0.091248 0.376404
0.808197 0.235870 0.498108
0.904449 0.500610 0.684448
0.973816 0.762360 0.842926
0.000000 0.346588 0.440277
0.000000 0.350739 0.438171
0.000000 0.353729 0.437622
0.000000 0.359955 0.434326
0.477386 0.455505 0.450714
0.780304 0.413666 0.437866
0.827454 0.312714 0.450684
0.908081 0.514282 0.657745
0.975006 0.766113 0.836609
0.000000 0.545197 0.585571
0.000000 0.560760 0.579498
0.000000 0.567444 0.575592
0.000000 0.580444 0.565186
0.000000 0.605072 0.499268
0.790131 0.720184 0.428864
0.929138 0.706421 0.487305
0.939728 0.618744 0.553009
0.978607 0.775726 0.812744
0.000000 0.712708 0.735809
0.000000 0.721710 0.729492
0.000000 0.725769 0.727142
0.000000 0.733643 0.721527
0.001801 0.751923 0.700684
0.368591 0.776123 0.540894
0.940125 0.863586 0.537933
0.999207 0.870300 0.613403
0.999207 0.845764 0.708923
0.143494 0.832062 0.846558
0.196075 0.835693 0.846161
0.212036 0.837494 0.845947
0.245483 0.841064 0.845581
0.345673 0.850281 0.844879
0.534668 0.872375 0.836853
0.798157 0.908630 0.712067
0.994476 0.955139 0.752655
1.000000 0.957825 0.779083
0.723663 0.932739 0.950745
0.727692 0.933929 0.951080
0.729218 0.934357 0.951202
0.732971 0.935394 0.951599
0.741821 0.937866 0.952148
0.763153 0.944000 0.953308
0.810028 0.957336 0.951630
0.932037 0.977112 0.876099
1.000000 0.991547 0.909363
0.000000 0.000000 0.398529
0.064758 0.000000 0.387634
0.150757 0.000000 0.393646
0.277710 0.000000 0.424744
0.506348 0.000000 0.477844
0.702301 0.017181 0.542267
0.810272 0.223145 0.628693
0.904114 0.496552 0.746338
0.972839 0.761108 0.865479
0.000000 0.000000 0.411133
0.000000 0.000000 0.396332
0.000000 0.000000 0.395691
0.197906 0.000000 0.432495
0.476318 0.000397 0.482971
0.698761 0.048096 0.540100
0.811646 0.233978 0.624756
0.904510 0.502747 0.742371
0.973145 0.762482 0.864014
0.000000 0.054810 0.438110
0.000000 0.001160 0.419800
0.000000 0.000000 0.411713
0.144012 0.022491 0.444733
0.457855 0.004547 0.485016
0.697662 0.057373 0.538971
0.812500 0.239410 0.622894
0.905090 0.505310 0.740967
0.973328 0.763123 0.863342
0.000000 0.198059 0.498199
0.000000 0.164307 0.486603
0.000000 0.141815 0.479004
0.000488 0.179718 0.517029
0.485657 0.196533 0.555145
0.695984 0.079254 0.537598
0.814209 0.250244 0.618347
0.906342 0.510468 0.737976
0.973694 0.764252 0.861816
0.000000 0.355560 0.565125
0.000000 0.342438 0.562683
0.000000 0.336792 0.562195
0.000000 0.353912 0.585175
0.399689 0.466064 0.642242
0.774261 0.426147 0.646027
0.830597 0.323639 0.618500
0.909546 0.524353 0.727570
0.974548 0.767517 0.857422
0.000000 0.582916 0.675293
0.000000 0.594330 0.676514
0.000000 0.599335 0.677216
0.000000 0.608948 0.677734
0.000000 0.631622 0.674866
0.766602 0.746033 0.699158
0.919556 0.709351 0.688049
0.936401 0.631165 0.701263
0.977448 0.776703 0.840088
0.000000 0.727692 0.772888
0.000000 0.735596 0.769501
0.000000 0.739044 0.768524
0.000000 0.745941 0.766388
0.001038 0.762787 0.757996
0.287628 0.796143 0.716217
0.927856 0.883820 0.683258
0.995636 0.883545 0.728149
0.994781 0.840759 0.773529
0.096313 0.829590 0.856171
0.165314 0.833252 0.856079
0.180786 0.835022 0.856079
0.213501 0.838623 0.856171
0.307495 0.847992 0.856384
0.509766 0.870850 0.854553
0.739471 0.903412 0.767914
0.993042 0.958405 0.771210
1.000000 0.964722 0.818787
0.713531 0.930054 0.950928
0.717712 0.931183 0.951263
0.719482 0.931732 0.951447
0.723358 0.932770 0.951782
0.733582 0.935669 0.952728
0.756073 0.942047 0.954163
0.804993 0.956116 0.954193
0.920227 0.976166 0.885681
1.000000 0.991913 0.913147
0.000000 0.000000 0.528015
0.000000 0.000000 0.522339
0.012543 0.002228 0.522583
0.227448 0.000000 0.533783
0.500275 0.000000 0.590607
0.709869 0.019531 0.647919
0.823608 0.272919 0.723755
0.909424 0.520233 0.802155
0.973053 0.766510 0.895721
0.000000 0.017670 0.543335
0.000000 0.000824 0.527069
0.000000 0.000000 0.517578
0.016296 0.005615 0.523132
0.451111 0.013916 0.600098
0.706329 0.059875 0.654205
0.823669 0.279358 0.723938
0.909546 0.525391 0.800812
0.973358 0.767822 0.895111
0.000000 0.079376 0.563080
0.000000 0.015167 0.540314
0.000000 0.003510 0.530579
0.000000 0.000031 0.523102
0.421875 0.039001 0.604065
0.705109 0.079010 0.657623
0.824005 0.282349 0.724243
0.909973 0.527588 0.800659
0.973572 0.768341 0.894836
0.000000 0.213440 0.618683
0.000000 0.176331 0.601654
0.000000 0.150848 0.591949
0.000000 0.096313 0.576996
0.401794 0.207825 0.657715
0.703125 0.119995 0.665283
0.824677 0.288208 0.724762
0.910828 0.531830 0.800354
0.973816 0.769531 0.894135
0.000000 0.379639 0.685333
0.000000 0.361786 0.678040
0.000000 0.354431 0.675751
0.000000 0.337677 0.670685
0.195587 0.455872 0.730164
0.757660 0.451538 0.761078
0.833221 0.333099 0.734741
0.913269 0.543701 0.799225
0.974640 0.772675 0.892273
0.000000 0.508423 0.726776
0.000000 0.504425 0.725281
0.000000 0.503113 0.725189
0.000000 0.500366 0.724976
0.000000 0.596619 0.772247
0.728149 0.749115 0.831268
0.909790 0.713776 0.828827
0.934692 0.638458 0.809662
0.976685 0.781158 0.886261
0.000000 0.758911 0.825104
0.000427 0.763367 0.823792
0.000519 0.765625 0.823792
0.001038 0.769989 0.823669
0.014771 0.781311 0.823242
0.213715 0.807922 0.825409
0.906677 0.904510 0.865906
0.987732 0.889191 0.859711
0.989227 0.846191 0.870087
0.245972 0.841949 0.879425
0.251984 0.845215 0.880432
0.268646 0.846771 0.880951
0.299713 0.849792 0.881927
0.379883 0.858032 0.884430
0.530792 0.878326 0.889923
0.723755 0.916168 0.878906
0.986328 0.971985 0.862335
1.000000 0.973389 0.890686
0.703613 0.927765 0.953369
0.708069 0.928925 0.953888
0.709961 0.929382 0.954071
0.713898 0.930481 0.954468
0.724152 0.933289 0.955536
0.748444 0.940216 0.957855
0.798218 0.954742 0.960480
0.886810 0.973724 0.920837
1.000000 0.993042 0.924805
0.000000 0.185791 0.651855
0.000000 0.136261 0.630310
0.000000 0.106537 0.620331
0.000000 0.101196 0.630737
0.380066 0.126740 0.671295
0.715729 0.159180 0.726318
0.832184 0.313904 0.779419
0.922241 0.581665 0.857391
0.975647 0.780853 0.928253
0.000000 0.216461 0.665863
0.000000 0.179901 0.649780
0.000000 0.158264 0.641479
0.000000 0.105927 0.622772
0.267059 0.163269 0.669464
0.710449 0.200256 0.735443
0.833405 0.327393 0.782806
0.921631 0.583374 0.856995
0.975891 0.781891 0.928314
0.000000 0.227142 0.670807
0.000000 0.197327 0.657257
0.000000 0.180206 0.649872
0.000000 0.133881 0.632233
0.179016 0.173157 0.662689
0.707397 0.217010 0.739441
0.834229 0.333618 0.784485
0.921844 0.584412 0.857208
0.975922 0.782196 0.928314
0.000000 0.293884 0.697693
0.000000 0.265869 0.686676
0.000000 0.251465 0.680664
0.000000 0.218750 0.666840
0.000000 0.190704 0.671112
0.699158 0.248322 0.746857
0.835815 0.346069 0.787933
0.922241 0.586670 0.857605
0.976135 0.783081 0.928345
0.000000 0.415314 0.742340
0.000000 0.401733 0.737457
0.000000 0.395569 0.735291
0.000000 0.382782 0.730743
0.000000 0.365723 0.736725
0.712860 0.482391 0.813080
0.839508 0.379883 0.797241
0.923309 0.592560 0.858826
0.976562 0.785461 0.928467
0.000000 0.524078 0.774414
0.000000 0.518738 0.772278
0.000000 0.517181 0.771881
0.000000 0.514130 0.771057
0.000000 0.504425 0.768494
0.618958 0.740417 0.878754
0.898224 0.729370 0.898407
0.935181 0.648804 0.874237
0.977936 0.792236 0.928619
0.000000 0.581055 0.794342
0.000000 0.579224 0.792206
0.000000 0.579132 0.792206
0.000000 0.578857 0.792175
0.000000 0.578156 0.792114
0.000519 0.767242 0.874542
0.883575 0.905212 0.950134
0.982452 0.890167 0.950500
0.987915 0.850067 0.939545
0.474152 0.871429 0.916840
0.470398 0.872498 0.916748
0.477142 0.873535 0.917358
0.490356 0.875519 0.918488
0.523987 0.880737 0.921448
0.597717 0.893829 0.928558
0.719086 0.921234 0.941986
0.978058 0.980347 0.969055
1.000000 0.977417 0.966309
0.731873 0.936188 0.964111
0.734863 0.937012 0.964447
0.736237 0.937408 0.964630
0.738861 0.938141 0.964935
0.746033 0.940216 0.965790
0.764648 0.945618 0.968109
0.805237 0.957764 0.972748
0.879791 0.977142 0.973175
1.000000 0.997559 0.970367
0.000000 0.414825 0.752441
0.000000 0.404602 0.749298
0.000000 0.399719 0.747742
0.000000 0.389191 0.744446
0.000000 0.351898 0.731934
0.641418 0.419312 0.803497
0.855469 0.480103 0.842957
0.934326 0.643860 0.895325
0.981445 0.816864 0.955994
0.000000 0.424133 0.755310
0.000000 0.414948 0.752472
0.000000 0.410370 0.751007
0.000000 0.400635 0.747986
0.000000 0.367554 0.737213
0.596100 0.433289 0.803741
0.856049 0.493317 0.846832
0.935028 0.648041 0.896637
0.981567 0.817352 0.956207
0.000000 0.427338 0.756439
0.000000 0.419250 0.753754
0.000000 0.414886 0.752441
0.000000 0.405304 0.749451
0.000000 0.374207 0.739532
0.567017 0.438324 0.802948
0.856079 0.499054 0.848541
0.935364 0.649933 0.897217
0.981598 0.817627 0.956238
0.000000 0.434113 0.758881
0.000000 0.427002 0.756348
0.000000 0.423798 0.755188
0.000000 0.415039 0.752441
0.000000 0.386902 0.743683
0.484802 0.446686 0.799194
0.855804 0.511505 0.851929
0.936005 0.653839 0.898468
0.981689 0.818146 0.956390
0.000000 0.482452 0.775024
0.000000 0.475311 0.772797
0.000000 0.471893 0.771759
0.000000 0.464630 0.769562
0.000000 0.444183 0.762604
0.119354 0.515320 0.799347
0.854187 0.544312 0.860748
0.937744 0.664368 0.901978
0.981995 0.819519 0.956818
0.000000 0.547485 0.794098
0.000000 0.545898 0.793610
0.000000 0.545105 0.793457
0.000000 0.543121 0.792908
0.000000 0.536133 0.790802
0.000000 0.621796 0.842102
0.873627 0.755951 0.929230
0.942291 0.691956 0.911469
0.982635 0.823395 0.957947
0.000000 0.583221 0.803741
0.000000 0.582977 0.803650
0.000000 0.582855 0.803619
0.000000 0.582581 0.803497
0.000000 0.581879 0.803223
0.000000 0.579590 0.802460
0.832581 0.900452 0.967957
0.977814 0.900421 0.977936
0.988220 0.858551 0.967804
0.000000 0.607727 0.818024
0.000000 0.607635 0.817993
0.000000 0.607635 0.817993
0.000000 0.607574 0.817963
0.000000 0.607422 0.817871
0.000000 0.606934 0.817657
0.505402 0.877808 0.936493
0.969330 0.980438 0.994202
0.998566 0.976501 0.991699
0.785736 0.952423 0.978088
0.787231 0.952850 0.978302
0.787842 0.953064 0.978424
0.789062 0.953461 0.978546
0.792664 0.954529 0.979187
0.802490 0.957520 0.980621
0.826080 0.964447 0.984039
0.875977 0.977631 0.990204
1.000000 1.000000 0.999939
