example/ios/smallie.cube
#LUT size
LUT_3D_SIZE 5
#LUT data points
DOMAIN_MIN 0.000000 0.000000 0.000000
DOMAIN_MAX 0.869565 0.869565 0.869565
0.024963 0.029724 0.034637
0.121613 0.046936 0.040283
0.344849 0.046753 0.046570
0.710938 0.058136 0.237396
0.899994 0.479828 0.643738
0.002319 0.058319 0.050964
0.047150 0.050385 0.039062
0.277649 0.083466 0.000885
0.708710 0.087921 0.082550
0.902191 0.487549 0.625214
0.000000 0.209595 0.158569
0.000916 0.200073 0.063812
0.339996 0.262085 0.001190
0.756897 0.263092 0.000000
0.905426 0.497650 0.589600
0.000000 0.580505 0.524323
0.000000 0.597839 0.488922
0.000000 0.608307 0.385437
0.841553 0.738678 0.240753
0.984741 0.711426 0.332672
0.199005 0.833344 0.835083
0.265076 0.838379 0.833710
0.336029 0.845612 0.832153
0.605927 0.878815 0.802063
0.995178 0.950653 0.732422
0.020813 0.031372 0.060364
0.109039 0.045135 0.094238
0.337097 0.028595 0.155487
0.708160 0.030884 0.311890
0.898132 0.473114 0.658691
0.000244 0.060913 0.073578
0.039764 0.051331 0.057068
0.297546 0.059509 0.052216
0.707245 0.070007 0.235840
0.899475 0.482269 0.642853
0.000000 0.217957 0.230408
0.000000 0.209747 0.163849
0.332245 0.263702 0.058289
0.748840 0.222229 0.079193
0.902740 0.493561 0.613525
0.000000 0.576569 0.553528
0.000000 0.595154 0.528625
0.000000 0.614746 0.459900
0.837036 0.740692 0.283508
0.977448 0.714935 0.418945
0.177734 0.831787 0.836975
0.222076 0.836578 0.835236
0.298431 0.843811 0.833649
0.592255 0.876984 0.806030
0.994110 0.950348 0.734619
0.000000 0.000336 0.196228
0.138153 0.002594 0.209351
0.350220 0.008026 0.265472
0.714600 0.022095 0.393219
0.897125 0.469666 0.680084
0.000000 0.081116 0.204010
0.000000 0.033478 0.209625
0.303741 0.044189 0.237549
0.714813 0.073639 0.356934
0.898163 0.478241 0.666718
0.000000 0.238037 0.320190
0.000000 0.238068 0.312744
0.301788 0.298645 0.318726
0.751251 0.219421 0.316132
0.901093 0.489380 0.644318
0.000000 0.578308 0.590851
0.000000 0.598663 0.576996
0.000000 0.623260 0.538239
0.834015 0.747101 0.342163
0.971405 0.715912 0.507172
0.143829 0.829254 0.839630
0.198792 0.834229 0.838318
0.272339 0.841736 0.837097
0.580994 0.876373 0.814880
0.993713 0.951385 0.740112
0.000000 0.000000 0.428650
0.107635 0.000000 0.413208
0.375977 0.000000 0.474060
0.733551 0.066589 0.585297
0.900787 0.486298 0.752411
0.000000 0.019714 0.458954
0.000000 0.000000 0.432587
0.288025 0.003296 0.486572
0.732330 0.092224 0.584167
0.901611 0.494598 0.748566
0.000000 0.272064 0.560791
0.000000 0.242554 0.553040
0.089722 0.306183 0.603180
0.755737 0.229950 0.616455
0.904083 0.505615 0.743561
0.000000 0.632080 0.718018
0.000000 0.644348 0.718018
0.000000 0.661713 0.717957
0.802582 0.787170 0.741058
0.957245 0.717896 0.740540
0.099670 0.827118 0.856415
0.165955 0.832153 0.856201
0.231812 0.839722 0.856415
0.548401 0.876404 0.853058
0.991028 0.957336 0.773407
0.000000 0.172760 0.645477
0.000000 0.098206 0.616577
0.114502 0.161163 0.651581
0.748291 0.171906 0.732758
0.918060 0.566986 0.851685
0.000000 0.215485 0.664520
0.000000 0.167511 0.643982
0.000000 0.062378 0.608551
0.746887 0.219330 0.743652
0.917725 0.569977 0.851410
0.000000 0.347839 0.717010
0.000000 0.316559 0.705078
0.000000 0.261810 0.684204
0.743561 0.289612 0.761505
0.918549 0.574799 0.852386
0.000000 0.541412 0.777588
0.000000 0.537262 0.776825
0.000000 0.533295 0.775879
0.717590 0.784424 0.899841
0.951691 0.725189 0.896912
0.441437 0.866455 0.912231
0.443604 0.868530 0.912994
0.475464 0.872803 0.915375
0.607635 0.894928 0.927277
0.975983 0.978455 0.966125
