example/ios/smallie.cube
#LUT size
LUT_3D_SIZE 8
#LUT data points
DOMAIN_MIN 0.000000 0.000000 0.000000
DOMAIN_MAX 0.913043 0.913043 0.913043
0.024963 0.029724 0.034637
0.078674 0.041077 0.039093
0.150024 0.049194 0.039703
0.276794 0.054413 0.038239
0.506287 0.008179 0.091461
0.710938 0.058136 0.237396
0.829742 0.276245 0.470459
0.932098 0.597137 0.720856
0.023987 0.033813 0.037476
0.025757 0.030426 0.034393
0.070862 0.045105 0.031738
0.215271 0.067535 0.011139
0.491028 0.091858 0.000000
0.709351 0.080780 0.129608
0.831879 0.285217 0.436340
0.933441 0.601471 0.713043
0.000000 0.072754 0.059113
0.032898 0.062317 0.041504
0.072784 0.070312 0.041718
0.209534 0.093628 0.017273
0.484802 0.108307 0.000000
0.710785 0.099762 0.052948
0.832764 0.289032 0.417236
0.933990 0.603455 0.708771
0.000000 0.162323 0.121399
0.000610 0.150574 0.061432
0.065521 0.149445 0.044769
0.238739 0.189301 0.025787
0.546356 0.224792 0.000000
0.725922 0.183868 0.000000
0.834534 0.295197 0.361237
0.935486 0.608002 0.698242
0.000000 0.344299 0.280243
0.000000 0.340729 0.204041
0.000000 0.333282 0.144714
0.128845 0.361053 0.010254
0.594360 0.460266 0.007355
0.829681 0.480560 0.000000
0.862701 0.368683 0.048645
0.939789 0.619110 0.657410
0.000000 0.580505 0.524323
0.000000 0.594269 0.498291
0.000000 0.599670 0.482635
0.000000 0.607910 0.433228
0.353821 0.643799 0.171417
0.841553 0.738678 0.240753
0.973724 0.727112 0.139893
0.974915 0.691223 0.439514
0.000000 0.754608 0.742401
0.000061 0.761444 0.735809
0.000061 0.764404 0.732422
0.000153 0.770844 0.723846
0.093384 0.785370 0.690338
0.686096 0.825043 0.482483
0.967346 0.887543 0.557129
1.000000 0.883545 0.552582
0.474976 0.871918 0.881317
0.496521 0.875000 0.881836
0.506134 0.876434 0.881958
0.522919 0.879242 0.881836
0.568756 0.887207 0.880951
0.665833 0.906067 0.871552
0.858948 0.936310 0.751129
0.999359 0.970367 0.798035
0.024841 0.029816 0.037231
0.070099 0.038696 0.061768
0.137909 0.045349 0.087921
0.266083 0.044830 0.117065
0.503876 0.000549 0.180511
0.708038 0.034424 0.297058
0.827759 0.268097 0.496399
0.930969 0.593384 0.727386
0.023804 0.033234 0.038788
0.025696 0.030792 0.035767
0.084991 0.044098 0.041199
0.232758 0.058044 0.042023
0.486938 0.022949 0.089783
0.707886 0.067749 0.236389
0.829224 0.278992 0.469849
0.931274 0.596375 0.719055
0.000000 0.074432 0.084991
0.002960 0.063812 0.054840
0.069458 0.069366 0.048615
0.230682 0.085388 0.031189
0.480408 0.055328 0.005646
0.707458 0.079987 0.190948
0.830231 0.283600 0.454254
0.931854 0.598480 0.715363
0.000000 0.169006 0.171326
0.000000 0.157959 0.122284
0.000061 0.149597 0.075256
0.235199 0.192108 0.050537
0.559296 0.212585 0.001282
0.716553 0.131500 0.040192
0.832336 0.292236 0.411407
0.933258 0.602905 0.706085
0.000000 0.347504 0.329987
0.000000 0.350922 0.286011
0.000000 0.350037 0.250153
0.001587 0.348846 0.116486
0.583801 0.457062 0.060547
0.815674 0.460297 0.020935
0.854858 0.360321 0.217468
0.937317 0.614502 0.670624
0.000000 0.577637 0.547424
0.000000 0.591766 0.527679
0.000000 0.597992 0.515228
0.000000 0.609375 0.478119
0.234558 0.633942 0.244171
0.837555 0.739777 0.274200
0.967316 0.734009 0.283478
0.969788 0.689026 0.483856
0.000000 0.752502 0.748077
0.000122 0.759155 0.741211
0.000519 0.762299 0.738098
0.002014 0.768829 0.730499
0.076202 0.784210 0.701660
0.657288 0.822144 0.504303
0.965302 0.887665 0.565125
1.000000 0.886414 0.579681
0.466949 0.870819 0.881805
0.474487 0.872650 0.880280
0.487000 0.874115 0.880402
0.506592 0.877045 0.880554
0.557037 0.885132 0.880066
0.659424 0.904022 0.871399
0.853271 0.935089 0.754547
0.998688 0.969727 0.797485
0.012665 0.031921 0.076935
0.072479 0.040436 0.081543
0.138824 0.045990 0.112000
0.268799 0.041870 0.151672
0.508148 0.000244 0.216980
0.708862 0.030670 0.320740
0.826782 0.264069 0.507141
0.930481 0.591797 0.730316
0.002991 0.039154 0.051666
0.019226 0.032806 0.064758
0.082458 0.045074 0.075226
0.233521 0.058533 0.095551
0.490021 0.020630 0.143158
0.708191 0.062042 0.272034
0.828308 0.275116 0.483307
0.930725 0.594635 0.722412
0.000000 0.077942 0.101257
0.000854 0.068481 0.085327
0.060181 0.073212 0.082428
0.246124 0.082855 0.077881
0.480988 0.037781 0.092529
0.707855 0.074432 0.237030
0.829315 0.280060 0.469604
0.931335 0.596832 0.719025
0.000000 0.173035 0.195557
0.000000 0.164551 0.159698
0.000000 0.158966 0.127289
0.233734 0.195587 0.077240
0.559601 0.201355 0.075287
0.711761 0.110443 0.119507
0.831543 0.289642 0.431580
0.932739 0.601288 0.710358
0.000000 0.348419 0.348633
0.000000 0.353455 0.315460
0.000000 0.354401 0.288635
0.000000 0.345337 0.166351
0.580994 0.458313 0.094421
0.811493 0.455444 0.116089
0.852570 0.355164 0.266693
0.936737 0.613220 0.677002
0.000000 0.575745 0.556854
0.000000 0.590698 0.540070
0.000000 0.597168 0.529205
0.000000 0.609924 0.496918
0.163574 0.629425 0.275726
0.836700 0.741089 0.288452
0.965607 0.737244 0.325745
0.968231 0.688263 0.503326
0.000000 0.751495 0.750519
0.000092 0.758240 0.744263
0.000397 0.761505 0.741333
0.001770 0.768158 0.734100
0.066254 0.783936 0.706879
0.643799 0.821381 0.515289
0.964874 0.888245 0.569366
1.000000 0.888275 0.592102
0.463623 0.870392 0.882050
0.470367 0.872223 0.880615
0.482727 0.873657 0.880707
0.503723 0.876648 0.880981
0.554474 0.884766 0.880615
0.657837 0.903839 0.872406
0.851288 0.935089 0.756836
0.998657 0.969879 0.798431
0.000000 0.010162 0.157684
0.090851 0.016876 0.160004
0.151367 0.031128 0.177032
0.274872 0.032837 0.216309
0.517120 0.000153 0.279205
0.712402 0.027008 0.367889
0.827545 0.265472 0.532166
0.929321 0.587646 0.736664
0.000000 0.048828 0.132111
0.000092 0.018402 0.145721
0.080170 0.037231 0.160767
0.235931 0.051849 0.188019
0.499359 0.012939 0.239410
0.712463 0.064178 0.335754
0.828796 0.275848 0.513367
0.929596 0.590820 0.729462
0.000000 0.092285 0.169189
0.000000 0.072632 0.170776
0.012909 0.074524 0.192657
0.243744 0.083252 0.200409
0.490631 0.030640 0.211151
0.712646 0.077606 0.314636
0.829773 0.280518 0.502380
0.930176 0.592987 0.726318
0.000000 0.183167 0.248627
0.000000 0.178528 0.238434
0.000000 0.175873 0.232574
0.208008 0.215546 0.238068
0.573120 0.199493 0.228668
0.718079 0.117371 0.254578
0.831818 0.290100 0.472961
0.931488 0.597656 0.718903
0.000000 0.360809 0.393036
0.000000 0.367584 0.374695
0.000000 0.370911 0.361237
0.000000 0.374573 0.303741
0.577423 0.475098 0.210876
0.812408 0.461853 0.268066
0.849060 0.348083 0.350098
0.935516 0.610168 0.689850
0.000000 0.573669 0.577271
0.000000 0.589874 0.564941
0.000000 0.596954 0.557037
0.000000 0.611206 0.533752
0.024811 0.622681 0.355011
0.834900 0.744171 0.318878
0.961823 0.742249 0.396698
0.964813 0.685272 0.540253
0.000000 0.748962 0.755890
0.000092 0.756073 0.750275
0.000092 0.759491 0.747772
0.001282 0.766510 0.741669
0.043365 0.783112 0.717377
0.608215 0.818634 0.537598
0.964050 0.889526 0.578491
1.000000 0.891998 0.616974
0.455048 0.869293 0.882568
0.461487 0.871155 0.881348
0.474030 0.872650 0.881500
0.497223 0.875763 0.881775
0.548920 0.884003 0.881805
0.654510 0.903351 0.874573
0.846710 0.934937 0.761749
0.998566 0.970245 0.800354
0.000000 0.000000 0.285461
0.098511 0.000000 0.284210
0.171509 0.000000 0.298218
0.296204 0.000031 0.328766
0.533203 0.000092 0.386810
0.721008 0.027222 0.459137
0.830627 0.273163 0.588928
0.929443 0.589874 0.755219
0.000000 0.013702 0.282928
0.000000 0.000000 0.279999
0.056183 0.000183 0.290955
0.240997 0.002838 0.327026
0.513397 0.006958 0.375153
0.720337 0.064789 0.445831
0.831909 0.283813 0.578125
0.929596 0.592651 0.749603
0.000000 0.095123 0.321045
0.000000 0.032928 0.307678
0.000000 0.025146 0.316742
0.224518 0.067383 0.350830
0.503510 0.014954 0.369171
0.720673 0.078430 0.437805
0.832825 0.288727 0.572174
0.930115 0.594666 0.747345
0.000000 0.205963 0.376984
0.000000 0.187653 0.376099
0.000000 0.178375 0.380798
0.115387 0.226044 0.423615
0.570770 0.207825 0.434753
0.725647 0.120270 0.420929
0.835052 0.299072 0.556793
0.931274 0.598907 0.741974
0.000000 0.388306 0.483978
0.000000 0.393768 0.481781
0.000000 0.397644 0.481293
0.000000 0.407166 0.479034
0.542236 0.514740 0.496735
0.811798 0.464569 0.483276
0.851379 0.362732 0.506989
0.934723 0.610931 0.722260
0.000000 0.592346 0.630127
0.000000 0.607056 0.625580
0.000000 0.613922 0.622650
0.000000 0.628113 0.612976
0.000244 0.656342 0.549133
0.827087 0.762512 0.470978
0.954102 0.751221 0.540863
0.958069 0.679993 0.623322
0.000000 0.745880 0.771027
0.000061 0.753418 0.766052
0.000061 0.756927 0.764282
0.000427 0.764404 0.759888
0.020172 0.782471 0.743256
0.480103 0.810547 0.609741
0.961700 0.893188 0.604370
1.000000 0.900024 0.672546
0.430573 0.866089 0.883972
0.435394 0.868164 0.883209
0.448059 0.869659 0.883362
0.474091 0.872925 0.883850
0.531525 0.881470 0.884644
0.644531 0.901794 0.880035
0.832123 0.933807 0.774780
0.998383 0.971161 0.805603
0.000000 0.000000 0.428650
0.046692 0.000000 0.418793
0.146759 0.000000 0.421021
0.299774 0.000000 0.457214
0.547882 0.000000 0.516571
0.733551 0.066589 0.585297
0.837189 0.292542 0.677704
0.930817 0.598755 0.791901
0.000000 0.000336 0.444275
0.000000 0.000000 0.426605
0.000000 0.000000 0.424408
0.217133 0.000061 0.465942
0.523193 0.001892 0.521515
0.732574 0.086792 0.584442
0.838104 0.301453 0.674622
0.930908 0.601196 0.788483
0.000000 0.070312 0.472717
0.000000 0.005127 0.452057
0.000000 0.000305 0.442688
0.160980 0.033356 0.478607
0.507751 0.010834 0.524323
0.732208 0.095276 0.583954
0.838959 0.305756 0.673340
0.931366 0.603119 0.787445
0.000000 0.219879 0.538361
0.000000 0.187653 0.526611
0.000000 0.166351 0.519165
0.003418 0.205688 0.557220
0.540497 0.222961 0.598145
0.732605 0.118927 0.584381
0.840820 0.315399 0.670074
0.932404 0.607391 0.785095
0.000000 0.388153 0.607544
0.000000 0.376617 0.604919
0.000000 0.371643 0.604492
0.000000 0.389862 0.625549
0.459564 0.523438 0.688324
0.805420 0.476105 0.689880
0.854675 0.376221 0.668030
0.935394 0.619324 0.776917
0.000000 0.632080 0.718018
0.000000 0.641327 0.717743
0.000000 0.646027 0.718201
0.000000 0.655914 0.718353
0.000000 0.680206 0.715118
0.802582 0.787170 0.741058
0.942963 0.753174 0.731812
0.954193 0.689484 0.750031
0.000000 0.760254 0.803375
0.000214 0.766357 0.800720
0.000458 0.769379 0.799988
0.001770 0.775879 0.798126
0.034607 0.792358 0.791473
0.426208 0.828735 0.761841
0.950958 0.911987 0.725922
0.999390 0.914032 0.771973
0.395264 0.862000 0.889801
0.398285 0.864349 0.889404
0.411560 0.865845 0.889801
0.437653 0.869110 0.890686
0.504211 0.878021 0.892639
0.625793 0.899445 0.893738
0.787323 0.929443 0.818878
0.997711 0.973694 0.821350
0.000000 0.004974 0.556366
0.000000 0.000000 0.542938
0.000031 0.003296 0.552887
0.221893 0.000458 0.563934
0.537079 0.000305 0.624542
0.739929 0.075378 0.682922
0.851257 0.344879 0.762024
0.935455 0.621307 0.844788
0.000000 0.054291 0.574158
0.000000 0.011505 0.556030
0.000000 0.003143 0.547455
0.030487 0.015594 0.555786
0.495239 0.041870 0.634216
0.740204 0.117401 0.690033
0.850891 0.350677 0.761719
0.935089 0.622040 0.842712
0.000000 0.126495 0.595734
0.000000 0.046692 0.570465
0.000000 0.018890 0.559113
0.000000 0.002258 0.548035
0.469696 0.075317 0.639069
0.740234 0.135345 0.693542
0.851288 0.353058 0.762024
0.935455 0.623657 0.842712
0.000000 0.247711 0.651184
0.000000 0.213196 0.635773
0.000000 0.192963 0.627319
0.000000 0.140808 0.609619
0.446625 0.239838 0.690369
0.740265 0.172211 0.701538
0.851990 0.358398 0.762756
0.936157 0.627014 0.842590
0.000000 0.406860 0.710480
0.000000 0.396179 0.706818
0.000000 0.390289 0.705109
0.000000 0.375610 0.700745
0.226562 0.509949 0.762085
0.790619 0.504425 0.793060
0.859253 0.396027 0.770508
0.938263 0.636536 0.842041
0.000000 0.534912 0.751373
0.000000 0.529877 0.749084
0.000000 0.528931 0.748962
0.000000 0.526825 0.748718
0.000000 0.623962 0.794983
0.766449 0.789154 0.866699
0.933655 0.755981 0.864136
0.952728 0.697479 0.848206
0.001465 0.790985 0.851105
0.019135 0.793701 0.849609
0.023743 0.795563 0.849701
0.039612 0.799652 0.849884
0.111938 0.810760 0.850922
0.402740 0.839447 0.859741
0.931824 0.932068 0.901123
0.994812 0.920135 0.895935
0.473724 0.874756 0.910950
0.477081 0.876068 0.910553
0.485229 0.877289 0.911102
0.502472 0.880066 0.912354
0.548035 0.887512 0.915588
0.642517 0.905914 0.921997
0.776886 0.939117 0.915924
0.993835 0.983490 0.898560
0.000000 0.254883 0.687988
0.000000 0.227997 0.676239
0.000000 0.213745 0.669922
0.000000 0.173767 0.655029
0.372223 0.217010 0.709625
0.752533 0.249023 0.759460
0.862061 0.400146 0.812561
0.946960 0.674866 0.894653
0.000000 0.279999 0.697968
0.000000 0.256775 0.687897
0.000000 0.243164 0.682343
0.000000 0.206482 0.667297
0.196350 0.244110 0.704956
0.748199 0.278809 0.766510
0.862579 0.411835 0.814758
0.946136 0.674133 0.893127
0.000000 0.291168 0.702148
0.000000 0.269165 0.692932
0.000000 0.256989 0.687988
0.000000 0.224579 0.674652
0.120026 0.242340 0.702606
0.745941 0.292419 0.769897
0.863403 0.417053 0.816223
0.946289 0.674835 0.893311
0.000000 0.344727 0.721893
0.000000 0.320709 0.712646
0.000000 0.309326 0.708435
0.000000 0.281769 0.697968
0.003021 0.218811 0.682312
0.739471 0.320709 0.776947
0.865051 0.428650 0.819458
0.946594 0.676361 0.893677
0.000000 0.446869 0.757751
0.000000 0.438690 0.754639
0.000000 0.434265 0.753204
0.000000 0.423828 0.749878
0.000000 0.404968 0.749573
0.746948 0.542297 0.838684
0.869080 0.461914 0.828644
0.947479 0.680664 0.894775
0.000000 0.545166 0.785522
0.000000 0.542267 0.784760
0.000000 0.541260 0.784546
0.000000 0.539062 0.783936
0.000000 0.531860 0.781982
0.661011 0.780334 0.903748
0.923462 0.771393 0.923828
0.955048 0.714417 0.905518
0.000000 0.585632 0.798767
0.000000 0.586609 0.799683
0.000000 0.586517 0.799683
0.000000 0.586395 0.799683
0.000000 0.585938 0.799622
0.013824 0.772430 0.882782
0.910461 0.931915 0.967865
0.990875 0.921051 0.968506
0.615417 0.902618 0.942535
0.615051 0.902344 0.941772
0.618378 0.903046 0.942169
0.625519 0.904572 0.942993
0.645111 0.908905 0.945282
0.691376 0.919891 0.951019
0.775146 0.942810 0.961792
0.987671 0.989471 0.982910
