example/ios/smallie.cube
#LUT size
LUT_3D_SIZE 24
#LUT data points
0.024963 0.029724 0.034637
0.026947 0.030182 0.035004
0.050110 0.034882 0.037537
0.078674 0.041077 0.039093
0.098846 0.044861 0.039948
0.121613 0.046936 0.040283
0.150024 0.049194 0.039703
0.182983 0.051941 0.038696
0.223022 0.055023 0.037781
0.276794 0.054413 0.038239
0.344849 0.046753 0.046570
0.425079 0.024994 0.066284
0.506287 0.008179 0.091461
0.584900 0.008392 0.125610
0.654755 0.023651 0.175354
0.710938 0.058136 0.237396
0.754852 0.117096 0.308167
0.792877 0.191132 0.385223
0.829742 0.276245 0.470459
0.865143 0.371185 0.558716
0.899994 0.479828 0.643738
0.932098 0.597137 0.720856
0.958038 0.695068 0.782593
0.974609 0.764557 0.836700
0.024963 0.029724 0.034637
0.024963 0.029724 0.034637
0.026001 0.030029 0.034424
0.036163 0.034515 0.032257
0.060913 0.039764 0.030792
0.077606 0.044525 0.030182
0.098999 0.049164 0.029205
0.136841 0.053162 0.026154
0.184479 0.057922 0.019379
0.241974 0.063080 0.001709
0.319794 0.066071 0.000275
0.413208 0.063507 0.000336
0.501221 0.050903 0.002106
0.578552 0.029480 0.041290
0.650818 0.038391 0.109131
0.710571 0.072632 0.184601
0.755676 0.126617 0.272308
0.793945 0.198547 0.359863
0.831024 0.281616 0.452148
0.866364 0.375275 0.546997
0.900940 0.483307 0.636108
0.932831 0.599609 0.716888
0.958496 0.696503 0.780426
0.974823 0.765350 0.835175
0.024963 0.029724 0.034637
0.024963 0.029724 0.034637
0.024963 0.029724 0.034637
0.028656 0.031860 0.032593
0.039612 0.036865 0.030853
0.062286 0.041687 0.031189
0.081970 0.047272 0.031036
0.113647 0.053040 0.029022
0.166718 0.059113 0.023682
0.227539 0.065735 0.006775
0.304749 0.071899 0.000061
0.399414 0.077911 0.000000
0.498993 0.079285 0.000000
0.581573 0.066620 0.003845
0.649048 0.046356 0.067535
0.710083 0.077820 0.155762
0.755890 0.130524 0.252625
0.794373 0.201508 0.347351
0.831482 0.283691 0.443237
0.866821 0.376862 0.540924
0.901367 0.484680 0.632690
0.933197 0.600739 0.714661
0.958710 0.697083 0.779388
0.975006 0.765839 0.834534
0.023987 0.033813 0.037476
0.025360 0.030701 0.034943
0.025391 0.030487 0.034821
0.025757 0.030426 0.034393
0.032471 0.034912 0.030914
0.045990 0.039429 0.031708
0.070862 0.045105 0.031738
0.098846 0.052490 0.030945
0.151123 0.059937 0.026581
0.215271 0.067535 0.011139
0.294434 0.076263 0.000122
0.393372 0.084747 0.000000
0.491028 0.091858 0.000000
0.583557 0.088928 0.000000
0.650848 0.064545 0.033264
0.709351 0.080780 0.129608
0.755951 0.132935 0.235992
0.794647 0.203644 0.336731
0.831879 0.285217 0.436340
0.867249 0.378143 0.536438
0.901672 0.485718 0.629791
0.933441 0.601471 0.713043
0.958862 0.697510 0.778473
0.975098 0.766083 0.834076
0.016296 0.044861 0.045166
0.028412 0.039612 0.038391
0.029907 0.038055 0.037231
0.030243 0.036743 0.036652
0.033264 0.038391 0.035278
0.040619 0.041290 0.032959
0.064484 0.046387 0.032959
0.090118 0.053680 0.032593
0.137726 0.061249 0.028595
0.205017 0.069580 0.014709
0.285309 0.080261 0.000336
0.387634 0.089935 0.000000
0.488586 0.098145 0.000000
0.580933 0.101929 0.000000
0.654388 0.084320 0.010620
0.708801 0.083710 0.106934
0.755920 0.134918 0.220184
0.794891 0.205200 0.327667
0.832184 0.286591 0.430267
0.867554 0.379120 0.532684
0.901917 0.486603 0.627380
0.933624 0.602234 0.711670
0.959015 0.697937 0.777740
0.975159 0.766357 0.833679
0.002319 0.058319 0.050964
0.021606 0.051392 0.041687
0.030670 0.048248 0.040009
0.034424 0.045807 0.038818
0.038330 0.046326 0.039764
0.047150 0.050385 0.039062
0.067200 0.055603 0.035217
0.091370 0.063934 0.034302
0.136780 0.071594 0.030273
0.202393 0.077637 0.016357
0.277649 0.083466 0.000885
0.381592 0.094055 0.000000
0.486816 0.102875 0.000000
0.576324 0.109192 0.000000
0.656403 0.098358 0.003113
0.708710 0.087921 0.082550
0.755859 0.136658 0.204437
0.795013 0.206573 0.318268
0.832397 0.287598 0.424561
0.867859 0.380066 0.529022
0.902191 0.487549 0.625214
0.933777 0.602753 0.710419
0.959106 0.698273 0.777008
0.975189 0.766571 0.833344
0.000000 0.072754 0.059113
0.004089 0.066254 0.045837
0.018158 0.064148 0.043182
0.032898 0.062317 0.041504
0.042297 0.061249 0.040649
0.056854 0.064941 0.042755
0.072784 0.070312 0.041718
0.094788 0.076904 0.036804
0.140869 0.085693 0.032288
0.209534 0.093628 0.017273
0.286713 0.100891 0.001068
0.381317 0.103424 0.000000
0.484802 0.108307 0.000000
0.576202 0.115814 0.000000
0.660095 0.117981 0.000061
0.710785 0.099762 0.052948
0.755707 0.138367 0.183899
0.795227 0.208099 0.306732
0.832764 0.289032 0.417236
0.868195 0.381104 0.524719
0.902466 0.488373 0.622498
0.933990 0.603455 0.708771
0.959259 0.698669 0.776123
0.975281 0.766754 0.832855
0.000000 0.091858 0.071167
0.000061 0.083923 0.052155
0.003937 0.081665 0.047852
0.021759 0.079956 0.045654
0.048706 0.078857 0.043671
0.064178 0.079956 0.042877
0.082214 0.086639 0.045288
0.103210 0.094055 0.043823
0.146149 0.101715 0.034515
0.216736 0.111877 0.017456
0.298096 0.121887 0.001099
0.397858 0.127563 0.000000
0.496460 0.126740 0.000000
0.576782 0.123260 0.000000
0.657288 0.129822 0.000000
0.715668 0.119446 0.005188
0.755737 0.142487 0.151245
0.795471 0.209991 0.288605
0.833191 0.290527 0.406281
0.868652 0.382629 0.518005
0.902893 0.489746 0.618683
0.934387 0.604584 0.706421
0.959473 0.699219 0.774933
0.975403 0.767151 0.832153
0.000000 0.123016 0.091797
0.000000 0.113434 0.062805
0.000702 0.110596 0.055298
0.010895 0.108521 0.050720
0.039246 0.106812 0.048096
0.060577 0.105774 0.045380
0.083527 0.109558 0.044464
0.111755 0.120178 0.046082
0.156891 0.131348 0.042542
0.223694 0.140228 0.013062
0.309509 0.154816 0.000336
0.414886 0.164459 0.000000
0.520996 0.166565 0.000000
0.600067 0.159210 0.000000
0.658203 0.144409 0.000000
0.723022 0.152527 0.000000
0.757141 0.153473 0.100281
0.795593 0.212219 0.256165
0.833832 0.292755 0.389709
0.869354 0.384705 0.507660
0.903473 0.491669 0.612701
0.934784 0.605896 0.703125
0.959747 0.699982 0.773041
0.975555 0.767578 0.830933
0.000000 0.162323 0.121399
0.000000 0.152954 0.078308
0.000000 0.150024 0.067047
0.000610 0.150574 0.061432
0.007568 0.150391 0.054932
0.032562 0.150116 0.050262
0.065521 0.149445 0.044769
0.105072 0.157562 0.041321
0.164459 0.173218 0.038849
0.238739 0.189301 0.025787
0.320496 0.200867 0.000122
0.431732 0.216553 0.000000
0.546356 0.224792 0.000000
0.631561 0.222565 0.000000
0.688110 0.206024 0.000000
0.725922 0.183868 0.000000
0.764740 0.183136 0.022980
0.796570 0.217834 0.204163
0.834534 0.295197 0.361237
0.870270 0.387451 0.491577
0.904266 0.494293 0.603821
0.935486 0.608002 0.698242
0.960205 0.701111 0.770477
0.975800 0.768219 0.829285
0.000000 0.209595 0.158569
0.000000 0.201294 0.115082
0.000000 0.196808 0.088165
0.000000 0.195221 0.074829
0.000000 0.198090 0.069611
0.000916 0.200073 0.063812
0.014465 0.201721 0.053711
0.072845 0.202698 0.039612
0.152710 0.217102 0.025757
0.245911 0.239014 0.013672
0.339996 0.262085 0.001190
0.449310 0.275574 0.000000
0.568176 0.286530 0.000000
0.660980 0.291565 0.000000
0.720825 0.283234 0.000000
0.756897 0.263092 0.000000
0.777130 0.235504 0.000000
0.803375 0.240387 0.110138
0.835327 0.296692 0.311737
0.871460 0.390747 0.463654
0.905426 0.497650 0.589600
0.936432 0.610962 0.690674
0.960815 0.702728 0.766510
0.976166 0.769165 0.826935
0.000000 0.270905 0.210815
0.000000 0.266174 0.169861
0.000000 0.262573 0.146973
0.000000 0.259033 0.124695
0.000000 0.256378 0.104065
0.000000 0.257568 0.090973
0.000031 0.261169 0.074799
0.000031 0.267029 0.058746
0.084473 0.272034 0.021667
0.226013 0.297150 0.003540
0.343018 0.328369 0.000671
0.462891 0.354187 0.000763
0.591644 0.369873 0.000000
0.687622 0.375793 0.000000
0.749695 0.372223 0.000000
0.791321 0.359772 0.000000
0.816925 0.337036 0.000000
0.824799 0.296722 0.003632
0.840576 0.310303 0.213287
0.873169 0.394501 0.417053
0.907257 0.502258 0.565369
0.937775 0.614594 0.678955
0.961670 0.704926 0.760773
0.976685 0.770599 0.823364
0.000000 0.344299 0.280243
0.000000 0.343750 0.242981
0.000000 0.342529 0.222687
0.000000 0.340729 0.204041
0.000000 0.339050 0.187469
0.000000 0.336639 0.169586
0.000000 0.333282 0.144714
0.000000 0.332123 0.109558
0.008087 0.346130 0.072784
0.128845 0.361053 0.010254
0.311096 0.400360 0.000031
0.455963 0.434937 0.003296
0.594360 0.460266 0.007355
0.713013 0.485168 0.000000
0.780457 0.487732 0.000000
0.829681 0.480560 0.000000
0.862488 0.464355 0.000000
0.874115 0.426361 0.000000
0.862701 0.368683 0.048645
0.878723 0.406342 0.323303
0.909851 0.507385 0.521973
0.939789 0.619110 0.657410
0.962952 0.707977 0.752106
0.977478 0.772522 0.818176
0.000000 0.422638 0.358551
0.000000 0.425140 0.330170
0.000000 0.425995 0.314575
0.000000 0.426208 0.301270
0.000000 0.426147 0.288391
0.000000 0.426025 0.275635
0.000000 0.425476 0.258301
0.000000 0.423615 0.229431
0.000000 0.419678 0.182770
0.014221 0.431274 0.120239
0.185974 0.457062 0.028656
0.409363 0.504974 0.006653
0.579376 0.540619 0.014191
0.704254 0.566772 0.036621
0.792175 0.588165 0.000000
0.859344 0.595398 0.000000
0.901093 0.585754 0.000000
0.917419 0.558472 0.000061
0.911743 0.514191 0.007355
0.902466 0.472443 0.185608
0.916260 0.518677 0.429169
0.942627 0.623901 0.619965
0.964813 0.711578 0.734619
0.978577 0.775238 0.810547
0.000000 0.501495 0.440033
0.000000 0.507660 0.419983
0.000000 0.510040 0.409607
0.000000 0.511993 0.401031
0.000000 0.513397 0.393463
0.000000 0.514343 0.385590
0.000000 0.515503 0.375977
0.000000 0.516663 0.359833
0.000000 0.517059 0.332062
0.000000 0.515106 0.281738
0.019440 0.519379 0.196472
0.263367 0.550140 0.084686
0.518707 0.601166 0.065033
0.688446 0.637512 0.081268
0.777924 0.658722 0.115356
0.853455 0.666168 0.024597
0.912231 0.668701 0.003601
0.942169 0.657227 0.004395
0.949860 0.635651 0.035767
0.950989 0.616852 0.185242
0.944000 0.590149 0.323853
0.949432 0.631958 0.534363
0.967499 0.715454 0.704071
0.980133 0.778442 0.796326
0.000000 0.580505 0.524323
0.000000 0.588684 0.510559
0.000000 0.591980 0.503998
0.000000 0.594269 0.498291
0.000000 0.596100 0.493561
0.000000 0.597839 0.488922
0.000000 0.599670 0.482635
0.000000 0.602020 0.473511
0.000000 0.604919 0.458649
0.000000 0.607910 0.433228
0.000000 0.608307 0.385437
0.050568 0.611450 0.286499
0.353821 0.643799 0.171417
0.634369 0.693573 0.164246
0.764374 0.723328 0.202087
0.841553 0.738678 0.240753
0.905640 0.736359 0.132172
0.949738 0.733337 0.087341
0.973724 0.727112 0.139893
0.983734 0.721680 0.240753
0.984741 0.711426 0.332672
0.974915 0.691223 0.439514
0.973755 0.721375 0.629700
0.982422 0.782227 0.771393
0.000000 0.651398 0.609070
0.000000 0.658295 0.600037
0.000000 0.661133 0.595459
0.000000 0.663116 0.591949
0.000000 0.664795 0.588837
0.000000 0.666168 0.585846
0.000000 0.667908 0.582306
0.000000 0.670197 0.576538
0.000000 0.673157 0.567749
0.000000 0.676941 0.552795
0.000000 0.681213 0.527649
0.000732 0.685181 0.482544
0.102356 0.690399 0.384155
0.469452 0.720062 0.273315
0.724426 0.763367 0.277557
0.825531 0.786133 0.315094
0.896118 0.798828 0.349823
0.950165 0.795044 0.291840
0.984833 0.793152 0.279449
0.997040 0.791718 0.314453
0.999084 0.789001 0.376190
0.999237 0.783813 0.449890
0.992371 0.766998 0.546600
0.987732 0.787750 0.711578
0.000000 0.707458 0.681396
0.000000 0.712708 0.675629
0.000000 0.714966 0.672821
0.000000 0.716522 0.670532
0.000000 0.717865 0.668701
0.000000 0.719025 0.666870
0.000000 0.720428 0.664734
0.000000 0.722321 0.661438
0.000000 0.725006 0.656494
0.000000 0.728485 0.649231
0.000000 0.733002 0.636200
0.000061 0.738434 0.614655
0.032288 0.744019 0.575378
0.239899 0.750275 0.483032
0.589172 0.776825 0.378906
0.786774 0.815063 0.387299
0.877869 0.834869 0.421326
0.937561 0.846130 0.454132
0.981506 0.843140 0.413239
0.998962 0.841827 0.409973
0.999969 0.840820 0.438171
1.000000 0.841461 0.492767
1.000000 0.840210 0.558350
0.997711 0.825775 0.641541
0.000000 0.754608 0.742401
0.000000 0.758545 0.738739
0.000031 0.760193 0.737000
0.000061 0.761444 0.735809
0.000061 0.762421 0.734680
0.000061 0.763275 0.733673
0.000061 0.764404 0.732422
0.000092 0.765900 0.730560
0.000153 0.767883 0.727844
0.000153 0.770844 0.723846
0.000214 0.774689 0.717804
0.025665 0.779541 0.707672
0.093384 0.785370 0.690338
0.223297 0.792389 0.660767
0.410919 0.798584 0.581116
0.686096 0.825043 0.482483
0.839111 0.859192 0.492157
0.918915 0.877228 0.524872
0.967346 0.887543 0.557129
0.995636 0.884949 0.525543
1.000000 0.882355 0.524170
1.000000 0.883545 0.552582
1.000000 0.886353 0.601257
1.000000 0.886017 0.653992
0.002625 0.795959 0.791138
0.003265 0.798828 0.788940
0.003479 0.800140 0.787872
0.005798 0.800964 0.787170
0.010437 0.801666 0.786560
0.013489 0.802338 0.785950
0.020416 0.803101 0.785431
0.027008 0.804199 0.784485
0.037018 0.805725 0.783112
0.055511 0.807861 0.781342
0.071808 0.810883 0.778198
0.109558 0.814911 0.774200
0.191681 0.820648 0.768188
0.327209 0.828064 0.757446
0.447998 0.837006 0.737122
0.571472 0.843842 0.670013
0.757019 0.867676 0.583862
0.885315 0.898376 0.595367
0.950958 0.913757 0.625519
0.985382 0.923157 0.652466
0.999817 0.919281 0.628082
1.000000 0.917328 0.629425
1.000000 0.919952 0.653900
1.000000 0.922577 0.691498
0.199005 0.833344 0.835083
0.228760 0.835571 0.834534
0.241943 0.836548 0.834259
0.250580 0.837280 0.833984
0.259155 0.837860 0.833832
0.265076 0.838379 0.833710
0.271759 0.839111 0.833649
0.280273 0.839996 0.833496
0.293701 0.841309 0.833221
0.310669 0.843109 0.832855
0.336029 0.845612 0.832153
0.372681 0.849304 0.831207
0.419006 0.854279 0.829529
0.477203 0.860901 0.826019
0.535431 0.869110 0.818359
0.605927 0.878815 0.802063
0.681305 0.885010 0.746857
0.810272 0.904510 0.677185
0.921692 0.930664 0.687134
0.971588 0.942993 0.710632
0.995178 0.950653 0.732422
1.000000 0.946136 0.714417
1.000000 0.945404 0.716919
1.000000 0.947968 0.736023
0.474976 0.871918 0.881317
0.487000 0.873627 0.881622
0.492493 0.874390 0.881744
0.496521 0.875000 0.881836
0.499847 0.875488 0.881897
0.503235 0.875946 0.881958
0.506134 0.876434 0.881958
0.509949 0.877045 0.881927
0.515137 0.877899 0.881897
0.522919 0.879242 0.881836
0.533569 0.881104 0.881775
0.547882 0.883575 0.881500
0.568756 0.887207 0.880951
0.596008 0.892181 0.879944
0.628998 0.898529 0.877655
0.665833 0.906067 0.871552
0.708496 0.914734 0.858368
0.756714 0.920074 0.809326
0.858948 0.936310 0.751129
0.948334 0.955597 0.759979
0.985321 0.965302 0.779724
0.999359 0.970367 0.798035
1.000000 0.966339 0.783417
1.000000 0.965881 0.786224
0.633606 0.906799 0.921631
0.638702 0.907928 0.921906
0.641113 0.908447 0.922028
0.642731 0.908783 0.922119
0.644165 0.909119 0.922211
0.645538 0.909424 0.922241
0.646881 0.909729 0.922333
0.648834 0.910156 0.922424
0.651459 0.910706 0.922516
0.654663 0.911469 0.922577
0.659607 0.912598 0.922699
0.666260 0.914154 0.922791
0.675232 0.916290 0.922760
0.688171 0.919373 0.922516
0.704315 0.923309 0.922028
0.725220 0.928650 0.920349
0.749146 0.934723 0.915955
0.777802 0.941711 0.905365
0.814484 0.946747 0.863068
0.895599 0.959076 0.814636
0.968872 0.973785 0.823334
0.993469 0.980347 0.840607
0.999969 0.983093 0.856140
1.000000 0.980255 0.843536
0.730316 0.934570 0.950531
0.732422 0.935181 0.950714
0.733490 0.935516 0.950806
0.734161 0.935669 0.950836
0.734741 0.935822 0.950928
0.735382 0.936005 0.950928
0.735992 0.936188 0.951019
0.736908 0.936432 0.951080
0.738037 0.936798 0.951172
0.739746 0.937225 0.951263
0.741913 0.937866 0.951355
0.745148 0.938782 0.951599
0.749573 0.940033 0.951782
0.755737 0.941772 0.952087
0.764221 0.944214 0.952240
0.775757 0.947449 0.952271
0.790527 0.951721 0.951782
0.808563 0.956696 0.950012
0.831573 0.962433 0.943176
0.860016 0.966827 0.914032
0.927094 0.975739 0.872375
0.981781 0.986176 0.879547
0.997772 0.990326 0.893829
1.000000 0.991302 0.906464
0.024963 0.029724 0.034637
0.025757 0.029816 0.035217
0.043243 0.034210 0.041931
0.073975 0.040009 0.049194
0.093170 0.043854 0.055206
0.114288 0.045898 0.060822
0.143372 0.047333 0.066559
0.176910 0.049255 0.073181
0.217285 0.050964 0.080841
0.271179 0.049713 0.090118
0.339996 0.040863 0.101227
0.421844 0.016846 0.117981
0.505096 0.003418 0.144501
0.584839 0.001190 0.180664
0.654724 0.013092 0.223816
0.709473 0.045380 0.274414
0.753479 0.108063 0.335541
0.791718 0.184113 0.406219
0.828644 0.271759 0.485748
0.864136 0.367798 0.568665
0.899261 0.476990 0.650513
0.931427 0.595123 0.724670
0.957642 0.693939 0.784729
0.974396 0.763885 0.838074
0.024963 0.029724 0.034637
0.024963 0.029724 0.034637
0.026123 0.029999 0.034851
0.042480 0.033936 0.037262
0.070374 0.039307 0.039001
0.088104 0.043732 0.040253
0.113831 0.047424 0.041077
0.153442 0.050964 0.040344
0.199066 0.055023 0.039612
0.255432 0.057037 0.040558
0.326630 0.051453 0.047791
0.411133 0.033722 0.065765
0.496948 0.016144 0.091003
0.578491 0.014130 0.125397
0.650757 0.030243 0.175415
0.709045 0.064362 0.237427
0.754089 0.120422 0.308197
0.792450 0.193329 0.385651
0.829163 0.277954 0.470093
0.864594 0.373291 0.557892
0.899323 0.481354 0.643097
0.931152 0.596008 0.719116
0.956818 0.692993 0.780518
0.974640 0.764771 0.836639
0.024963 0.029724 0.034637
0.024963 0.029724 0.034637
0.024963 0.029724 0.034637
0.029022 0.031219 0.034058
0.046021 0.036041 0.032959
0.069153 0.041168 0.032288
0.090973 0.046417 0.032227
0.127960 0.051239 0.030945
0.179077 0.055786 0.028534
0.239441 0.058807 0.023315
0.314392 0.056824 0.015686
0.402527 0.044739 0.023315
0.491943 0.029266 0.048767
0.575409 0.025299 0.087036
0.648834 0.039368 0.140656
0.708649 0.071960 0.211029
0.754456 0.126343 0.288635
0.792969 0.197418 0.372101
0.829712 0.280853 0.460510
0.865143 0.375519 0.551056
0.899750 0.483124 0.639038
0.931549 0.597321 0.716675
0.957062 0.693817 0.779175
0.974792 0.765137 0.836029
0.023865 0.033447 0.038330
0.024567 0.031647 0.035980
0.025055 0.030975 0.035095
0.025970 0.030884 0.034882
0.033417 0.034363 0.031982
0.051788 0.039124 0.031189
0.076294 0.044739 0.030731
0.108704 0.050598 0.029144
0.160370 0.056091 0.024048
0.224335 0.060852 0.013336
0.303070 0.062866 0.003876
0.396606 0.056610 0.004913
0.488708 0.043915 0.021179
0.573822 0.035706 0.059265
0.648254 0.048309 0.116455
0.708313 0.076752 0.190582
0.754578 0.129669 0.274811
0.793274 0.200012 0.362366
0.830139 0.282623 0.454010
0.865570 0.376892 0.546631
0.900085 0.484283 0.636230
0.931763 0.598145 0.715179
0.957245 0.694305 0.778229
0.974823 0.765381 0.835541
0.014130 0.044769 0.048096
0.020996 0.039856 0.042114
0.025055 0.037750 0.037903
0.029114 0.036743 0.036896
0.032623 0.037964 0.036957
0.044739 0.041382 0.033386
0.068604 0.046173 0.032349
0.099304 0.052124 0.030792
0.147644 0.057648 0.025635
0.212006 0.063293 0.011566
0.292511 0.068451 0.000916
0.390228 0.067535 0.000336
0.487274 0.060089 0.006500
0.572693 0.048828 0.036987
0.647644 0.054840 0.096008
0.708130 0.080780 0.172455
0.754669 0.132233 0.262085
0.793549 0.201904 0.354218
0.830444 0.284058 0.448364
0.865906 0.378052 0.542969
0.900391 0.485199 0.633972
0.931976 0.598755 0.713806
0.957367 0.694672 0.777527
0.974915 0.765594 0.835114
0.000702 0.058807 0.057007
0.007965 0.052582 0.048645
0.018372 0.049042 0.042450
0.029419 0.047058 0.040100
0.035126 0.047058 0.039856
0.046997 0.050537 0.040619
0.068756 0.054840 0.035706
0.099243 0.061066 0.033142
0.146576 0.066772 0.027557
0.209076 0.070465 0.013672
0.283905 0.072998 0.001740
0.382874 0.076569 0.000061
0.484619 0.075317 0.001221
0.572998 0.063507 0.020752
0.647278 0.064148 0.076447
0.708252 0.085388 0.153656
0.754669 0.134277 0.249054
0.793732 0.203583 0.345520
0.830719 0.285309 0.442932
0.866150 0.379089 0.539246
0.900604 0.486053 0.631714
0.932220 0.599426 0.712524
0.957489 0.695129 0.776825
0.975006 0.765839 0.834778
0.000000 0.074066 0.073059
0.000610 0.068573 0.056824
0.006195 0.064880 0.049652
0.014130 0.062653 0.045227
0.027344 0.061279 0.042908
0.047272 0.064026 0.044159
0.071594 0.070099 0.044647
0.101044 0.076294 0.037903
0.150116 0.083344 0.030609
0.217041 0.089539 0.014740
0.294250 0.093719 0.002228
0.382874 0.092072 0.000031
0.480835 0.091370 0.000000
0.574310 0.085175 0.004395
0.647339 0.074219 0.051025
0.708252 0.089874 0.130890
0.754761 0.136780 0.233643
0.794006 0.205566 0.335724
0.831085 0.286743 0.436462
0.866486 0.380219 0.535278
0.900909 0.487091 0.629120
0.932404 0.600159 0.711090
0.957642 0.695496 0.776001
0.975037 0.766083 0.834320
0.000000 0.093689 0.093689
0.000000 0.088196 0.069824
0.000488 0.084503 0.059021
0.002991 0.082184 0.052856
0.012451 0.080750 0.049286
0.037445 0.080627 0.046997
0.074127 0.087555 0.048767
0.104675 0.096100 0.048889
0.154297 0.102966 0.036896
0.224731 0.110443 0.016846
0.307404 0.117950 0.002502
0.402527 0.120697 0.000061
0.493378 0.116119 0.000000
0.573792 0.106598 0.000336
0.649811 0.094849 0.022217
0.708862 0.098083 0.097870
0.754944 0.140839 0.207520
0.794342 0.207977 0.320526
0.831543 0.288696 0.426819
0.866943 0.381866 0.528992
0.901276 0.488464 0.625488
0.932770 0.601166 0.708954
0.957855 0.696106 0.774872
0.975159 0.766418 0.833679
0.000000 0.125275 0.118500
0.000000 0.119019 0.091064
0.000000 0.114532 0.074463
0.000458 0.111511 0.064209
0.003876 0.109863 0.059052
0.019409 0.108704 0.054871
0.058105 0.111786 0.051575
0.102295 0.122925 0.052643
0.158173 0.134796 0.049835
0.232330 0.143127 0.021515
0.320190 0.153259 0.002228
0.423126 0.159607 0.000061
0.522278 0.158661 0.000000
0.599365 0.147247 0.000000
0.655609 0.124725 0.002869
0.711609 0.116913 0.047607
0.755554 0.147186 0.164703
0.794739 0.211365 0.295197
0.832214 0.291260 0.412170
0.867645 0.384033 0.519653
0.901886 0.490417 0.619904
0.933197 0.602509 0.705902
0.958099 0.696930 0.773132
0.975311 0.766907 0.832703
0.000000 0.166504 0.151031
0.000000 0.160645 0.121979
0.000000 0.156067 0.101624
0.000122 0.153046 0.087067
0.001373 0.150909 0.075775
0.007477 0.149994 0.068329
0.018402 0.150330 0.059540
0.072083 0.158813 0.054291
0.150208 0.175201 0.051422
0.238007 0.191559 0.038055
0.331909 0.204376 0.002502
0.443237 0.215973 0.000000
0.552155 0.220886 0.000000
0.635132 0.215210 0.000000
0.689331 0.194824 0.000000
0.724274 0.163055 0.005463
0.758331 0.163696 0.099915
0.795227 0.215637 0.253387
0.833008 0.294403 0.387512
0.868530 0.387085 0.505524
0.902740 0.493195 0.611572
0.933777 0.604492 0.701324
0.958496 0.697998 0.770721
0.975555 0.767609 0.831207
0.000000 0.214050 0.191498
0.000000 0.210114 0.160950
0.000000 0.206360 0.139648
0.000000 0.203735 0.123444
0.000031 0.201630 0.108582
0.000671 0.199921 0.094696
0.002838 0.199066 0.077484
0.016052 0.202942 0.062408
0.111633 0.219025 0.051025
0.230957 0.241608 0.035309
0.337708 0.263153 0.016602
0.458801 0.280212 0.000092
0.577972 0.290894 0.000000
0.667938 0.292175 0.000000
0.725220 0.280334 0.000122
0.759155 0.255157 0.000549
0.772888 0.215210 0.029999
0.798096 0.228729 0.173279
0.834106 0.297852 0.345459
0.869843 0.390778 0.480499
0.903839 0.496796 0.598511
0.934723 0.607269 0.694153
0.959076 0.699615 0.766937
0.975922 0.768585 0.828827
0.000000 0.274017 0.245667
0.000000 0.273560 0.215240
0.000000 0.271027 0.194275
0.000000 0.269135 0.177734
0.000000 0.267334 0.163086
0.000000 0.265808 0.148315
0.000000 0.263702 0.128265
0.002014 0.263397 0.099457
0.016571 0.270172 0.066681
0.182343 0.296631 0.035919
0.324554 0.327576 0.020538
0.458160 0.353180 0.016144
0.593140 0.372437 0.000336
0.693481 0.381195 0.000031
0.754883 0.376190 0.000122
0.793579 0.358643 0.000793
0.811371 0.324585 0.012665
0.815582 0.282074 0.073212
0.837097 0.306091 0.263275
0.871552 0.395050 0.439270
0.905579 0.501587 0.575897
0.935974 0.610870 0.683136
0.959930 0.701904 0.761383
0.976440 0.769989 0.825348
0.000000 0.346649 0.310303
0.000000 0.348206 0.283752
0.000000 0.347656 0.265259
0.000000 0.346924 0.250732
0.000000 0.346100 0.237366
0.000000 0.344910 0.223053
0.000000 0.343781 0.205231
0.000000 0.341858 0.176392
0.000000 0.341553 0.130981
0.035583 0.354248 0.069550
0.270905 0.393585 0.033661
0.439697 0.431488 0.032715
0.587677 0.457550 0.031952
0.705261 0.476837 0.002350
0.775818 0.481598 0.000214
0.822601 0.472015 0.000610
0.848785 0.447815 0.012360
0.858521 0.410004 0.054565
0.858002 0.366272 0.147919
0.875702 0.403503 0.353668
0.908020 0.507080 0.536652
0.937897 0.615723 0.663391
0.961151 0.704865 0.752625
