example/assets/luts/lut2.cube
#LUT size
LUT_3D_SIZE 9
#LUT data points
0.000000 0.006012 0.000000
0.000000 0.006012 0.000000
0.054443 0.044067 0.027222
0.226685 0.066742 0.063293
0.537506 0.096313 0.054596
0.842346 0.191956 0.056366
0.934448 0.232544 0.064728
0.934448 0.232544 0.064728
0.934448 0.232544 0.064728
0.000000 0.006012 0.000000
0.000000 0.006012 0.000000
0.000000 0.015961 0.000732
0.155975 0.066620 0.056763
0.503510 0.092865 0.055786
0.827423 0.187347 0.055450
0.934448 0.232544 0.064728
0.934448 0.232544 0.064728
0.934448 0.232544 0.064728
0.000000 0.006012 0.000000
0.000000 0.006012 0.000000
0.000000 0.006012 0.000000
0.120880 0.063171 0.049744
0.482269 0.090790 0.056580
0.817780 0.185272 0.054871
0.934448 0.232544 0.064728
0.934448 0.232544 0.064728
0.934448 0.232544 0.064728
0.000000 0.158325 0.000000
0.000000 0.147034 0.000000
0.000000 0.138245 0.000000
0.050354 0.148163 0.004913
0.426849 0.168182 0.040466
0.800140 0.194916 0.053619
0.934448 0.232544 0.064728
0.934448 0.232544 0.064728
0.934448 0.232544 0.064728
0.000000 0.425049 0.000000
0.000000 0.412262 0.000000
0.000000 0.407043 0.000000
0.000000 0.397858 0.000000
0.339630 0.417969 0.010834
0.763916 0.417877 0.046509
0.910278 0.385620 0.064209
0.916809 0.340454 0.065338
0.919556 0.322876 0.065704
0.183075 0.721985 0.081604
0.180695 0.718658 0.081207
0.178223 0.715363 0.081055
0.174530 0.711945 0.080841
0.227020 0.703033 0.070404
0.711304 0.708588 0.026245
0.880981 0.688995 0.052246
0.882233 0.669312 0.055389
0.882843 0.658844 0.056213
0.328308 0.942322 0.145569
0.326569 0.938446 0.145325
0.325043 0.934540 0.145081
0.322113 0.930176 0.144775
0.318481 0.920135 0.141113
0.600800 0.911469 0.117889
0.873932 0.895599 0.063354
0.874207 0.876831 0.039307
0.874298 0.870087 0.036102
0.394318 1.000000 0.184479
0.394318 1.000000 0.184479
0.394318 1.000000 0.184479
0.394318 1.000000 0.184479
0.394318 1.000000 0.183472
0.521240 1.000000 0.177521
0.884277 1.000000 0.147369
0.899261 1.000000 0.111694
0.897308 1.000000 0.108459
0.394318 1.000000 0.184479
0.394318 1.000000 0.184479
0.394318 1.000000 0.184479
0.394318 1.000000 0.184479
0.394318 1.000000 0.184479
0.463135 1.000000 0.182800
0.853851 1.000000 0.155426
0.899261 1.000000 0.120911
0.899200 1.000000 0.130371
0.000000 0.006012 0.000000
0.000000 0.006012 0.000000
0.047607 0.042053 0.024963
0.217926 0.066620 0.062866
0.532532 0.095703 0.054810
0.841461 0.191803 0.056305
0.934448 0.232544 0.064728
0.934448 0.232544 0.064728
0.934448 0.232544 0.064728
0.000000 0.006012 0.000000
0.000000 0.006012 0.000000
0.000000 0.011292 0.000000
0.150574 0.066315 0.055939
0.498291 0.092346 0.056000
0.824860 0.186584 0.055298
0.934448 0.232544 0.064728
0.934448 0.232544 0.064728
0.934448 0.232544 0.064728
0.000000 0.006012 0.000000
0.000000 0.006012 0.000000
0.000000 0.006012 0.000000
0.114594 0.062042 0.048004
0.477203 0.090302 0.056763
0.816467 0.184967 0.054840
0.934448 0.232544 0.064728
0.934448 0.232544 0.064728
0.934448 0.232544 0.064728
0.000000 0.158447 0.000000
0.000000 0.144196 0.000000
0.000000 0.135193 0.000000
0.041870 0.146301 0.003632
0.421570 0.167450 0.040466
0.797333 0.192352 0.053467
0.934448 0.232544 0.064728
0.934448 0.232544 0.064728
0.934448 0.232544 0.064728
0.000000 0.422424 0.000000
0.000000 0.412445 0.000000
0.000000 0.407074 0.000000
0.000000 0.397858 0.000000
0.332794 0.416168 0.010406
0.760986 0.417358 0.046265
0.910278 0.385559 0.064209
0.916809 0.340515 0.065338
0.919525 0.323059 0.065735
0.183167 0.722076 0.081635
0.180786 0.718750 0.081238
0.176880 0.715393 0.081024
0.174622 0.712067 0.080872
0.222626 0.702850 0.070740
0.711182 0.708679 0.026245
0.881104 0.686737 0.052368
0.882324 0.666962 0.055725
0.882843 0.658844 0.056213
0.326904 0.938904 0.145325
0.326569 0.938446 0.145325
0.325073 0.934601 0.145081
0.322144 0.930206 0.144775
0.318512 0.920197 0.141144
0.597076 0.911377 0.118286
0.873932 0.895386 0.062592
0.874176 0.876923 0.039307
0.874298 0.870117 0.036102
0.394318 1.000000 0.184479
0.394318 1.000000 0.184479
0.394318 1.000000 0.184479
0.394318 1.000000 0.184479
0.394318 1.000000 0.183472
0.517761 1.000000 0.177765
0.881592 1.000000 0.147552
0.899261 1.000000 0.111694
0.897308 1.000000 0.108459
0.394318 1.000000 0.184479
0.394318 1.000000 0.184479
0.394318 1.000000 0.184479
0.394318 1.000000 0.184479
0.394318 1.000000 0.184479
0.460846 1.000000 0.182648
0.850586 1.000000 0.155823
0.899261 1.000000 0.120728
0.899200 1.000000 0.130371
0.000000 0.006012 0.000000
0.000000 0.006012 0.000000
0.043243 0.040924 0.023651
0.216278 0.066589 0.062775
0.529816 0.095428 0.054871
0.838867 0.191254 0.056152
0.934448 0.232544 0.064728
0.934448 0.232544 0.064728
0.934448 0.232544 0.064728
0.000000 0.006012 0.000000
0.000000 0.006012 0.000000
0.000000 0.009644 0.000000
0.145203 0.065979 0.054993
0.493195 0.091858 0.056183
0.823822 0.186401 0.055267
0.934448 0.232544 0.064728
0.934448 0.232544 0.064728
0.934448 0.232544 0.064728
0.000000 0.006012 0.000000
0.000000 0.006012 0.000000
0.000000 0.006012 0.000000
0.110840 0.061279 0.046936
0.473114 0.089905 0.056915
0.814209 0.184448 0.054688
0.934448 0.232544 0.064728
0.934448 0.232544 0.064728
0.934448 0.232544 0.064728
0.000000 0.158600 0.000000
0.000000 0.144287 0.000000
0.000000 0.135010 0.000000
0.035583 0.145203 0.002594
0.417755 0.167358 0.040375
0.797485 0.191895 0.053497
0.934448 0.232544 0.064728
0.934448 0.232544 0.064728
0.934448 0.232544 0.064728
0.000000 0.422668 0.000000
0.000000 0.412201 0.000000
0.000000 0.407227 0.000000
0.000000 0.397858 0.000000
0.330139 0.414948 0.010254
0.760498 0.417358 0.046204
0.910522 0.383881 0.064240
0.916779 0.340759 0.065338
0.919495 0.323273 0.065735
0.183380 0.722351 0.081726
0.181000 0.718964 0.081299
0.176941 0.715454 0.081024
0.174713 0.712189 0.080933
0.220123 0.702911 0.071045
0.707367 0.708557 0.025757
0.881195 0.686096 0.052460
0.882324 0.667084 0.055725
0.882843 0.658997 0.056213
0.326996 0.939026 0.145325
0.326630 0.938568 0.145355
0.325012 0.934723 0.145111
0.322388 0.930359 0.143951
0.318573 0.920319 0.141174
0.594421 0.911346 0.118561
0.873932 0.895477 0.062592
0.874176 0.876953 0.039337
0.874298 0.870178 0.036102
0.394318 1.000000 0.184479
0.394318 1.000000 0.184479
0.394318 1.000000 0.184479
0.394318 1.000000 0.184479
0.394318 1.000000 0.183441
0.515594 1.000000 0.177765
0.880676 1.000000 0.147675
0.899261 1.000000 0.111694
0.897369 1.000000 0.108551
0.394318 1.000000 0.184479
0.394318 1.000000 0.184479
0.394318 1.000000 0.184479
0.394318 1.000000 0.184479
0.394318 1.000000 0.184479
0.459137 1.000000 0.182556
0.850586 1.000000 0.155823
0.899261 1.000000 0.120697
0.899200 1.000000 0.130371
0.000000 0.008087 0.131195
0.000000 0.007629 0.127533
0.018585 0.038239 0.139648
0.196167 0.061249 0.172668
0.508270 0.094513 0.177246
0.827911 0.185150 0.151001
0.933838 0.229553 0.139771
0.933746 0.228912 0.152344
0.933350 0.227051 0.188080
0.000000 0.006775 0.120880
0.000000 0.006592 0.119110
0.000000 0.011108 0.119781
0.129486 0.058929 0.152985
0.469727 0.090515 0.166382
0.811584 0.178162 0.139313
0.934052 0.229797 0.125031
0.933868 0.229614 0.136902
0.933594 0.227051 0.176422
0.000000 0.005707 0.117096
0.000000 0.006195 0.116516
0.000000 0.006012 0.113800
0.088501 0.056122 0.137878
0.450500 0.088501 0.160034
0.803741 0.175629 0.131622
0.934235 0.229736 0.115967
0.934021 0.229797 0.126923
0.933716 0.227051 0.170929
0.000000 0.152100 0.123444
0.000000 0.134430 0.117645
0.000000 0.127563 0.115051
0.014648 0.131470 0.120087
0.400299 0.155701 0.143219
0.786438 0.184265 0.119965
0.934479 0.229675 0.098785
0.934296 0.229706 0.111969
0.933746 0.228180 0.157990
0.000000 0.416931 0.132446
0.000000 0.406982 0.130615
0.000000 0.401886 0.128296
0.000000 0.392517 0.126465
0.311279 0.410004 0.120514
0.753723 0.411987 0.087006
0.911102 0.379730 0.064362
0.917267 0.337555 0.070282
0.919708 0.317993 0.119934
0.179840 0.722351 0.126434
0.177765 0.718964 0.123047
0.173920 0.715546 0.121979
0.171143 0.712097 0.120789
0.210754 0.701385 0.110107
0.703247 0.707947 0.063385
0.881195 0.685669 0.052490
0.882324 0.666992 0.055725
0.883026 0.656281 0.057861
0.326843 0.939148 0.146240
0.325470 0.935638 0.145264
0.324677 0.934753 0.145233
0.322205 0.930420 0.144958
0.318604 0.920471 0.141693
0.592072 0.911285 0.118927
0.873932 0.895325 0.062927
0.874176 0.877014 0.039337
0.874298 0.870239 0.039673
0.394318 1.000000 0.184479
0.394318 1.000000 0.184479
0.394318 1.000000 0.184479
0.394318 1.000000 0.184479
0.394318 1.000000 0.183441
0.512573 1.000000 0.177704
0.879730 1.000000 0.147614
0.899261 1.000000 0.111755
0.897400 1.000000 0.108582
0.394318 1.000000 0.184479
0.394318 1.000000 0.184479
0.394318 1.000000 0.184479
0.394318 1.000000 0.184479
0.394318 1.000000 0.184479
0.455933 1.000000 0.182343
0.847412 1.000000 0.156250
0.899261 1.000000 0.121674
0.899200 1.000000 0.130371
0.000000 0.018951 0.335999
0.000000 0.018890 0.334930
0.000000 0.021271 0.338898
0.178009 0.054169 0.376740
0.481659 0.093170 0.400909
0.804901 0.169891 0.398987
0.928986 0.222015 0.400360
0.928680 0.222046 0.415192
0.927551 0.221741 0.460175
0.000000 0.018799 0.331268
0.000000 0.018738 0.329193
0.000000 0.018738 0.329529
0.122559 0.044983 0.362854
0.443542 0.088989 0.395508
0.790344 0.163269 0.393707
0.929230 0.221985 0.392303
0.928833 0.222015 0.407257
0.927582 0.222046 0.456451
0.000000 0.018219 0.330963
0.000000 0.018555 0.325928
0.000000 0.018677 0.326385
0.086395 0.038513 0.353027
0.425079 0.086884 0.393188
0.781952 0.160248 0.390747
0.929321 0.221985 0.389038
0.928925 0.222015 0.402649
0.927643 0.222107 0.452850
0.000000 0.145203 0.342163
0.000000 0.131378 0.337891
0.000000 0.122864 0.336182
0.000061 0.118927 0.338257
0.381195 0.132507 0.385315
0.766968 0.168762 0.382965
0.929443 0.221985 0.384369
0.929108 0.221985 0.396332
0.927795 0.222107 0.446808
0.000000 0.407257 0.380310
0.000000 0.397430 0.378174
0.000000 0.392700 0.376923
0.000000 0.382599 0.375183
0.270905 0.396545 0.383057
0.726715 0.401611 0.374359
0.907623 0.375153 0.363190
0.913086 0.332367 0.379242
0.914948 0.311127 0.433441
0.126495 0.720978 0.381500
0.120911 0.715363 0.381104
0.119751 0.714111 0.381439
0.116608 0.709686 0.379181
0.153320 0.699463 0.373260
0.673248 0.708313 0.356018
0.880310 0.689362 0.339172
0.881500 0.667114 0.340118
0.881714 0.658813 0.404480
0.298553 0.937988 0.345856
0.296997 0.933990 0.344238
0.297058 0.933990 0.342896
0.295288 0.929596 0.342255
0.289307 0.916870 0.337616
0.566437 0.912109 0.321747
0.873962 0.898193 0.285950
0.874268 0.877838 0.299866
0.874420 0.870148 0.358551
0.376038 1.000000 0.328033
0.376801 1.000000 0.324738
0.376678 1.000000 0.325226
0.376556 1.000000 0.325623
0.377625 1.000000 0.321472
0.487732 1.000000 0.313629
0.865753 1.000000 0.285645
0.898529 1.000000 0.290192
0.896545 1.000000 0.348175
0.379089 1.000000 0.312744
0.379303 1.000000 0.311188
0.379272 1.000000 0.311615
0.379333 1.000000 0.310547
0.379486 1.000000 0.307465
0.431580 1.000000 0.302063
0.835144 1.000000 0.276825
0.898621 1.000000 0.269623
0.898254 1.000000 0.341766
0.032104 0.032623 0.611603
0.032166 0.032623 0.611908
0.031769 0.032501 0.609283
0.132782 0.046417 0.623688
0.448334 0.089142 0.662354
0.778168 0.157410 0.673340
0.922516 0.218170 0.681061
0.922272 0.218964 0.687378
0.921021 0.218903 0.737885
0.031494 0.032410 0.607635
0.031555 0.032440 0.608063
0.031281 0.032379 0.606079
0.063568 0.035614 0.608215
0.409607 0.084534 0.656677
0.762970 0.151886 0.670044
0.922577 0.218231 0.677948
0.922363 0.218964 0.684052
0.921082 0.218903 0.734863
0.029877 0.031647 0.607300
0.030701 0.032104 0.604919
0.031036 0.032288 0.604828
0.031128 0.032318 0.605133
0.389069 0.082031 0.655640
0.754852 0.146790 0.667419
0.922546 0.218262 0.678558
0.922363 0.218994 0.683624
0.921173 0.218903 0.731964
0.000885 0.144867 0.614319
0.002655 0.133575 0.611572
0.004395 0.124603 0.610504
0.007080 0.110291 0.609192
0.349548 0.111664 0.654480
0.739441 0.153046 0.664703
0.922638 0.218323 0.675446
0.922455 0.218994 0.679810
0.921204 0.218903 0.729553
0.000000 0.399902 0.661591
0.000000 0.389679 0.657837
0.000000 0.384888 0.657166
0.000000 0.374969 0.653412
0.215607 0.379974 0.665558
0.689697 0.385254 0.667206
0.903839 0.367004 0.667267
0.908936 0.322784 0.671234
0.910736 0.300140 0.725098
0.000183 0.711487 0.682098
0.000061 0.707825 0.682098
0.000031 0.704315 0.679962
0.000000 0.700592 0.679901
0.004517 0.690948 0.679596
0.614288 0.701874 0.668304
0.879761 0.689362 0.636047
0.880768 0.666107 0.653564
0.881409 0.651520 0.712128
0.220062 0.932495 0.650818
0.218689 0.927582 0.649017
0.218292 0.927063 0.649475
0.215790 0.922180 0.649475
0.209961 0.913177 0.649170
0.491943 0.907623 0.637604
0.862488 0.897003 0.608032
0.874603 0.879333 0.604736
0.874908 0.871002 0.678070
0.308716 1.000000 0.633636
0.308624 1.000000 0.634033
0.308502 1.000000 0.634460
0.308533 1.000000 0.634369
0.309326 1.000000 0.631500
0.409058 1.000000 0.627533
0.825104 1.000000 0.611206
0.897125 1.000000 0.614532
0.895386 1.000000 0.677155
0.310760 1.000000 0.626678
0.310669 1.000000 0.627045
0.310547 1.000000 0.627472
0.310394 1.000000 0.627960
0.311401 1.000000 0.624512
0.351990 1.000000 0.620819
0.797119 1.000000 0.605072
0.897156 1.000000 0.607269
0.897003 1.000000 0.668701
0.088928 0.042480 0.836334
0.088959 0.042480 0.836578
0.088959 0.042511 0.836823
0.088684 0.042358 0.832367
0.395782 0.083313 0.880280
0.747894 0.157379 0.909546
0.917480 0.220612 0.907318
0.917358 0.220886 0.913818
0.914673 0.221832 0.985382
0.088745 0.042389 0.833862
0.088684 0.042389 0.833313
0.088715 0.042389 0.833496
0.088348 0.042236 0.829224
0.357300 0.078705 0.871552
0.731934 0.151459 0.903809
0.917480 0.220612 0.907898
0.917511 0.220917 0.902771
0.915100 0.221252 0.984375
0.085999 0.041992 0.832520
0.088531 0.042358 0.832947
0.088623 0.042358 0.833313
0.088531 0.042297 0.831116
0.336151 0.076141 0.869537
0.723480 0.147247 0.904419
0.917542 0.220673 0.903046
0.917511 0.220947 0.903351
0.915009 0.221344 0.984528
0.032166 0.153839 0.843201
0.035919 0.142334 0.838165
0.038300 0.134857 0.836700
0.043060 0.120972 0.835693
0.290802 0.108948 0.868042
0.707367 0.150299 0.902710
0.917542 0.220703 0.901062
0.917542 0.220917 0.901062
0.915375 0.220917 0.982239
0.000000 0.393951 0.885773
0.000000 0.382629 0.883606
0.000000 0.377777 0.883026
0.000000 0.369934 0.882324
0.127777 0.364807 0.889740
0.648651 0.370636 0.908173
0.902069 0.355011 0.905823
0.906372 0.315033 0.904266
0.907928 0.294647 0.979370
0.000000 0.701965 0.940002
0.000000 0.697968 0.936401
0.000000 0.693787 0.936401
0.000000 0.689514 0.936829
0.000000 0.675995 0.935699
0.548401 0.685974 0.927948
0.878113 0.674561 0.910736
0.881439 0.652832 0.899536
0.882050 0.640564 0.967285
0.108429 0.925049 0.903809
0.104767 0.919922 0.904449
0.101105 0.915771 0.905243
0.097382 0.911804 0.906372
0.091766 0.904297 0.902924
0.399567 0.897095 0.893311
0.810730 0.890411 0.855164
0.875580 0.874146 0.855438
0.875946 0.864532 0.897217
0.220886 1.000000 0.883453
0.220856 1.000000 0.883698
0.220795 1.000000 0.884064
0.220917 1.000000 0.883667
0.219971 1.000000 0.879700
0.305878 1.000000 0.877167
0.776276 1.000000 0.858429
0.894623 1.000000 0.858948
0.891663 1.000000 0.895142
0.222015 1.000000 0.878235
0.220734 1.000000 0.874054
0.220673 1.000000 0.874451
0.220642 1.000000 0.874847
0.220520 1.000000 0.875305
0.251617 1.000000 0.871490
0.749268 1.000000 0.852478
0.896820 1.000000 0.857056
0.896851 1.000000 0.896210
0.120056 0.052582 0.974243
0.120056 0.052582 0.974243
0.120056 0.052582 0.974243
0.120056 0.052582 0.974243
0.373291 0.093414 0.990906
0.735779 0.174011 0.999146
0.911499 0.230957 1.000000
0.911499 0.230957 1.000000
0.911499 0.230957 1.000000
0.120056 0.052582 0.974243
0.120056 0.052582 0.974243
0.120056 0.052582 0.974243
0.120056 0.052582 0.974243
0.331970 0.087677 0.989197
0.722076 0.168091 0.998871
0.911499 0.230957 1.000000
0.911499 0.230957 1.000000
0.911499 0.230957 1.000000
0.120056 0.052582 0.974243
0.120056 0.052582 0.974243
0.120056 0.052582 0.974243
0.120056 0.052582 0.974243
0.310303 0.084564 0.988129
0.711975 0.165680 0.998718
0.911499 0.230957 1.000000
0.911499 0.230957 1.000000
0.911499 0.230957 1.000000
0.046539 0.163696 0.968597
0.053955 0.147919 0.969543
0.059235 0.141479 0.970093
0.071869 0.128357 0.970886
0.255981 0.121185 0.985107
0.690430 0.164642 0.998505
0.911499 0.230957 1.000000
0.911499 0.230957 1.000000
0.911499 0.230957 1.000000
0.000000 0.391144 0.951263
0.000000 0.382172 0.951355
0.000000 0.378204 0.951508
0.000000 0.369904 0.951752
0.030548 0.356567 0.968811
0.622681 0.368439 0.997559
0.908386 0.361237 1.000000
0.908783 0.320526 1.000000
0.909790 0.301727 1.000000
0.000000 0.695190 0.955688
0.000000 0.687805 0.955811
0.000000 0.687988 0.955811
0.000000 0.680695 0.955933
0.000000 0.670776 0.955994
0.502899 0.675720 0.983429
0.850311 0.670197 0.976105
0.884888 0.649689 0.977692
0.885406 0.639038 0.979126
0.003296 0.911438 0.949554
0.002991 0.907135 0.949677
0.002930 0.906677 0.949738
0.002686 0.902893 0.949951
0.001862 0.892700 0.950287
0.336578 0.886475 0.954956
0.783356 0.883362 0.949036
0.877380 0.867859 0.947571
0.877472 0.861267 0.948151
0.155090 1.000000 0.955139
0.155029 1.000000 0.955139
0.154938 1.000000 0.955139
0.154846 1.000000 0.955139
0.155151 1.000000 0.955139
0.233246 1.000000 0.957550
0.745544 1.000000 0.977081
0.891571 1.000000 0.970093
0.887390 1.000000 0.962891
0.156982 1.000000 0.955170
0.156952 1.000000 0.955170
0.156860 1.000000 0.955170
0.156738 1.000000 0.955170
0.158722 1.000000 0.955231
0.176819 1.000000 0.955688
0.715485 1.000000 0.976349
0.897766 1.000000 0.980743
0.897766 1.000000 0.980743
0.120056 0.052582 0.974243
0.120056 0.052582 0.974243
0.120056 0.052582 0.974243
0.120056 0.052582 0.974243
0.362579 0.091949 0.990479
0.732422 0.173523 0.999084
0.911499 0.230957 1.000000
0.894379 1.000000 0.974915
0.897766 1.000000 0.980743
0.120056 0.052582 0.974243
0.120056 0.052582 0.974243
0.120056 0.052582 0.974243
0.120056 0.052582 0.974243
0.322357 0.086304 0.988770
0.716827 0.166748 0.998779
0.911499 0.230957 1.000000
0.897247 1.000000 0.979797
0.897766 1.000000 0.980743
0.120056 0.052582 0.974243
0.120056 0.052582 0.974243
0.120056 0.052582 0.974243
0.120056 0.052582 0.974243
0.300873 0.083130 0.987671
0.707886 0.164734 0.998657
0.911499 0.230957 1.000000
0.897766 1.000000 0.980743
0.897766 1.000000 0.980743
0.048431 0.159393 0.968811
0.055817 0.145630 0.969727
0.061646 0.139038 0.970245
0.073914 0.125702 0.971039
0.244781 0.116241 0.984436
0.686707 0.163513 0.998444
0.911499 0.230957 1.000000
0.897766 1.000000 0.980743
0.897766 1.000000 0.980743
0.000000 0.391266 0.951263
0.000000 0.382172 0.951355
0.000000 0.377899 0.951508
0.000000 0.369446 0.951752
0.014557 0.355286 0.965454
0.615906 0.368103 0.997375
0.907227 0.359711 1.000000
0.897766 1.000000 0.980743
0.897766 1.000000 0.980743
0.000000 0.691437 0.955750
0.000000 0.687958 0.955811
0.000000 0.684418 0.955841
0.000000 0.680786 0.955933
0.000000 0.668732 0.955994
0.492462 0.674561 0.983643
0.845917 0.668365 0.976501
0.897766 1.000000 0.980743
0.897766 1.000000 0.980743
0.003113 0.911316 0.949463
0.002686 0.906219 0.949585
0.002655 0.906219 0.949585
0.002319 0.901306 0.949829
0.001404 0.889221 0.950256
0.323303 0.885925 0.954803
0.776978 0.880890 0.949493
0.897766 1.000000 0.980743
0.897766 1.000000 0.980743
0.146515 1.000000 0.954956
0.146515 1.000000 0.954956
0.146515 1.000000 0.954956
0.146515 1.000000 0.954956
0.146515 1.000000 0.954956
0.214966 1.000000 0.956909
0.738922 1.000000 0.976898
0.897766 1.000000 0.980743
0.897766 1.000000 0.980743
0.146515 1.000000 0.954956
0.146515 1.000000 0.954956
0.146515 1.000000 0.954956
0.146515 1.000000 0.954956
0.146515 1.000000 0.954956
0.162537 1.000000 0.955322
0.705353 1.000000 0.976135
0.897766 1.000000 0.980743
0.897766 1.000000 0.980743
