example/assets/luts/lut2.cube
#LUT size
LUT_3D_SIZE 5
#LUT data points
0.000000 0.006012 0.000000
0.054443 0.044067 0.027222
0.537506 0.096313 0.054596
0.934448 0.232544 0.064728
0.934448 0.232544 0.064728
0.000000 0.006012 0.000000
0.000000 0.006012 0.000000
0.482269 0.090790 0.056580
0.934448 0.232544 0.064728
0.934448 0.232544 0.064728
0.000000 0.425049 0.000000
0.000000 0.407043 0.000000
0.339630 0.417969 0.010834
0.910278 0.385620 0.064209
0.919556 0.322876 0.065704
0.328308 0.942322 0.145569
0.325043 0.934540 0.145081
0.318481 0.920135 0.141113
0.873932 0.895599 0.063354
0.874298 0.870087 0.036102
0.394318 1.000000 0.184479
0.394318 1.000000 0.184479
0.394318 1.000000 0.184479
0.853851 1.000000 0.155426
0.899200 1.000000 0.130371
0.000000 0.006012 0.000000
0.043243 0.040924 0.023651
0.529816 0.095428 0.054871
0.934448 0.232544 0.064728
0.934448 0.232544 0.064728
0.000000 0.006012 0.000000
0.000000 0.006012 0.000000
0.473114 0.089905 0.056915
0.934448 0.232544 0.064728
0.934448 0.232544 0.064728
0.000000 0.422668 0.000000
0.000000 0.407227 0.000000
0.330139 0.414948 0.010254
0.910522 0.383881 0.064240
0.919495 0.323273 0.065735
0.326996 0.939026 0.145325
0.325012 0.934723 0.145111
0.318573 0.920319 0.141174
0.873932 0.895477 0.062592
0.874298 0.870178 0.036102
0.394318 1.000000 0.184479
0.394318 1.000000 0.184479
0.394318 1.000000 0.184479
0.850586 1.000000 0.155823
0.899200 1.000000 0.130371
0.000000 0.018951 0.335999
0.000000 0.021271 0.338898
0.481659 0.093170 0.400909
0.928986 0.222015 0.400360
0.927551 0.221741 0.460175
0.000000 0.018219 0.330963
0.000000 0.018677 0.326385
0.425079 0.086884 0.393188
0.929321 0.221985 0.389038
0.927643 0.222107 0.452850
0.000000 0.407257 0.380310
0.000000 0.392700 0.376923
0.270905 0.396545 0.383057
0.907623 0.375153 0.363190
0.914948 0.311127 0.433441
0.298553 0.937988 0.345856
0.297058 0.933990 0.342896
0.289307 0.916870 0.337616
0.873962 0.898193 0.285950
0.874420 0.870148 0.358551
0.379089 1.000000 0.312744
0.379272 1.000000 0.311615
0.379486 1.000000 0.307465
0.835144 1.000000 0.276825
0.898254 1.000000 0.341766
0.088928 0.042480 0.836334
0.088959 0.042511 0.836823
0.395782 0.083313 0.880280
0.917480 0.220612 0.907318
0.914673 0.221832 0.985382
0.085999 0.041992 0.832520
0.088623 0.042358 0.833313
0.336151 0.076141 0.869537
0.917542 0.220673 0.903046
0.915009 0.221344 0.984528
0.000000 0.393951 0.885773
0.000000 0.377777 0.883026
0.127777 0.364807 0.889740
0.902069 0.355011 0.905823
0.907928 0.294647 0.979370
0.108429 0.925049 0.903809
0.101105 0.915771 0.905243
0.091766 0.904297 0.902924
0.810730 0.890411 0.855164
0.875946 0.864532 0.897217
0.222015 1.000000 0.878235
0.220673 1.000000 0.874451
0.220520 1.000000 0.875305
0.749268 1.000000 0.852478
0.896851 1.000000 0.896210
0.120056 0.052582 0.974243
0.120056 0.052582 0.974243
0.362579 0.091949 0.990479
0.911499 0.230957 1.000000
0.897766 1.000000 0.980743
0.120056 0.052582 0.974243
0.120056 0.052582 0.974243
0.300873 0.083130 0.987671
0.911499 0.230957 1.000000
0.897766 1.000000 0.980743
0.000000 0.391266 0.951263
0.000000 0.377899 0.951508
0.014557 0.355286 0.965454
0.907227 0.359711 1.000000
0.897766 1.000000 0.980743
0.003113 0.911316 0.949463
0.002655 0.906219 0.949585
0.001404 0.889221 0.950256
0.776978 0.880890 0.949493
0.897766 1.000000 0.980743
0.146515 1.000000 0.954956
0.146515 1.000000 0.954956
0.146515 1.000000 0.954956
0.705353 1.000000 0.976135
0.897766 1.000000 0.980743
