example/assets/luts/lut2.cube
#LUT size
LUT_3D_SIZE 17
#LUT data points
0.000000 0.006012 0.000000
0.000000 0.006012 0.000000
0.000000 0.006012 0.000000
0.000000 0.025909 0.009064
0.054443 0.044067 0.027222
0.109619 0.061005 0.046600
0.226685 0.066742 0.063293
0.369598 0.079803 0.060608
0.537506 0.096313 0.054596
0.703644 0.144287 0.049011
0.842346 0.191956 0.056366
0.935028 0.229309 0.064789
0.934448 0.232544 0.064728
0.934448 0.232544 0.064728
0.934448 0.232544 0.064728
0.934448 0.232544 0.064728
0.934448 0.232544 0.064728
0.000000 0.006012 0.000000
0.000000 0.006012 0.000000
0.000000 0.006012 0.000000
0.000000 0.006561 0.000000
0.002808 0.032166 0.014679
0.080627 0.052429 0.036865
0.190063 0.066650 0.060822
0.340576 0.076935 0.061554
0.517181 0.094177 0.055298
0.691650 0.140503 0.048981
0.832825 0.189545 0.055756
0.935150 0.228546 0.064148
0.934448 0.232544 0.064728
0.934448 0.232544 0.064728
0.934448 0.232544 0.064728
0.934448 0.232544 0.064728
0.934448 0.232544 0.064728
0.000000 0.006012 0.000000
0.000000 0.006012 0.000000
0.000000 0.006012 0.000000
0.000000 0.006012 0.000000
0.000000 0.015961 0.000732
0.059570 0.045685 0.029114
0.155975 0.066620 0.056763
0.320709 0.074982 0.062134
0.503510 0.092865 0.055786
0.680939 0.135681 0.049164
0.827423 0.187347 0.055450
0.935394 0.227203 0.063354
0.934448 0.232544 0.064728
0.934448 0.232544 0.064728
0.934448 0.232544 0.064728
0.934448 0.232544 0.064728
0.934448 0.232544 0.064728
0.000000 0.006012 0.000000
0.000000 0.006012 0.000000
0.000000 0.006012 0.000000
0.000000 0.006012 0.000000
0.000000 0.006287 0.000000
0.037872 0.039612 0.022247
0.135437 0.065094 0.053101
0.306641 0.073608 0.062500
0.489899 0.091522 0.056335
0.674683 0.134430 0.049164
0.821533 0.186035 0.055084
0.935516 0.226532 0.062714
0.934448 0.232544 0.064728
0.934448 0.232544 0.064728
0.934448 0.232544 0.064728
0.934448 0.232544 0.064728
0.934448 0.232544 0.064728
0.000000 0.006012 0.000000
0.000000 0.006012 0.000000
0.000000 0.006012 0.000000
0.000000 0.006012 0.000000
0.000000 0.006012 0.000000
0.012451 0.034302 0.016724
0.120880 0.063171 0.049744
0.296967 0.072632 0.062744
0.482269 0.090790 0.056580
0.669312 0.133331 0.049225
0.817780 0.185272 0.054871
0.935974 0.223785 0.062439
0.934448 0.232544 0.064728
0.934448 0.232544 0.064728
0.934448 0.232544 0.064728
0.934448 0.232544 0.064728
0.934448 0.232544 0.064728
0.000000 0.074249 0.000000
0.000000 0.064606 0.000000
0.000000 0.053619 0.000000
0.000000 0.045807 0.000000
0.000000 0.038086 0.000000
0.000000 0.039764 0.003448
0.099182 0.073151 0.042511
0.274933 0.080170 0.061127
0.467285 0.093201 0.056671
0.660522 0.131866 0.049255
0.810333 0.182404 0.054443
0.936127 0.223145 0.062042
0.934448 0.232544 0.064728
0.934448 0.232544 0.064728
0.934448 0.232544 0.064728
0.934448 0.232544 0.064728
0.934448 0.232544 0.064728
0.000000 0.158325 0.000000
0.000000 0.151672 0.000000
0.000000 0.147034 0.000000
0.000000 0.142822 0.000000
0.000000 0.138245 0.000000
0.000000 0.132874 0.000000
0.050354 0.148163 0.004913
0.222198 0.162201 0.029907
0.426849 0.168182 0.040466
0.637543 0.176331 0.044617
0.800140 0.194916 0.053619
0.936127 0.222961 0.062042
0.934448 0.232544 0.064728
0.934448 0.232544 0.064728
0.934448 0.232544 0.064728
0.934448 0.232544 0.064728
0.934448 0.232544 0.064728
0.000000 0.278748 0.000000
0.000000 0.271332 0.000000
0.000000 0.265839 0.000000
0.000000 0.261475 0.000000
0.000000 0.261292 0.000000
0.000000 0.256195 0.000000
0.000000 0.257385 0.000000
0.171204 0.270264 0.006256
0.383057 0.279541 0.022156
0.607208 0.281830 0.038788
0.781219 0.277191 0.051331
0.928101 0.270294 0.061340
0.930145 0.257935 0.064331
0.932251 0.245422 0.064545
0.933533 0.238220 0.064636
0.934052 0.234772 0.064697
0.934265 0.233673 0.064728
0.000000 0.425049 0.000000
0.000000 0.417664 0.000000
0.000000 0.412262 0.000000
0.000000 0.412048 0.000000
0.000000 0.407043 0.000000
0.000000 0.406433 0.000000
0.000000 0.397858 0.000000
0.115204 0.405975 0.000275
0.339630 0.417969 0.010834
0.575348 0.421326 0.030151
0.763916 0.417877 0.046509
0.907501 0.406128 0.061218
0.910278 0.385620 0.064209
0.913940 0.360046 0.064880
0.916809 0.340454 0.065338
0.918701 0.328522 0.065613
0.919556 0.322876 0.065704
0.073517 0.583984 0.032104
0.068451 0.579163 0.031097
0.065430 0.574493 0.030334
0.065399 0.574463 0.030396
0.064117 0.572327 0.030090
0.062347 0.569458 0.029785
0.057983 0.564423 0.028870
0.082520 0.561096 0.022400
0.285858 0.567047 0.010651
0.536194 0.573181 0.017792
0.744385 0.572723 0.038239
0.890411 0.560272 0.057831
0.891754 0.545258 0.063568
0.893768 0.524567 0.064392
0.894989 0.511993 0.064880
0.896271 0.500031 0.065277
0.896790 0.494873 0.065063
0.183075 0.721985 0.081604
0.181091 0.719116 0.081268
0.180695 0.718658 0.081207
0.180756 0.718719 0.081207
0.178223 0.715363 0.081055
0.176880 0.715454 0.081024
0.174530 0.711945 0.080841
0.171448 0.708069 0.077332
0.227020 0.703033 0.070404
0.480438 0.707611 0.049469
0.711304 0.708588 0.026245
0.869049 0.700043 0.044464
0.880981 0.688995 0.052246
0.881653 0.677704 0.054138
0.882233 0.669312 0.055389
0.882660 0.661926 0.056061
0.882843 0.658844 0.056213
0.266968 0.827332 0.120605
0.265289 0.824341 0.120026
0.265106 0.823914 0.119263
0.265167 0.824005 0.119293
0.264587 0.823395 0.119293
0.262054 0.820984 0.115417
0.261292 0.819855 0.115356
0.259064 0.816803 0.115295
0.256073 0.812622 0.115356
0.409027 0.809509 0.104156
0.662354 0.812347 0.079010
0.828888 0.805023 0.049377
0.876007 0.795929 0.039795
0.876312 0.785858 0.040344
0.876556 0.779266 0.040741
0.876770 0.773773 0.041107
0.876892 0.771118 0.041199
0.328308 0.942322 0.145569
0.326721 0.938354 0.145294
0.326569 0.938446 0.145325
0.324982 0.934479 0.145050
0.325043 0.934540 0.145081
0.323761 0.934509 0.145142
0.322113 0.930176 0.144775
0.320557 0.925262 0.141235
0.318481 0.920135 0.141113
0.354248 0.911682 0.138031
0.600800 0.911469 0.117889
0.784607 0.906189 0.091614
0.873932 0.895599 0.063354
0.874084 0.885620 0.042358
0.874207 0.876831 0.039307
0.874298 0.870178 0.038300
0.874298 0.870087 0.036102
0.382935 1.000000 0.176147
0.382874 1.000000 0.176147
0.379974 1.000000 0.175934
0.380005 1.000000 0.175934
0.380066 1.000000 0.175751
0.379669 1.000000 0.175720
0.378326 1.000000 0.175659
0.376648 1.000000 0.175598
0.374939 1.000000 0.172241
0.370575 1.000000 0.167725
0.553955 1.000000 0.153198
0.754059 1.000000 0.125702
0.873596 0.995239 0.094849
0.872955 0.986511 0.062714
0.872986 0.978638 0.047363
0.873047 0.974213 0.046936
0.873077 0.969788 0.046570
0.394318 1.000000 0.184479
0.394318 1.000000 0.184479
0.394318 1.000000 0.184479
0.394318 1.000000 0.184479
0.394318 1.000000 0.184479
0.394318 1.000000 0.184479
0.394318 1.000000 0.184479
0.394318 1.000000 0.184479
0.394318 1.000000 0.183472
0.394318 1.000000 0.182678
0.521240 1.000000 0.177521
0.740692 1.000000 0.163605
0.884277 1.000000 0.147369
0.899200 1.000000 0.124054
0.899261 1.000000 0.111694
0.899261 1.000000 0.111328
0.897308 1.000000 0.108459
0.394318 1.000000 0.184479
0.394318 1.000000 0.184479
0.394318 1.000000 0.184479
0.394318 1.000000 0.184479
0.394318 1.000000 0.184479
0.394318 1.000000 0.184479
0.394318 1.000000 0.184479
0.394318 1.000000 0.184479
0.394318 1.000000 0.184479
0.394318 1.000000 0.184479
0.478577 1.000000 0.181915
0.714783 1.000000 0.169189
0.863556 1.000000 0.154388
0.899200 1.000000 0.133759
0.899261 1.000000 0.120087
0.899200 1.000000 0.123962
0.899200 1.000000 0.124023
0.394318 1.000000 0.184479
0.394318 1.000000 0.184479
0.394318 1.000000 0.184479
0.394318 1.000000 0.184479
0.394318 1.000000 0.184479
0.394318 1.000000 0.184479
0.394318 1.000000 0.184479
0.394318 1.000000 0.184479
0.394318 1.000000 0.184479
0.394318 1.000000 0.184479
0.463135 1.000000 0.182800
0.703644 1.000000 0.169708
0.853851 1.000000 0.155426
0.899170 1.000000 0.136475
0.899261 1.000000 0.120911
0.899200 1.000000 0.130371
0.899200 1.000000 0.130371
0.000000 0.006012 0.000000
0.000000 0.006012 0.000000
0.000000 0.006012 0.000000
0.000000 0.022491 0.006073
0.051086 0.043060 0.026093
0.105438 0.059937 0.045319
0.221619 0.066650 0.063049
0.365387 0.079376 0.060760
0.535461 0.096039 0.054688
0.703644 0.144287 0.049011
0.842529 0.191956 0.056366
0.935028 0.229156 0.064697
0.934448 0.232544 0.064728
0.934448 0.232544 0.064728
0.934448 0.232544 0.064728
0.934448 0.232544 0.064728
0.934448 0.232544 0.064728
0.000000 0.006012 0.000000
0.000000 0.006012 0.000000
0.000000 0.006012 0.000000
0.000000 0.006012 0.000000
0.000000 0.029083 0.011871
0.076324 0.051056 0.035309
0.184601 0.066681 0.060272
0.336365 0.076508 0.061676
0.514465 0.093933 0.055389
0.689026 0.139954 0.048950
0.832794 0.189545 0.055756
0.935150 0.228516 0.064117
0.934448 0.232544 0.064728
0.934448 0.232544 0.064728
0.934448 0.232544 0.064728
0.934448 0.232544 0.064728
0.934448 0.232544 0.064728
0.000000 0.006012 0.000000
0.000000 0.006012 0.000000
0.000000 0.006012 0.000000
0.000000 0.006012 0.000000
0.000000 0.012939 0.000000
0.054718 0.044189 0.027344
0.151703 0.066376 0.056122
0.316345 0.074524 0.062256
0.499298 0.092438 0.055939
0.679169 0.135315 0.049164
0.825104 0.186615 0.055298
0.935486 0.226776 0.063019
0.934448 0.232544 0.064728
0.934448 0.232544 0.064728
0.934448 0.232544 0.064728
0.934448 0.232544 0.064728
0.934448 0.232544 0.064728
0.000000 0.006012 0.000000
0.000000 0.006012 0.000000
0.000000 0.006012 0.000000
0.000000 0.006012 0.000000
0.000000 0.006012 0.000000
0.029449 0.037811 0.020264
0.131226 0.064606 0.052216
0.303223 0.073242 0.062592
0.487396 0.091278 0.056396
0.673096 0.134094 0.049194
0.821320 0.186005 0.055084
0.935883 0.224518 0.062500
0.934448 0.232544 0.064728
0.934448 0.232544 0.064728
0.934448 0.232544 0.064728
0.934448 0.232544 0.064728
0.934448 0.232544 0.064728
0.000000 0.006012 0.000000
0.000000 0.006012 0.000000
0.000000 0.006012 0.000000
0.000000 0.006012 0.000000
0.000000 0.006012 0.000000
0.004425 0.032562 0.015015
0.117462 0.062622 0.048859
0.292419 0.072205 0.062866
0.477386 0.090332 0.056763
0.667542 0.132996 0.049225
0.816406 0.184937 0.054840
0.936066 0.223450 0.062225
0.934448 0.232544 0.064728
0.934448 0.232544 0.064728
0.934448 0.232544 0.064728
0.934448 0.232544 0.064728
0.934448 0.232544 0.064728
0.000000 0.074249 0.000000
0.000000 0.060944 0.000000
0.000000 0.053619 0.000000
0.000000 0.039978 0.000000
0.000000 0.031647 0.000000
0.000000 0.037079 0.002014
0.095398 0.070923 0.041565
0.272766 0.077515 0.061707
0.462708 0.092316 0.056854
0.656860 0.131165 0.049316
0.810181 0.182404 0.054443
0.936127 0.223083 0.062042
0.934448 0.232544 0.064728
0.934448 0.232544 0.064728
0.934448 0.232544 0.064728
0.934448 0.232544 0.064728
0.934448 0.232544 0.064728
0.000000 0.158447 0.000000
0.000000 0.151733 0.000000
0.000000 0.147034 0.000000
0.000000 0.139740 0.000000
0.000000 0.135071 0.000000
0.000000 0.132294 0.000000
0.046204 0.147522 0.004272
0.217529 0.161041 0.029724
0.422668 0.168030 0.040375
0.637543 0.175873 0.044617
0.798218 0.192780 0.053528
0.936127 0.222961 0.062042
0.934448 0.232544 0.064728
0.934448 0.232544 0.064728
0.934448 0.232544 0.064728
0.934448 0.232544 0.064728
0.934448 0.232544 0.064728
0.000000 0.278748 0.000000
0.000000 0.270386 0.000000
0.000000 0.265961 0.000000
0.000000 0.261353 0.000000
0.000000 0.258911 0.000000
0.000000 0.253693 0.000000
0.000000 0.256866 0.000000
0.167175 0.269135 0.006042
0.380493 0.278168 0.022034
0.603668 0.280273 0.038574
0.781219 0.277313 0.051331
0.928101 0.270294 0.061340
0.930145 0.257965 0.064331
0.932495 0.244141 0.064545
0.933533 0.238220 0.064636
0.934052 0.234772 0.064697
0.934265 0.233673 0.064728
0.000000 0.422272 0.000000
0.000000 0.417297 0.000000
0.000000 0.412262 0.000000
0.000000 0.412109 0.000000
0.000000 0.406952 0.000000
0.000000 0.404449 0.000000
0.000000 0.397888 0.000000
0.109863 0.404327 0.000275
0.335693 0.416595 0.010620
0.570618 0.419952 0.029846
0.761322 0.417328 0.046295
0.907501 0.406006 0.061157
0.910278 0.385437 0.064209
0.914124 0.358521 0.064880
0.916809 0.340546 0.065338
0.918701 0.328522 0.065613
0.919525 0.323059 0.065735
0.073639 0.584167 0.032135
0.068604 0.579315 0.031189
0.065552 0.574646 0.030426
0.065399 0.574463 0.030396
0.063995 0.572144 0.030121
0.062347 0.569458 0.029785
0.058044 0.564484 0.028900
0.079254 0.561127 0.022888
0.282745 0.566559 0.010925
0.532684 0.573059 0.017456
0.741486 0.572266 0.037933
0.890411 0.560272 0.057678
0.891754 0.545441 0.063568
0.893768 0.524506 0.064392
0.895111 0.511017 0.064880
0.896271 0.500122 0.065277
0.896790 0.495026 0.065063
0.183167 0.722076 0.081635
0.181122 0.719177 0.081268
0.180786 0.718750 0.081238
0.178711 0.715881 0.081055
0.178253 0.715393 0.081085
0.176880 0.715454 0.081024
0.174622 0.712067 0.080872
0.171448 0.708069 0.077332
0.223938 0.702972 0.070618
0.478027 0.707550 0.049744
0.711212 0.708588 0.026245
0.865051 0.699982 0.044098
0.881104 0.686707 0.052368
0.881653 0.677704 0.054138
0.882324 0.667236 0.055725
0.882660 0.661926 0.056061
0.882843 0.658844 0.056213
0.266968 0.827332 0.120605
0.265289 0.824341 0.120026
0.265106 0.823914 0.119263
0.264862 0.823608 0.119263
0.263092 0.821014 0.118958
0.262054 0.820984 0.115417
0.260040 0.818146 0.115265
0.259094 0.816833 0.115326
0.256073 0.812622 0.115356
0.407623 0.809509 0.104248
0.659058 0.812256 0.079437
0.826691 0.804932 0.049866
0.876068 0.793457 0.039917
0.876312 0.785797 0.040344
0.876556 0.779266 0.040741
0.876740 0.773804 0.041077
0.876892 0.771149 0.041199
0.326904 0.938843 0.145325
0.326721 0.938416 0.145294
0.326569 0.938416 0.145325
0.325043 0.934509 0.145050
0.325073 0.934570 0.145081
0.323761 0.934540 0.145142
0.322144 0.930176 0.144775
0.320557 0.925293 0.141235
0.318481 0.920166 0.141144
0.351959 0.911682 0.138153
0.598022 0.911377 0.118195
0.784424 0.906189 0.091675
0.873932 0.895630 0.062683
0.874084 0.885468 0.043427
0.874207 0.876831 0.039307
0.874298 0.870209 0.038330
0.874298 0.870117 0.036102
0.382935 1.000000 0.176147
0.382874 1.000000 0.176147
0.379974 1.000000 0.175934
0.380005 1.000000 0.175781
0.379974 1.000000 0.175720
0.379639 1.000000 0.175720
0.378326 1.000000 0.175659
0.376648 1.000000 0.175598
0.374939 1.000000 0.172241
0.367798 1.000000 0.166565
0.551086 1.000000 0.153442
0.751465 1.000000 0.126251
0.873596 0.995239 0.094910
0.872955 0.986511 0.062714
0.872986 0.978638 0.047363
0.873047 0.974213 0.046936
0.873077 0.969788 0.046570
0.394318 1.000000 0.184479
0.394318 1.000000 0.184479
0.394318 1.000000 0.184479
0.394318 1.000000 0.184479
0.394318 1.000000 0.184479
0.394318 1.000000 0.184479
0.394318 1.000000 0.184479
0.394318 1.000000 0.184479
0.394318 1.000000 0.183472
0.394318 1.000000 0.182678
0.518341 1.000000 0.177734
0.738190 1.000000 0.163910
0.884277 1.000000 0.147278
0.899200 1.000000 0.124115
0.899261 1.000000 0.111694
0.899261 1.000000 0.111328
0.897308 1.000000 0.108459
0.394318 1.000000 0.184479
0.394318 1.000000 0.184479
0.394318 1.000000 0.184479
0.394318 1.000000 0.184479
0.394318 1.000000 0.184479
0.394318 1.000000 0.184479
0.394318 1.000000 0.184479
0.394318 1.000000 0.184479
0.394318 1.000000 0.184479
0.394318 1.000000 0.184479
0.476074 1.000000 0.181854
0.714478 1.000000 0.169189
0.860809 1.000000 0.154724
0.899200 1.000000 0.133789
0.899261 1.000000 0.120087
0.899200 1.000000 0.123962
0.899200 1.000000 0.124023
0.394318 1.000000 0.184479
0.394318 1.000000 0.184479
0.394318 1.000000 0.184479
0.394318 1.000000 0.184479
0.394318 1.000000 0.184479
0.394318 1.000000 0.184479
0.394318 1.000000 0.184479
0.394318 1.000000 0.184479
0.394318 1.000000 0.184479
0.394318 1.000000 0.184479
0.461395 1.000000 0.182678
0.703644 1.000000 0.169708
0.850800 1.000000 0.155823
0.899170 1.000000 0.136566
0.899261 1.000000 0.120728
0.899200 1.000000 0.130371
0.899200 1.000000 0.130371
0.000000 0.006012 0.000000
0.000000 0.006012 0.000000
0.000000 0.006012 0.000000
0.000000 0.020691 0.004578
0.047607 0.042053 0.024963
0.102661 0.059174 0.044434
0.217926 0.066620 0.062866
0.362152 0.079041 0.060852
0.532532 0.095703 0.054810
0.703827 0.144379 0.049011
0.841461 0.191803 0.056305
0.935028 0.229156 0.064697
0.934448 0.232544 0.064728
0.934448 0.232544 0.064728
0.934448 0.232544 0.064728
0.934448 0.232544 0.064728
0.934448 0.232544 0.064728
0.000000 0.006012 0.000000
0.000000 0.006012 0.000000
0.000000 0.006012 0.000000
0.000000 0.006012 0.000000
0.000000 0.026428 0.009552
0.074921 0.050598 0.034821
0.180481 0.066772 0.059906
0.335388 0.076385 0.061707
0.514587 0.093964 0.055389
0.687500 0.137512 0.049133
0.832214 0.189514 0.055725
0.935181 0.228394 0.063904
0.934448 0.232544 0.064728
0.934448 0.232544 0.064728
0.934448 0.232544 0.064728
0.934448 0.232544 0.064728
0.934448 0.232544 0.064728
0.000000 0.006012 0.000000
0.000000 0.006012 0.000000
0.000000 0.006012 0.000000
0.000000 0.006012 0.000000
0.000000 0.011292 0.000000
0.051239 0.043091 0.026154
0.150574 0.066315 0.055939
0.316193 0.074524 0.062286
0.498291 0.092346 0.056000
0.678772 0.135284 0.049164
0.824860 0.186584 0.055298
0.935486 0.226685 0.062927
0.934448 0.232544 0.064728
0.934448 0.232544 0.064728
0.934448 0.232544 0.064728
0.934448 0.232544 0.064728
0.934448 0.232544 0.064728
0.000000 0.006012 0.000000
0.000000 0.006012 0.000000
0.000000 0.006012 0.000000
0.000000 0.006012 0.000000
0.000000 0.006012 0.000000
0.024261 0.036713 0.019135
0.129517 0.064392 0.051819
0.301788 0.073120 0.062622
0.485199 0.091095 0.056488
0.672882 0.134094 0.049194
0.820190 0.185760 0.055023
0.935944 0.224121 0.062469
0.934448 0.232544 0.064728
0.934448 0.232544 0.064728
0.934448 0.232544 0.064728
0.934448 0.232544 0.064728
0.934448 0.232544 0.064728
0.000000 0.006012 0.000000
0.000000 0.006012 0.000000
0.000000 0.006012 0.000000
0.000000 0.006012 0.000000
0.000000 0.006012 0.000000
0.001099 0.030548 0.013214
0.114594 0.062042 0.048004
0.289307 0.071899 0.062927
0.477203 0.090302 0.056763
0.665405 0.132599 0.049225
0.816467 0.184967 0.054840
0.936066 0.223450 0.062195
0.934448 0.232544 0.064728
0.934448 0.232544 0.064728
0.934448 0.232544 0.064728
0.934448 0.232544 0.064728
0.934448 0.232544 0.064728
0.000000 0.074371 0.000000
0.000000 0.061005 0.000000
0.000000 0.053253 0.000000
0.000000 0.039886 0.000000
0.000000 0.031799 0.000000
0.000000 0.034851 0.001038
0.094635 0.070709 0.041290
0.268555 0.076233 0.061981
0.462250 0.092224 0.056885
0.656036 0.131042 0.049316
0.809082 0.182129 0.054352
0.936127 0.223083 0.062042
0.934448 0.232544 0.064728
0.934448 0.232544 0.064728
0.934448 0.232544 0.064728
0.934448 0.232544 0.064728
0.934448 0.232544 0.064728
0.000000 0.158447 0.000000
0.000000 0.151062 0.000000
0.000000 0.144196 0.000000
0.000000 0.139740 0.000000
0.000000 0.135193 0.000000
0.000000 0.131500 0.000000
0.041870 0.146301 0.003632
0.215363 0.160950 0.029510
0.421570 0.167450 0.040466
0.636627 0.175751 0.044617
0.797333 0.192352 0.053467
0.936157 0.222778 0.062042
0.934448 0.232544 0.064728
0.934448 0.232544 0.064728
0.934448 0.232544 0.064728
0.934448 0.232544 0.064728
0.934448 0.232544 0.064728
0.000000 0.278870 0.000000
0.000000 0.270477 0.000000
0.000000 0.265991 0.000000
0.000000 0.261475 0.000000
0.000000 0.258301 0.000000
0.000000 0.253174 0.000000
0.000000 0.256531 0.000000
0.165588 0.268982 0.005951
0.377777 0.277985 0.021820
0.602478 0.280304 0.038483
0.779968 0.277161 0.051239
0.928101 0.270386 0.061340
0.930145 0.257965 0.064331
0.932495 0.244049 0.064575
0.933502 0.238251 0.064636
0.934052 0.234772 0.064697
0.934265 0.233673 0.064728
0.000000 0.422424 0.000000
0.000000 0.417358 0.000000
0.000000 0.412445 0.000000
0.000000 0.412109 0.000000
0.000000 0.407074 0.000000
0.000000 0.402283 0.000000
0.000000 0.397858 0.000000
0.108154 0.404327 0.000275
0.332794 0.416168 0.010406
0.570740 0.420044 0.029846
0.760986 0.417358 0.046265
0.907532 0.405792 0.061096
0.910278 0.385559 0.064209
0.914124 0.358521 0.064880
0.916809 0.340515 0.065338
0.918671 0.328583 0.065613
0.919525 0.323059 0.065735
0.073639 0.584167 0.032135
0.068634 0.579346 0.031189
0.065338 0.574341 0.030365
0.065521 0.574615 0.030426
0.063995 0.572144 0.030121
0.062469 0.569641 0.029785
0.057648 0.563965 0.028809
0.077332 0.561005 0.023102
0.279449 0.566223 0.011230
0.531677 0.572998 0.017395
0.740997 0.572205 0.037872
0.890381 0.560425 0.057678
0.891754 0.545410 0.063568
0.893738 0.524689 0.064392
0.895142 0.510864 0.064880
0.896271 0.500122 0.065277
0.896790 0.495026 0.065063
0.183167 0.722076 0.081635
0.180786 0.718811 0.081238
0.180786 0.718750 0.081238
0.178558 0.715607 0.081085
0.176880 0.715393 0.081024
0.176819 0.715424 0.081024
0.174622 0.712067 0.080872
0.170776 0.707184 0.077240
0.222626 0.702850 0.070740
0.475616 0.707458 0.050018
0.711182 0.708679 0.026245
0.865143 0.699982 0.044098
0.881104 0.686737 0.052368
0.881653 0.677765 0.054108
0.882324 0.666962 0.055725
0.882660 0.661926 0.056061
0.882843 0.658844 0.056213
0.267029 0.827393 0.120636
0.265350 0.824402 0.120087
0.265167 0.824005 0.119293
0.264893 0.823669 0.119293
0.262024 0.820984 0.118958
0.262085 0.821106 0.115448
0.260040 0.818146 0.115265
0.258087 0.815491 0.115356
0.256012 0.812653 0.115356
0.404358 0.809418 0.104523
0.658539 0.812317 0.079529
0.826019 0.802460 0.049683
0.876068 0.793457 0.039917
0.876312 0.785858 0.040344
0.876556 0.779266 0.040741
0.876740 0.773865 0.041077
0.876892 0.771210 0.041199
0.326904 0.938904 0.145325
0.326752 0.938446 0.145325
0.326569 0.938446 0.145325
0.325043 0.934509 0.145050
0.325073 0.934601 0.145081
0.323822 0.934570 0.145050
0.322144 0.930206 0.144775
0.320587 0.925385 0.141235
0.318512 0.920197 0.141144
0.350525 0.911621 0.138367
0.597076 0.911377 0.118286
0.784424 0.906219 0.091705
0.873932 0.895386 0.062592
0.874084 0.885498 0.043427
0.874176 0.876923 0.039307
0.874298 0.870209 0.038330
0.874298 0.870117 0.036102
0.382965 1.000000 0.176147
0.382904 1.000000 0.176147
0.380005 1.000000 0.175964
0.380066 1.000000 0.175751
0.379974 1.000000 0.175720
0.379669 1.000000 0.175720
0.378326 1.000000 0.175659
0.376678 1.000000 0.175598
0.374969 1.000000 0.172272
0.367798 1.000000 0.166595
0.550537 1.000000 0.153473
0.751404 1.000000 0.126312
0.873627 0.995331 0.095581
0.872955 0.986511 0.062836
0.872986 0.978668 0.047363
0.873047 0.974213 0.046936
0.873077 0.969818 0.046600
0.394318 1.000000 0.184479
0.394318 1.000000 0.184479
0.394318 1.000000 0.184479
0.394318 1.000000 0.184479
0.394318 1.000000 0.184479
0.394318 1.000000 0.184479
0.394318 1.000000 0.184479
0.394318 1.000000 0.184479
0.394318 1.000000 0.183472
0.394318 1.000000 0.182709
0.517761 1.000000 0.177765
0.737732 1.000000 0.163910
0.881592 1.000000 0.147552
0.899200 1.000000 0.124268
0.899261 1.000000 0.111694
0.899261 1.000000 0.111328
0.897308 1.000000 0.108459
0.394318 1.000000 0.184479
0.394318 1.000000 0.184479
0.394318 1.000000 0.184479
0.394318 1.000000 0.184479
0.394318 1.000000 0.184479
0.394318 1.000000 0.184479
0.394318 1.000000 0.184479
0.394318 1.000000 0.184479
0.394318 1.000000 0.184479
0.394318 1.000000 0.184479
0.475800 1.000000 0.181885
0.712524 1.000000 0.169312
0.860840 1.000000 0.154724
0.899200 1.000000 0.134827
0.899261 1.000000 0.118683
0.899200 1.000000 0.123962
0.899200 1.000000 0.124023
0.394318 1.000000 0.184479
0.394318 1.000000 0.184479
0.394318 1.000000 0.184479
0.394318 1.000000 0.184479
0.394318 1.000000 0.184479
0.394318 1.000000 0.184479
0.394318 1.000000 0.184479
0.394318 1.000000 0.184479
0.394318 1.000000 0.184479
0.394318 1.000000 0.184479
0.460846 1.000000 0.182648
0.700317 1.000000 0.169952
0.850586 1.000000 0.155823
0.899170 1.000000 0.136566
0.899261 1.000000 0.120728
0.899200 1.000000 0.130371
0.899200 1.000000 0.130371
0.000000 0.006012 0.000000
0.000000 0.006012 0.000000
0.000000 0.006012 0.000000
0.000000 0.020081 0.004028
0.043701 0.041016 0.023773
0.101410 0.058807 0.043976
0.216187 0.066589 0.062775
0.361542 0.078979 0.060883
0.532532 0.095703 0.054810
0.701599 0.143921 0.048981
0.838959 0.191376 0.056152
0.935028 0.229187 0.064697
0.934448 0.232544 0.064728
0.934448 0.232544 0.064728
0.934448 0.232544 0.064728
0.934448 0.232544 0.064728
0.934448 0.232544 0.064728
0.000000 0.006012 0.000000
0.000000 0.006012 0.000000
0.000000 0.006012 0.000000
