example/assets/luts/lut3.cube
#LUT size
LUT_3D_SIZE 9
#LUT data points
0.000000 0.000092 0.000000
0.000000 0.000092 0.000000
0.065125 0.004944 0.002289
0.150330 0.011475 0.007019
0.357910 0.010742 0.012146
0.660919 0.087646 0.061584
0.786926 0.144836 0.092773
0.786926 0.144836 0.092773
0.786926 0.144836 0.092773
0.000000 0.000092 0.000000
0.000000 0.000092 0.000000
0.000153 0.000244 0.000092
0.121490 0.010162 0.004547
0.332520 0.009552 0.008545
0.645996 0.084259 0.058472
0.786926 0.144836 0.092773
0.786926 0.144836 0.092773
0.786926 0.144836 0.092773
0.000000 0.000092 0.000000
0.000000 0.000092 0.000000
0.000000 0.000092 0.000000
0.106750 0.008789 0.003357
0.318359 0.008911 0.008423
0.634979 0.078278 0.056152
0.786926 0.144836 0.092773
0.786926 0.144836 0.092773
0.786926 0.144836 0.092773
0.001221 0.078888 0.000916
0.001038 0.072632 0.000763
0.000885 0.069519 0.000702
0.070190 0.067596 0.002869
0.293640 0.064484 0.006165
0.620270 0.084106 0.053162
0.786926 0.144836 0.092773
0.786926 0.144836 0.092773
0.786926 0.144836 0.092773
0.001007 0.229919 0.000702
0.000916 0.222900 0.000702
0.000885 0.218811 0.000702
0.000793 0.211395 0.000702
0.242188 0.233826 0.001709
0.600342 0.252808 0.052795
0.798859 0.249603 0.099060
0.795166 0.219971 0.095886
0.793488 0.208405 0.095886
0.201477 0.486847 0.002106
0.198669 0.483002 0.002045
0.195984 0.479065 0.002045
0.191986 0.474976 0.002014
0.219635 0.468262 0.002075
0.580444 0.502502 0.051392
0.825104 0.507690 0.106628
0.842255 0.488861 0.112610
0.840973 0.480988 0.112579
0.368744 0.692291 0.005127
0.366760 0.689423 0.005035
0.365845 0.688019 0.005005
0.362671 0.684052 0.004852
0.358093 0.676636 0.004639
0.533661 0.685699 0.019928
0.790894 0.699646 0.110779
0.876434 0.694641 0.133881
0.875427 0.691315 0.131409
0.409637 0.739563 0.006927
0.409637 0.739563 0.006927
0.409637 0.739563 0.006927
0.409637 0.739563 0.006927
0.409607 0.739563 0.006927
0.481049 0.743042 0.008118
0.752258 0.763062 0.085785
0.873749 0.772827 0.129883
0.877289 0.772827 0.131012
0.409637 0.739563 0.006927
0.409637 0.739563 0.006927
0.409637 0.739563 0.006927
0.409637 0.739563 0.006927
0.409637 0.739563 0.006927
0.453339 0.742218 0.007660
0.735260 0.763000 0.083038
0.859650 0.771912 0.132782
0.877136 0.772827 0.135681
0.000000 0.000092 0.000000
0.000000 0.000092 0.000000
0.059967 0.004486 0.002197
0.147217 0.011597 0.006775
0.354767 0.010590 0.011597
0.660919 0.087646 0.061584
0.786926 0.144836 0.092773
0.786926 0.144836 0.092773
0.786926 0.144836 0.092773
0.000000 0.000092 0.000000
0.000000 0.000092 0.000000
0.000000 0.000092 0.000000
0.119720 0.010010 0.004395
0.328796 0.009369 0.008331
0.642731 0.080902 0.057739
0.786926 0.144836 0.092773
0.786926 0.144836 0.092773
0.786926 0.144836 0.092773
0.000000 0.000092 0.000000
0.000000 0.000092 0.000000
0.000000 0.000092 0.000000
0.103607 0.008484 0.003174
0.315491 0.008789 0.008514
0.634552 0.078033 0.056061
0.786926 0.144836 0.092773
0.786926 0.144836 0.092773
0.786926 0.144836 0.092773
0.001221 0.078613 0.000916
0.001007 0.072449 0.000763
0.000885 0.068909 0.000671
0.065887 0.067139 0.002808
0.290192 0.064178 0.006256
0.616058 0.080627 0.052429
0.786926 0.144836 0.092773
0.786926 0.144836 0.092773
0.786926 0.144836 0.092773
0.001007 0.228210 0.000702
0.000916 0.222870 0.000702
0.000854 0.217896 0.000702
0.000793 0.211426 0.000702
0.238312 0.232483 0.001709
0.596527 0.252350 0.051727
0.798859 0.249634 0.099060
0.795166 0.220032 0.095886
0.793488 0.208405 0.095886
0.201569 0.487000 0.002106
0.198700 0.483032 0.002075
0.195343 0.479034 0.002045
0.192047 0.475037 0.002014
0.217133 0.468079 0.002045
0.579926 0.502441 0.051208
0.823212 0.506348 0.106232
0.842194 0.488403 0.112610
0.840973 0.480988 0.112579
0.367828 0.691010 0.005096
0.366760 0.689453 0.005035
0.365845 0.688019 0.005005
0.362671 0.684052 0.004852
0.358124 0.676697 0.004639
0.531097 0.685547 0.018707
0.789276 0.699524 0.110596
0.876434 0.694641 0.133881
0.875458 0.691376 0.131409
0.409637 0.739563 0.006927
0.409637 0.739563 0.006927
0.409637 0.739563 0.006927
0.409637 0.739563 0.006927
0.409607 0.739563 0.006927
0.479095 0.743042 0.008118
0.752106 0.763062 0.085754
0.873535 0.772827 0.129822
0.877289 0.772827 0.131012
0.409637 0.739563 0.006927
0.409637 0.739563 0.006927
0.409637 0.739563 0.006927
0.409637 0.739563 0.006927
0.409637 0.739563 0.006927
0.451843 0.741791 0.007660
0.732819 0.762970 0.082245
0.857269 0.771729 0.132538
0.877136 0.772827 0.135681
0.000000 0.000092 0.000000
0.000000 0.000092 0.000000
0.056519 0.004211 0.002106
0.144653 0.011688 0.006561
0.353302 0.010498 0.011322
0.657227 0.087097 0.060791
0.786926 0.144836 0.092773
0.786926 0.144836 0.092773
0.786926 0.144836 0.092773
0.000000 0.000092 0.000000
0.000000 0.000092 0.000000
0.000000 0.000092 0.000000
0.118011 0.009827 0.004242
0.328400 0.009369 0.008301
0.642456 0.080750 0.057648
0.786926 0.144836 0.092773
0.786926 0.144836 0.092773
0.786926 0.144836 0.092773
0.000000 0.000092 0.000000
0.000000 0.000092 0.000000
0.000000 0.000092 0.000000
0.101959 0.008331 0.003143
0.314270 0.008698 0.008575
0.633118 0.077576 0.055756
0.786926 0.144836 0.092773
0.786926 0.144836 0.092773
0.786926 0.144836 0.092773
0.001221 0.078674 0.000916
0.001007 0.072357 0.000732
0.000885 0.068298 0.000671
0.063080 0.066895 0.002747
0.286957 0.063843 0.006317
0.615814 0.080475 0.052368
0.786926 0.144836 0.092773
0.786926 0.144836 0.092773
0.786926 0.144836 0.092773
0.001007 0.228302 0.000702
0.000885 0.221344 0.000702
0.000854 0.217896 0.000702
0.000793 0.211456 0.000702
0.237091 0.231476 0.001709
0.596497 0.252350 0.051697
0.798828 0.249390 0.099060
0.795166 0.220093 0.095886
0.793488 0.208435 0.095886
0.201569 0.487000 0.002106
0.198761 0.483154 0.002075
0.195435 0.479156 0.002045
0.192078 0.475098 0.002014
0.215546 0.467896 0.002045
0.576904 0.501892 0.050385
0.822937 0.506378 0.106140
0.842194 0.488434 0.112610
0.840973 0.481018 0.112579
0.367828 0.691010 0.005096
0.366760 0.689453 0.005035
0.365875 0.688110 0.005005
0.362701 0.684082 0.004852
0.358124 0.676666 0.004639
0.530548 0.685516 0.018005
0.788605 0.699432 0.110474
0.876434 0.694672 0.133881
0.875458 0.691406 0.131409
0.409637 0.739563 0.006927
0.409637 0.739563 0.006927
0.409637 0.739563 0.006927
0.409637 0.739563 0.006927
0.409607 0.739563 0.006927
0.477417 0.743042 0.008057
0.749939 0.763062 0.085052
0.871307 0.772827 0.129120
0.877289 0.772827 0.131012
0.409637 0.739563 0.006927
0.409637 0.739563 0.006927
0.409637 0.739563 0.006927
0.409637 0.739563 0.006927
0.409637 0.739563 0.006927
0.450500 0.741455 0.007599
0.732880 0.762970 0.082245
0.857300 0.771729 0.132538
0.877136 0.772827 0.135681
0.000244 0.000916 0.097473
0.000244 0.000885 0.095123
0.038605 0.003662 0.096466
0.130981 0.011169 0.102966
0.348297 0.017365 0.117798
0.660797 0.106354 0.142303
0.789825 0.160706 0.160065
0.789886 0.161713 0.165283
0.789825 0.166779 0.184143
0.000305 0.000854 0.089081
0.000305 0.000854 0.088928
0.000305 0.000824 0.086884
0.100525 0.008942 0.093964
0.324646 0.011353 0.108948
0.645050 0.097534 0.132874
0.789368 0.158508 0.150696
0.789856 0.161316 0.163849
0.789856 0.164307 0.175171
0.000336 0.000793 0.082550
0.000336 0.000824 0.084473
0.000336 0.000824 0.084045
0.083710 0.007202 0.086212
0.308441 0.008331 0.102661
0.633759 0.092896 0.125671
0.788788 0.156586 0.144409
0.789856 0.160370 0.158203
0.789856 0.162567 0.168427
0.001587 0.084167 0.054626
0.001404 0.077393 0.054260
0.001282 0.073334 0.053833
0.043732 0.070557 0.061066
0.283051 0.072845 0.087341
0.615753 0.093262 0.115051
0.787750 0.153107 0.131165
0.789215 0.157867 0.148804
0.789886 0.161682 0.165283
0.001282 0.235107 0.018433
0.001190 0.228729 0.018311
0.001160 0.225769 0.017334
0.001068 0.219513 0.016052
0.232819 0.238373 0.050873
0.594971 0.254395 0.094543
0.799377 0.251099 0.106720
0.795746 0.225311 0.125671
0.795227 0.220215 0.150482
0.201752 0.488770 0.002106
0.198944 0.485016 0.002075
0.194977 0.480988 0.002045
0.192322 0.477722 0.002014
0.212097 0.467529 0.002045
0.576141 0.504089 0.067322
0.819916 0.505035 0.107025
0.842346 0.488953 0.114288
0.842041 0.483673 0.136169
0.367859 0.691040 0.005096
0.366699 0.689331 0.005035
0.365387 0.687408 0.004944
0.362671 0.684082 0.004852
0.358124 0.676727 0.004639
0.528076 0.685059 0.016968
0.788147 0.699371 0.110413
0.876434 0.694672 0.133881
0.875916 0.691895 0.132935
0.409637 0.739563 0.006927
0.409637 0.739563 0.006927
0.409637 0.739563 0.006927
0.409637 0.739563 0.006927
0.409607 0.739563 0.006927
0.475525 0.743042 0.008026
0.749878 0.763062 0.085022
0.871094 0.772827 0.129059
0.877289 0.772827 0.131012
0.409637 0.739563 0.006927
0.409637 0.739563 0.006927
0.409637 0.739563 0.006927
0.409637 0.739563 0.006927
0.409637 0.739563 0.006927
0.449280 0.741333 0.007599
0.730530 0.762970 0.081421
0.854614 0.771637 0.131897
0.877136 0.772827 0.135681
0.000000 0.019135 0.256714
0.000000 0.018677 0.255341
0.000000 0.025421 0.255402
0.110413 0.032410 0.264923
0.337769 0.066803 0.286835
0.656525 0.152283 0.319733
0.792236 0.209717 0.344177
0.792114 0.211853 0.351410
0.792053 0.220215 0.381653
0.000000 0.017456 0.252045
0.000000 0.017059 0.250488
0.000000 0.017059 0.250488
0.067139 0.029816 0.258331
0.312347 0.060669 0.280090
0.638580 0.144287 0.314606
0.792206 0.208038 0.337830
0.792206 0.210815 0.348022
0.792084 0.218628 0.376434
0.000000 0.019775 0.247742
0.000000 0.016418 0.248260
0.000000 0.016205 0.247437
0.030762 0.028809 0.253326
0.295685 0.055817 0.276276
0.628387 0.140686 0.310577
0.792145 0.207489 0.335541
0.792267 0.209900 0.344910
0.792053 0.217865 0.373718
0.000916 0.102692 0.222809
0.000885 0.096405 0.221741
0.000854 0.092133 0.222656
0.000885 0.088623 0.227509
0.273285 0.100677 0.262756
0.613281 0.139862 0.301483
0.792084 0.206482 0.331512
0.792206 0.208313 0.338898
0.792053 0.216797 0.370361
0.001770 0.266327 0.210785
0.001709 0.259094 0.208801
0.001678 0.255524 0.207855
0.001617 0.248688 0.207733
0.229156 0.264374 0.237274
0.595764 0.289734 0.288788
0.804901 0.297150 0.322296
0.800690 0.270935 0.330353
0.799011 0.269562 0.368652
0.205811 0.521881 0.203644
0.202545 0.517792 0.203796
0.199951 0.514771 0.203827
0.196808 0.511078 0.202393
0.210510 0.500641 0.202057
0.576630 0.535767 0.259430
0.824951 0.542999 0.287872
0.850800 0.531219 0.309814
0.850189 0.531281 0.352997
0.372009 0.707367 0.162933
0.369965 0.704651 0.162598
0.368774 0.703003 0.161316
0.366547 0.700378 0.160950
0.360107 0.693756 0.158295
0.523895 0.701355 0.183075
0.787537 0.714111 0.229279
0.880646 0.712402 0.255554
0.879181 0.715912 0.303986
0.410004 0.748932 0.128448
0.410004 0.748566 0.125549
0.410004 0.748596 0.125702
0.410004 0.748596 0.125763
0.410004 0.748230 0.122742
0.472748 0.752655 0.129425
0.746979 0.772552 0.177765
0.872406 0.782471 0.219635
0.881378 0.787842 0.266235
0.410004 0.747070 0.118164
0.409943 0.746857 0.116669
0.409943 0.746857 0.116791
0.409943 0.746765 0.115417
0.409943 0.746429 0.112396
0.443787 0.749359 0.113068
0.730408 0.769348 0.165192
0.855682 0.780243 0.212128
0.881226 0.786469 0.258911
0.001007 0.074341 0.492523
0.001007 0.074371 0.492645
0.001099 0.076141 0.488800
0.001465 0.088684 0.491516
0.303680 0.128937 0.518036
0.638855 0.219696 0.559204
0.784271 0.278900 0.586182
0.784576 0.278381 0.584351
0.779602 0.293854 0.640839
0.000977 0.072937 0.488373
0.000977 0.072876 0.488251
0.000977 0.072815 0.488007
0.001343 0.084015 0.487885
0.274139 0.122589 0.510742
0.620789 0.213379 0.553986
0.784637 0.277954 0.582794
0.784882 0.277527 0.581146
0.779846 0.292725 0.636444
0.000977 0.071838 0.484528
0.000977 0.071869 0.484680
0.000977 0.071930 0.484833
0.001251 0.080933 0.487701
0.255371 0.119690 0.508179
0.610779 0.207855 0.548828
0.784607 0.277985 0.582916
0.784912 0.277466 0.580841
0.780121 0.291687 0.632111
0.002533 0.142700 0.463440
0.002441 0.135834 0.464752
0.002411 0.131744 0.465637
0.002319 0.126526 0.468201
0.231476 0.146423 0.496735
0.593079 0.206512 0.543579
0.784973 0.277039 0.579407
0.785126 0.276581 0.577209
0.780365 0.290466 0.627197
0.003510 0.310852 0.458130
0.003479 0.303040 0.455444
0.003448 0.299316 0.454987
0.003418 0.291931 0.452759
0.193787 0.302704 0.476593
0.577850 0.337952 0.532410
0.798584 0.356232 0.571991
0.794067 0.329468 0.570282
0.789032 0.332397 0.617676
0.205994 0.575623 0.462158
0.203003 0.572083 0.462158
0.201324 0.569855 0.459564
0.195404 0.564514 0.459534
0.199219 0.554840 0.461792
0.565979 0.588287 0.511749
0.816528 0.599731 0.550934
0.846893 0.580994 0.555023
0.843140 0.583221 0.599548
0.367188 0.746002 0.420441
0.366394 0.744659 0.419250
0.365143 0.743286 0.419617
0.363190 0.740570 0.418518
0.358063 0.735199 0.419983
0.510254 0.739624 0.438446
0.779877 0.752106 0.475464
0.874878 0.750549 0.497620
0.871124 0.753693 0.552155
0.406769 0.783142 0.392426
0.406769 0.783112 0.392242
0.406769 0.783142 0.392365
0.406769 0.782562 0.390106
0.406769 0.782532 0.389923
0.460144 0.785461 0.393646
0.738953 0.805176 0.426666
0.863068 0.813293 0.451996
0.873871 0.822876 0.512024
0.406738 0.781799 0.386688
0.406738 0.781830 0.386780
0.406738 0.781830 0.386932
0.406738 0.781769 0.386719
0.406738 0.781311 0.384125
0.432770 0.782776 0.383301
0.723083 0.803833 0.419525
0.850098 0.811554 0.434052
0.873871 0.822235 0.506500
0.035217 0.148895 0.717438
0.034760 0.148193 0.715820
0.034760 0.148193 0.715820
0.035095 0.156250 0.715790
0.218384 0.192169 0.728271
0.598969 0.278748 0.763062
0.766785 0.340698 0.789062
0.766937 0.340210 0.787537
0.761108 0.348724 0.820984
0.034698 0.148102 0.715668
0.034363 0.147400 0.714203
0.034363 0.147400 0.714203
0.034546 0.151794 0.714233
0.180267 0.185516 0.724396
0.580627 0.273132 0.757416
0.766937 0.340210 0.787537
0.766968 0.339355 0.784851
0.761230 0.348511 0.820282
0.034363 0.147400 0.714203
0.033813 0.146667 0.712555
0.033844 0.146698 0.712616
0.034027 0.150085 0.712646
0.156158 0.182404 0.720825
0.567200 0.268799 0.757019
0.766968 0.339813 0.786285
0.766968 0.339325 0.784760
0.761230 0.348541 0.820343
0.024139 0.197174 0.701691
0.024658 0.191528 0.700439
0.024750 0.187592 0.700592
0.026947 0.180542 0.703186
0.119812 0.193695 0.712982
0.549225 0.264923 0.750488
0.766998 0.338928 0.783569
0.767029 0.338409 0.782013
0.761597 0.348053 0.818359
0.005890 0.352509 0.686127
0.005859 0.346436 0.686432
0.005829 0.340515 0.685699
0.005768 0.334625 0.685028
0.089142 0.334229 0.692413
0.532043 0.375946 0.738434
0.778717 0.405487 0.777344
0.775696 0.382050 0.775940
0.768951 0.382202 0.810760
0.175476 0.617493 0.690369
0.172211 0.613617 0.688965
0.167755 0.609741 0.688873
0.164215 0.605774 0.688751
0.157928 0.593811 0.687378
0.521942 0.617371 0.721802
0.788513 0.628204 0.745697
0.824738 0.617249 0.758484
0.816681 0.614258 0.792633
0.347137 0.778137 0.646973
0.345032 0.776306 0.646667
0.344147 0.775269 0.646149
0.341980 0.773254 0.646759
0.337219 0.767944 0.647461
0.475800 0.769592 0.662842
0.756683 0.778931 0.688477
0.853699 0.776978 0.708160
0.848602 0.779083 0.742523
0.385681 0.814667 0.618286
0.385681 0.814575 0.616516
0.385681 0.814575 0.616577
0.385803 0.814392 0.615234
0.385773 0.814392 0.615051
0.426056 0.817383 0.615967
0.717285 0.833740 0.642334
0.841431 0.841370 0.653900
0.854126 0.848999 0.701904
0.386047 0.814056 0.612793
0.385925 0.813782 0.611115
0.385925 0.813782 0.611237
0.385925 0.813812 0.611359
0.385895 0.813843 0.611450
0.403564 0.814392 0.611664
0.697723 0.832977 0.635712
0.826141 0.840179 0.648560
0.854797 0.848999 0.698730
0.060883 0.189178 0.824646
0.060883 0.189178 0.824646
0.060883 0.189178 0.824646
0.061005 0.193970 0.824463
0.130981 0.223602 0.833221
0.560272 0.303406 0.870178
0.750214 0.369659 0.901672
0.750275 0.369568 0.901733
0.750214 0.369659 0.901672
0.060883 0.189178 0.824646
0.060883 0.189178 0.824646
0.060883 0.189178 0.824646
0.060944 0.192078 0.824585
0.078400 0.217499 0.828766
0.541534 0.296906 0.868042
0.750305 0.369568 0.901733
0.750305 0.369568 0.901733
0.750214 0.369659 0.901672
0.060883 0.189178 0.824646
0.060883 0.189178 0.824646
0.060883 0.189178 0.824646
0.060883 0.189178 0.824646
0.064026 0.215057 0.828247
0.529510 0.293701 0.865906
0.750305 0.369568 0.901733
0.750275 0.369568 0.901733
0.750214 0.369659 0.901672
0.061646 0.228638 0.815704
0.061523 0.222839 0.815826
0.061493 0.219513 0.815948
0.061371 0.212616 0.818024
0.062408 0.221558 0.825073
0.506714 0.288757 0.864960
0.750275 0.369568 0.901733
0.750366 0.369476 0.901733
0.750214 0.369659 0.901672
0.060394 0.376251 0.800446
0.060089 0.369141 0.800354
0.060089 0.365479 0.800507
0.060120 0.358246 0.800629
0.062134 0.352753 0.805573
0.488739 0.391510 0.851746
0.758636 0.433502 0.899109
0.758514 0.410522 0.900024
0.755920 0.404602 0.900269
0.128571 0.632385 0.802094
0.120300 0.625214 0.802277
0.118530 0.625153 0.801910
0.109558 0.618134 0.802094
0.099884 0.608856 0.802002
0.477478 0.625580 0.831940
0.763489 0.641754 0.865448
0.804077 0.630249 0.885742
0.800659 0.625610 0.890625
0.323608 0.793213 0.765198
0.321838 0.790955 0.764893
0.320526 0.789795 0.765503
0.318909 0.788666 0.765778
0.310730 0.782593 0.768524
0.439117 0.782501 0.775543
0.733978 0.791199 0.797607
0.836456 0.788513 0.819336
0.834473 0.786926 0.837982
0.364319 0.832062 0.738983
0.364319 0.832062 0.739014
0.364319 0.832062 0.739014
0.364319 0.832062 0.739014
0.365082 0.831482 0.736176
0.394012 0.832367 0.739136
0.695282 0.849396 0.756104
0.819885 0.856903 0.763885
0.839813 0.861023 0.790985
0.365234 0.831360 0.735626
0.365234 0.831360 0.735687
0.365204 0.831360 0.735718
0.365204 0.831390 0.735779
0.366150 0.830536 0.732513
0.374512 0.830902 0.734406
0.674774 0.848541 0.751831
0.807678 0.854370 0.759430
0.840454 0.861023 0.787506
0.060883 0.189178 0.824646
0.060883 0.189178 0.824646
0.060883 0.189178 0.824646
0.060974 0.192749 0.824524
0.120117 0.222565 0.833099
0.555756 0.302307 0.870209
0.750214 0.369659 0.901672
0.808411 0.852905 0.751007
0.842224 0.857635 0.773254
0.060883 0.189178 0.824646
0.060883 0.189178 0.824646
0.060883 0.189178 0.824646
0.060913 0.191132 0.824615
0.072144 0.216766 0.828339
0.537506 0.295715 0.867096
0.750214 0.369659 0.901672
0.808441 0.852905 0.751007
0.842224 0.857635 0.773254
0.060883 0.189178 0.824646
0.060883 0.189178 0.824646
0.060883 0.189178 0.824646
0.060883 0.189178 0.824646
0.063995 0.214233 0.828247
0.525177 0.292633 0.865601
0.750214 0.369659 0.901672
0.808502 0.852905 0.751007
0.842224 0.857635 0.773254
0.061615 0.227173 0.815735
0.061523 0.222473 0.815826
0.061493 0.218719 0.816101
0.061371 0.210999 0.818726
0.062714 0.218994 0.825775
0.501587 0.287506 0.864502
0.750214 0.369659 0.901672
0.808563 0.852905 0.751007
0.842224 0.857635 0.773254
0.060455 0.376312 0.800629
0.060211 0.369324 0.800812
0.060242 0.365662 0.800873
0.060272 0.358307 0.801025
0.062012 0.352417 0.805664
0.484039 0.390686 0.851624
0.757721 0.433136 0.899109
0.808594 0.852905 0.751007
0.842224 0.857635 0.773254
0.121704 0.629333 0.806732
0.117462 0.625854 0.806793
0.115173 0.624054 0.806854
0.108704 0.618958 0.806976
0.094513 0.607452 0.807190
0.468262 0.625214 0.840363
0.759857 0.641785 0.874695
0.808716 0.852905 0.751007
0.842224 0.857635 0.773254
0.317841 0.794861 0.781799
0.315125 0.792450 0.782776
0.313690 0.791229 0.783081
0.311249 0.789215 0.783630
0.305023 0.784943 0.784058
0.428009 0.784424 0.796814
0.727448 0.791809 0.821289
0.808777 0.852905 0.751007
0.842224 0.857635 0.773254
0.357330 0.835907 0.767090
0.357330 0.835907 0.767090
0.357330 0.835907 0.767090
0.357330 0.835907 0.767090
0.357330 0.835907 0.767090
0.383606 0.836273 0.768066
0.686218 0.852875 0.787506
0.808899 0.852905 0.751007
0.842224 0.857635 0.773254
0.357330 0.835907 0.767090
0.357330 0.835907 0.767090
0.357330 0.835907 0.767090
0.357330 0.835907 0.767090
0.357330 0.835907 0.767090
0.364105 0.835968 0.767029
0.665771 0.852509 0.787354
0.808929 0.852905 0.751007
0.842224 0.857635 0.773254
