example/assets/luts/lut3.cube
#LUT size
LUT_3D_SIZE 17
#LUT data points
0.000000 0.000092 0.000000
0.000000 0.000092 0.000000
0.000000 0.000092 0.000000
0.007965 0.002075 0.001617
0.065125 0.004944 0.002289
0.101379 0.008270 0.003143
0.150330 0.011475 0.007019
0.242432 0.005463 0.011536
0.357910 0.010742 0.012146
0.503265 0.029785 0.037537
0.660919 0.087646 0.061584
0.778473 0.140808 0.090485
0.786926 0.144836 0.092773
0.786926 0.144836 0.092773
0.786926 0.144836 0.092773
0.786926 0.144836 0.092773
0.786926 0.144836 0.092773
0.000000 0.000092 0.000000
0.000000 0.000092 0.000000
0.000000 0.000092 0.000000
0.000000 0.000092 0.000000
0.041077 0.002960 0.001801
0.087769 0.006958 0.002808
0.135345 0.011444 0.005737
0.227081 0.004974 0.012207
0.346741 0.010223 0.010284
0.495422 0.026947 0.036438
0.653839 0.086304 0.060089
0.774475 0.139008 0.089386
0.786926 0.144836 0.092773
0.786926 0.144836 0.092773
0.786926 0.144836 0.092773
0.786926 0.144836 0.092773
0.786926 0.144836 0.092773
0.000000 0.000092 0.000000
0.000000 0.000092 0.000000
0.000000 0.000092 0.000000
0.000000 0.000092 0.000000
0.000153 0.000244 0.000092
0.069977 0.005371 0.002380
0.121490 0.010162 0.004547
0.213837 0.005524 0.012146
0.332520 0.009552 0.008545
0.483032 0.019196 0.034851
0.645996 0.084259 0.058472
0.770081 0.137115 0.088165
0.786926 0.144836 0.092773
0.786926 0.144836 0.092773
0.786926 0.144836 0.092773
0.786926 0.144836 0.092773
0.786926 0.144836 0.092773
0.000000 0.000092 0.000000
0.000000 0.000092 0.000000
0.000000 0.000092 0.000000
0.000000 0.000092 0.000000
0.000000 0.000092 0.000000
0.055145 0.004089 0.002075
0.113617 0.009399 0.003876
0.202057 0.006714 0.011536
0.324524 0.009186 0.008209
0.477173 0.018036 0.034058
0.641296 0.080353 0.057434
0.767181 0.135864 0.087402
0.786926 0.144836 0.092773
0.786926 0.144836 0.092773
0.786926 0.144836 0.092773
0.786926 0.144836 0.092773
0.786926 0.144836 0.092773
0.000000 0.000092 0.000000
0.000000 0.000092 0.000000
0.000000 0.000092 0.000000
0.000000 0.000092 0.000000
0.000000 0.000092 0.000000
0.037781 0.002716 0.001770
0.106750 0.008789 0.003357
0.192841 0.007812 0.010773
0.318359 0.008911 0.008423
0.470459 0.017090 0.033081
0.634979 0.078278 0.056152
0.764343 0.132629 0.086639
0.786926 0.144836 0.092773
0.786926 0.144836 0.092773
0.786926 0.144836 0.092773
0.786926 0.144836 0.092773
0.786926 0.144836 0.092773
0.000000 0.027588 0.000000
0.000000 0.020264 0.000000
0.000000 0.010864 0.000000
0.000000 0.005554 0.000000
0.000000 0.001587 0.000000
0.000519 0.000580 0.000366
0.092896 0.007477 0.002899
0.181549 0.010101 0.009735
0.310272 0.008514 0.008698
0.462158 0.016022 0.031891
0.628571 0.076111 0.054840
0.759430 0.129974 0.085327
0.786926 0.144836 0.092773
0.786926 0.144836 0.092773
0.786926 0.144836 0.092773
0.786926 0.144836 0.092773
0.786926 0.144836 0.092773
0.001221 0.078888 0.000916
0.001160 0.076660 0.000854
0.001038 0.072632 0.000763
0.000946 0.070923 0.000702
0.000885 0.069519 0.000702
0.000854 0.067322 0.000641
0.070190 0.067596 0.002869
0.163239 0.068420 0.007355
0.293640 0.064484 0.006165
0.448669 0.064209 0.027832
0.620270 0.084106 0.053162
0.752716 0.127777 0.083557
0.786926 0.144836 0.092773
0.786926 0.144836 0.092773
0.786926 0.144836 0.092773
0.786926 0.144836 0.092773
0.786926 0.144836 0.092773
0.000244 0.139435 0.000732
0.000275 0.136536 0.000732
0.000427 0.130615 0.000793
0.000488 0.127838 0.000854
0.000519 0.127411 0.000854
0.000610 0.124695 0.000916
0.022125 0.125183 0.002136
0.130219 0.134399 0.002716
0.269440 0.141327 0.002960
0.436798 0.144775 0.021118
0.609650 0.148743 0.052460
0.744873 0.161774 0.082489
0.789825 0.161316 0.092773
0.786926 0.151764 0.092773
0.786926 0.146667 0.092773
0.786926 0.145844 0.092773
0.786926 0.145355 0.092773
0.001007 0.229919 0.000702
0.000977 0.226593 0.000702
0.000916 0.222900 0.000702
0.000885 0.221252 0.000702
0.000885 0.218811 0.000702
0.000854 0.217896 0.000702
0.000793 0.211395 0.000702
0.089233 0.219788 0.001404
0.242188 0.233826 0.001709
0.422241 0.245026 0.008392
0.600342 0.252808 0.052795
0.739380 0.254486 0.084076
0.798859 0.249603 0.099060
0.796326 0.233856 0.097260
0.795166 0.219971 0.095886
0.794098 0.210815 0.095886
0.793488 0.208405 0.095886
0.086212 0.352051 0.001221
0.081055 0.348419 0.001221
0.079926 0.346924 0.001190
0.078033 0.344543 0.001160
0.077850 0.344177 0.001160
0.075531 0.340790 0.001160
0.072540 0.337006 0.001160
0.082733 0.332153 0.001160
0.219421 0.344604 0.001617
0.404724 0.363281 0.002289
0.590851 0.375305 0.049438
0.734009 0.377472 0.084229
0.818268 0.376984 0.106720
0.818390 0.359985 0.106140
0.816193 0.350037 0.105957
0.814545 0.342651 0.105560
0.813904 0.339844 0.105286
0.201477 0.486847 0.002106
0.201172 0.486511 0.002106
0.198669 0.483002 0.002045
0.198486 0.482727 0.002045
0.195984 0.479065 0.002045
0.194733 0.479065 0.002045
0.191986 0.474976 0.002014
0.189240 0.470917 0.001984
0.219635 0.468262 0.002075
0.388824 0.484375 0.002747
0.580444 0.502502 0.051392
0.730316 0.507629 0.082733
0.825104 0.507690 0.106628
0.843842 0.496918 0.112610
0.842255 0.488861 0.112610
0.840973 0.481140 0.112579
0.840973 0.480988 0.112579
0.300934 0.606750 0.003021
0.300415 0.605927 0.002991
0.298737 0.603455 0.002960
0.298828 0.603577 0.002991
0.298157 0.602600 0.002960
0.295471 0.599976 0.002960
0.294739 0.598907 0.002960
0.291687 0.595215 0.002899
0.286499 0.588318 0.002869
0.375427 0.593506 0.003235
0.561218 0.610565 0.046326
0.716827 0.619965 0.091278
0.813293 0.621552 0.110718
0.864807 0.615753 0.123535
0.864471 0.609131 0.123566
0.864197 0.605865 0.123596
0.863647 0.602478 0.119995
0.368744 0.692291 0.005127
0.367767 0.690918 0.005096
0.366760 0.689423 0.005035
0.365814 0.687988 0.005005
0.365845 0.688019 0.005005
0.364288 0.686310 0.004913
0.362671 0.684052 0.004852
0.360657 0.680634 0.004761
0.358093 0.676636 0.004639
0.373627 0.674408 0.004791
0.533661 0.685699 0.019928
0.689972 0.695160 0.076294
0.790894 0.699646 0.110779
0.865601 0.698456 0.132080
0.876434 0.694641 0.133881
0.875885 0.691772 0.132629
0.875427 0.691315 0.131409
0.408600 0.739563 0.006927
0.408600 0.739563 0.006927
0.408203 0.739227 0.006897
0.408173 0.739227 0.006897
0.408173 0.739227 0.006897
0.408173 0.739227 0.006897
0.407104 0.737915 0.006866
0.405304 0.735657 0.006775
0.403351 0.733307 0.006683
0.400146 0.728912 0.006500
0.509491 0.732971 0.008301
0.663666 0.741241 0.058319
0.769409 0.745789 0.093750
0.839844 0.747833 0.126160
0.877441 0.746307 0.132477
0.877441 0.743866 0.132690
0.877472 0.743286 0.132721
0.409637 0.739563 0.006927
0.409637 0.739563 0.006927
0.409637 0.739563 0.006927
0.409637 0.739563 0.006927
0.409637 0.739563 0.006927
0.409637 0.739563 0.006927
0.409637 0.739563 0.006927
0.409637 0.739563 0.006927
0.409607 0.739563 0.006927
0.409607 0.739563 0.006927
0.481049 0.743042 0.008118
0.639526 0.755249 0.046875
0.752258 0.763062 0.085785
0.823975 0.769562 0.112488
0.873749 0.772827 0.129883
0.877258 0.772827 0.130951
0.877289 0.772827 0.131012
0.409637 0.739563 0.006927
0.409637 0.739563 0.006927
0.409637 0.739563 0.006927
0.409637 0.739563 0.006927
0.409637 0.739563 0.006927
0.409637 0.739563 0.006927
0.409637 0.739563 0.006927
0.409637 0.739563 0.006927
0.409637 0.739563 0.006927
0.409637 0.739563 0.006927
0.459625 0.742950 0.007782
0.620056 0.753113 0.043091
0.738647 0.763000 0.084167
0.811127 0.767426 0.108185
0.862396 0.772217 0.132812
0.877136 0.772827 0.135620
0.877136 0.772827 0.135620
0.409637 0.739563 0.006927
0.409637 0.739563 0.006927
0.409637 0.739563 0.006927
0.409637 0.739563 0.006927
0.409637 0.739563 0.006927
0.409637 0.739563 0.006927
0.409637 0.739563 0.006927
0.409637 0.739563 0.006927
0.409637 0.739563 0.006927
0.409637 0.739563 0.006927
0.453339 0.742218 0.007660
0.615265 0.753082 0.041321
0.735260 0.763000 0.083038
0.808411 0.766937 0.106964
0.859650 0.771912 0.132782
0.877136 0.772827 0.135681
0.877136 0.772827 0.135681
0.000000 0.000092 0.000000
0.000000 0.000092 0.000000
0.000000 0.000092 0.000000
0.003479 0.001862 0.001404
0.062531 0.004730 0.002258
0.099640 0.008087 0.003082
0.147797 0.011597 0.006805
0.239746 0.005341 0.011658
0.356598 0.010651 0.011871
0.503265 0.029785 0.037537
0.660919 0.087646 0.061584
0.776550 0.139954 0.089935
0.786926 0.144836 0.092773
0.786926 0.144836 0.092773
0.786926 0.144836 0.092773
0.786926 0.144836 0.092773
0.786926 0.144836 0.092773
0.000000 0.000092 0.000000
0.000000 0.000092 0.000000
0.000000 0.000092 0.000000
0.000000 0.000092 0.000000
0.036682 0.002655 0.001740
0.086395 0.006836 0.002777
0.134705 0.011414 0.005707
0.226318 0.004974 0.012238
0.344696 0.010132 0.010010
0.494446 0.026672 0.036316
0.653839 0.086304 0.060089
0.774475 0.139008 0.089386
0.786926 0.144836 0.092773
0.786926 0.144836 0.092773
0.786926 0.144836 0.092773
0.786926 0.144836 0.092773
0.786926 0.144836 0.092773
0.000000 0.000092 0.000000
0.000000 0.000092 0.000000
0.000000 0.000092 0.000000
0.000000 0.000092 0.000000
0.000000 0.000092 0.000000
0.067413 0.005127 0.002350
0.121246 0.010162 0.004517
0.210815 0.005768 0.012024
0.332153 0.009552 0.008514
0.483032 0.019196 0.034851
0.645477 0.081696 0.058319
0.770050 0.137115 0.088165
0.786926 0.144836 0.092773
0.786926 0.144836 0.092773
0.786926 0.144836 0.092773
0.786926 0.144836 0.092773
0.786926 0.144836 0.092773
0.000000 0.000092 0.000000
0.000000 0.000092 0.000000
0.000000 0.000092 0.000000
0.000000 0.000092 0.000000
0.000000 0.000092 0.000000
0.052856 0.003876 0.002045
0.113312 0.009399 0.003876
0.198975 0.007080 0.011322
0.322968 0.009094 0.008240
0.474670 0.017670 0.033691
0.638672 0.079559 0.056915
0.766724 0.135681 0.087280
0.786926 0.144836 0.092773
0.786926 0.144836 0.092773
0.786926 0.144836 0.092773
0.786926 0.144836 0.092773
0.786926 0.144836 0.092773
0.000000 0.000092 0.000000
0.000000 0.000092 0.000000
0.000000 0.000092 0.000000
0.000000 0.000092 0.000000
0.000000 0.000092 0.000000
0.032593 0.002472 0.001709
0.105133 0.008606 0.003235
0.191162 0.008026 0.010651
0.317078 0.008850 0.008484
0.469879 0.017059 0.033020
0.634674 0.078094 0.056091
0.763428 0.132294 0.086426
0.786926 0.144836 0.092773
0.786926 0.144836 0.092773
0.786926 0.144836 0.092773
0.786926 0.144836 0.092773
0.786926 0.144836 0.092773
0.000000 0.027588 0.000000
0.000000 0.020203 0.000000
0.000000 0.010773 0.000000
0.000000 0.004333 0.000000
0.000000 0.000458 0.000000
0.000183 0.000305 0.000122
0.091980 0.007385 0.002869
0.179016 0.010284 0.009491
0.308075 0.008423 0.008789
0.460022 0.015717 0.031586
0.628387 0.075958 0.054810
0.758789 0.129761 0.085144
0.786926 0.144836 0.092773
0.786926 0.144836 0.092773
0.786926 0.144836 0.092773
0.786926 0.144836 0.092773
0.786926 0.144836 0.092773
0.001221 0.078613 0.000916
0.001160 0.076660 0.000854
0.001038 0.072601 0.000763
0.000946 0.070618 0.000702
0.000885 0.068970 0.000671
0.000824 0.067261 0.000641
0.067932 0.067322 0.002869
0.162598 0.068176 0.007385
0.290802 0.064270 0.006226
0.448730 0.064148 0.027832
0.616608 0.081024 0.052551
0.752563 0.127716 0.083496
0.786926 0.144836 0.092773
0.786926 0.144836 0.092773
0.786926 0.144836 0.092773
0.786926 0.144836 0.092773
0.786926 0.144836 0.092773
0.000244 0.139435 0.000732
0.000336 0.133942 0.000763
0.000427 0.130524 0.000793
0.000488 0.127808 0.000854
0.000519 0.127380 0.000854
0.000610 0.124634 0.000916
0.019958 0.125000 0.002136
0.129700 0.133911 0.002716
0.267609 0.140137 0.002960
0.435791 0.143250 0.021027
0.609589 0.148712 0.052429
0.744263 0.161560 0.082428
0.789825 0.161346 0.092773
0.786896 0.151459 0.092773
0.786926 0.146667 0.092773
0.786926 0.145844 0.092773
0.786926 0.145355 0.092773
0.000977 0.228119 0.000702
0.000977 0.226532 0.000702
0.000916 0.222900 0.000702
0.000885 0.221252 0.000702
0.000854 0.217865 0.000702
0.000854 0.216705 0.000702
0.000793 0.211395 0.000702
0.086945 0.218475 0.001404
0.240845 0.233612 0.001709
0.418213 0.243835 0.007599
0.596680 0.252319 0.051727
0.738037 0.254303 0.083771
0.798859 0.249634 0.099060
0.796295 0.233643 0.097229
0.795166 0.220001 0.095886
0.794098 0.210815 0.095886
0.793488 0.208405 0.095886
0.086212 0.352051 0.001221
0.081055 0.348419 0.001221
0.079987 0.346985 0.001190
0.078033 0.344543 0.001160
0.077545 0.343781 0.001160
0.075531 0.340790 0.001160
0.072510 0.337006 0.001160
0.080200 0.332062 0.001160
0.217163 0.344299 0.001617
0.401855 0.362976 0.002258
0.588226 0.375031 0.048981
0.733337 0.377350 0.084076
0.818268 0.376984 0.106720
0.818390 0.360046 0.106140
0.816193 0.350098 0.105988
0.814575 0.342712 0.105560
0.813904 0.339844 0.105286
0.201508 0.486908 0.002106
0.201233 0.486572 0.002106
0.198669 0.483002 0.002045
0.198395 0.482635 0.002045
0.195984 0.479065 0.002045
0.194763 0.479126 0.002045
0.191986 0.474976 0.002014
0.189240 0.470917 0.001984
0.218201 0.468109 0.002075
0.386719 0.484009 0.002747
0.580444 0.502502 0.051392
0.728577 0.507599 0.082153
0.823242 0.506470 0.106232
0.843811 0.496887 0.112610
0.842224 0.488770 0.112610
0.840973 0.481140 0.112579
0.840973 0.480988 0.112579
0.300934 0.606750 0.003021
0.300415 0.605927 0.002991
0.298737 0.603455 0.002960
0.298828 0.603577 0.002991
0.297272 0.601349 0.002960
0.295471 0.599976 0.002960
0.293121 0.596680 0.002930
0.291046 0.594421 0.002899
0.286499 0.588318 0.002869
0.374329 0.593323 0.003204
0.558502 0.610199 0.045471
0.716522 0.619965 0.091125
0.812469 0.620636 0.110596
0.864807 0.615753 0.123535
0.864471 0.609100 0.123535
0.864136 0.605011 0.123199
0.863647 0.602478 0.119995
0.367889 0.691071 0.005096
0.367767 0.690918 0.005096
0.366760 0.689423 0.005035
0.365814 0.687988 0.005005
0.365845 0.688019 0.005005
0.364288 0.686310 0.004913
0.362671 0.684052 0.004852
0.360657 0.680634 0.004761
0.358093 0.676666 0.004639
0.372528 0.674377 0.004761
0.533508 0.685699 0.019867
0.689026 0.695007 0.075409
0.790894 0.699646 0.110779
0.865173 0.698120 0.132111
0.876434 0.694641 0.133881
0.875885 0.691772 0.132599
0.875427 0.691315 0.131409
0.408600 0.739563 0.006927
0.408600 0.739563 0.006927
0.408203 0.739227 0.006897
0.408173 0.739227 0.006897
0.408173 0.739227 0.006897
0.408203 0.739227 0.006897
0.407104 0.737915 0.006866
0.405304 0.735657 0.006775
0.403351 0.733307 0.006683
0.399811 0.728729 0.006500
0.508850 0.732941 0.008301
0.661438 0.740906 0.057617
0.769409 0.744995 0.094086
0.839844 0.747833 0.126160
0.877441 0.746307 0.132477
0.877441 0.743866 0.132690
0.877472 0.743286 0.132721
0.409637 0.739563 0.006927
0.409637 0.739563 0.006927
0.409637 0.739563 0.006927
0.409637 0.739563 0.006927
0.409637 0.739563 0.006927
0.409637 0.739563 0.006927
0.409637 0.739563 0.006927
0.409637 0.739563 0.006927
0.409607 0.739563 0.006927
0.409607 0.739563 0.006927
0.480743 0.743042 0.008118
0.639404 0.755249 0.046844
0.752197 0.763062 0.085785
0.823730 0.769562 0.112274
0.873749 0.772827 0.129883
0.877258 0.772827 0.130951
0.877289 0.772827 0.131012
0.409637 0.739563 0.006927
0.409637 0.739563 0.006927
0.409637 0.739563 0.006927
0.409637 0.739563 0.006927
0.409637 0.739563 0.006927
0.409637 0.739563 0.006927
0.409637 0.739563 0.006927
0.409637 0.739563 0.006927
0.409637 0.739563 0.006927
0.409637 0.739563 0.006927
0.459412 0.742950 0.007751
0.619385 0.753113 0.042847
0.737457 0.763000 0.083801
0.811127 0.767426 0.108185
0.862396 0.772217 0.132812
0.877136 0.772827 0.135620
0.877136 0.772827 0.135620
0.409637 0.739563 0.006927
0.409637 0.739563 0.006927
0.409637 0.739563 0.006927
0.409637 0.739563 0.006927
0.409637 0.739563 0.006927
0.409637 0.739563 0.006927
0.409637 0.739563 0.006927
0.409637 0.739563 0.006927
0.409637 0.739563 0.006927
0.409637 0.739563 0.006927
0.453156 0.742218 0.007660
0.614655 0.753082 0.041107
0.734222 0.763000 0.082642
0.808319 0.766937 0.106903
0.857452 0.771759 0.132568
0.877136 0.772827 0.135681
0.877136 0.772827 0.135681
0.000000 0.000092 0.000000
0.000000 0.000092 0.000000
0.000000 0.000092 0.000000
0.001190 0.001251 0.000885
0.059967 0.004486 0.002197
0.098663 0.007996 0.003052
0.147217 0.011597 0.006775
0.239014 0.005310 0.011688
0.354767 0.010590 0.011597
0.503265 0.029785 0.037537
0.660919 0.087646 0.061584
0.776367 0.139832 0.089905
0.786926 0.144836 0.092773
0.786926 0.144836 0.092773
0.786926 0.144836 0.092773
0.786926 0.144836 0.092773
0.786926 0.144836 0.092773
0.000000 0.000092 0.000000
0.000000 0.000092 0.000000
0.000000 0.000092 0.000000
0.000000 0.000092 0.000000
0.029938 0.002380 0.001678
0.084747 0.006714 0.002747
0.132538 0.011230 0.005524
0.223846 0.005035 0.012238
0.344482 0.010101 0.009949
0.491699 0.024872 0.035980
0.653381 0.086243 0.059998
0.772369 0.138092 0.088837
0.786926 0.144836 0.092773
0.786926 0.144836 0.092773
0.786926 0.144836 0.092773
0.786926 0.144836 0.092773
0.786926 0.144836 0.092773
0.000000 0.000092 0.000000
0.000000 0.000092 0.000000
0.000000 0.000092 0.000000
0.000000 0.000092 0.000000
0.000000 0.000092 0.000000
0.064117 0.004822 0.002289
0.119720 0.010010 0.004395
0.210449 0.005798 0.011993
0.328796 0.009369 0.008331
0.481750 0.018982 0.034668
0.642731 0.080902 0.057739
0.769775 0.136963 0.088104
0.786926 0.144836 0.092773
0.786926 0.144836 0.092773
0.786926 0.144836 0.092773
0.786926 0.144836 0.092773
0.786926 0.144836 0.092773
0.000000 0.000092 0.000000
0.000000 0.000092 0.000000
0.000000 0.000092 0.000000
0.000000 0.000092 0.000000
0.000000 0.000092 0.000000
0.049713 0.003662 0.001953
0.111267 0.009186 0.003723
0.198273 0.007172 0.011230
0.321625 0.009033 0.008301
0.473907 0.017578 0.033600
0.638428 0.079498 0.056854
0.764832 0.134308 0.086761
0.786926 0.144836 0.092773
0.786926 0.144836 0.092773
0.786926 0.144836 0.092773
0.786926 0.144836 0.092773
0.786926 0.144836 0.092773
0.000000 0.000092 0.000000
0.000000 0.000092 0.000000
0.000000 0.000092 0.000000
0.000000 0.000092 0.000000
0.000000 0.000092 0.000000
0.025604 0.002258 0.001648
0.103607 0.008484 0.003174
0.188660 0.008331 0.010406
0.315491 0.008789 0.008514
0.468109 0.016846 0.032776
0.634552 0.078033 0.056061
0.761871 0.131653 0.085968
0.786926 0.144836 0.092773
0.786926 0.144836 0.092773
0.786926 0.144836 0.092773
0.786926 0.144836 0.092773
0.786926 0.144836 0.092773
0.000000 0.027588 0.000000
0.000000 0.020203 0.000000
0.000000 0.010559 0.000000
0.000000 0.004303 0.000000
0.000000 0.000397 0.000000
0.000000 0.000122 0.000000
0.089844 0.007172 0.002869
0.176636 0.009583 0.009308
0.307007 0.008362 0.008850
0.459290 0.015625 0.031433
0.627136 0.075592 0.054565
0.758514 0.129608 0.085083
0.786926 0.144836 0.092773
0.786926 0.144836 0.092773
0.786926 0.144836 0.092773
0.786926 0.144836 0.092773
0.786926 0.144836 0.092773
0.001221 0.078613 0.000916
0.001068 0.074646 0.000793
0.001007 0.072449 0.000763
0.000946 0.070587 0.000702
0.000885 0.068909 0.000671
0.000824 0.066681 0.000641
0.065887 0.067139 0.002808
0.160034 0.068115 0.007385
0.290192 0.064178 0.006256
0.448700 0.064148 0.027832
0.616058 0.080627 0.052429
0.750549 0.127289 0.082947
0.786926 0.144836 0.092773
0.786926 0.144836 0.092773
0.786926 0.144836 0.092773
0.786926 0.144836 0.092773
0.786926 0.144836 0.092773
0.000244 0.139465 0.000732
0.000336 0.133942 0.000763
0.000427 0.130524 0.000793
0.000519 0.127350 0.000854
0.000519 0.126465 0.000854
0.000610 0.123260 0.000916
0.017212 0.124878 0.002167
0.127380 0.133270 0.002716
0.266083 0.139771 0.002960
0.432709 0.142975 0.020538
0.608490 0.148560 0.052216
0.744049 0.161102 0.082275
0.789825 0.161346 0.092773
0.786896 0.151123 0.092773
0.786926 0.146698 0.092773
0.786926 0.145844 0.092773
0.786926 0.145355 0.092773
0.001007 0.228210 0.000702
0.000946 0.225006 0.000702
0.000916 0.222870 0.000702
0.000885 0.221252 0.000702
0.000854 0.217896 0.000702
0.000824 0.215607 0.000702
0.000793 0.211426 0.000702
0.084564 0.218048 0.001404
0.238312 0.232483 0.001709
0.418152 0.243835 0.007599
0.596527 0.252350 0.051727
0.736938 0.254181 0.083466
0.798859 0.249634 0.099060
0.796295 0.233612 0.097229
0.795166 0.220032 0.095886
0.794067 0.210785 0.095886
0.793488 0.208405 0.095886
0.086243 0.352112 0.001221
0.080994 0.348328 0.001221
0.079773 0.346710 0.001190
0.078033 0.344543 0.001160
0.077515 0.343750 0.001160
0.075531 0.340790 0.001160
0.072510 0.337006 0.001160
0.079254 0.332062 0.001160
0.215698 0.344147 0.001617
0.400940 0.362885 0.002258
0.587311 0.374939 0.048798
0.733276 0.377411 0.084076
0.818298 0.377045 0.106720
0.818024 0.360077 0.106018
0.816193 0.350037 0.105957
0.814575 0.342712 0.105560
0.813904 0.339844 0.105286
0.201569 0.487000 0.002106
0.199066 0.483582 0.002075
0.198700 0.483032 0.002075
0.197845 0.481873 0.002045
0.195343 0.479034 0.002045
0.194763 0.479126 0.002045
0.192047 0.475037 0.002014
0.188660 0.470001 0.001984
0.217133 0.468079 0.002045
0.385834 0.483917 0.002716
0.579926 0.502441 0.051208
0.728516 0.507629 0.082123
0.823212 0.506348 0.106232
0.843842 0.496979 0.112610
0.842194 0.488403 0.112610
0.840973 0.481171 0.112579
0.840973 0.480988 0.112579
0.300934 0.606750 0.003021
0.300415 0.605927 0.002991
0.298828 0.603577 0.002991
0.298828 0.603577 0.002991
0.296936 0.601440 0.002960
0.295471 0.599976 0.002960
0.293091 0.596588 0.002930
0.289398 0.592072 0.002869
0.286499 0.588318 0.002869
0.371826 0.592072 0.003204
0.558258 0.610168 0.045410
0.714386 0.618256 0.090912
0.811615 0.620453 0.110443
0.864807 0.615753 0.123535
0.864471 0.609131 0.123566
0.864136 0.604706 0.123199
0.863647 0.602478 0.119995
0.367828 0.691010 0.005096
0.367767 0.690948 0.005096
0.366760 0.689453 0.005035
0.365814 0.687988 0.005005
0.365845 0.688019 0.005005
0.364227 0.685974 0.004913
0.362671 0.684052 0.004852
0.360657 0.680634 0.004761
0.358124 0.676697 0.004639
0.371094 0.674347 0.004761
0.531097 0.685547 0.018707
0.688599 0.694977 0.075256
0.789276 0.699524 0.110596
0.863251 0.698059 0.131958
0.876434 0.694641 0.133881
0.875885 0.691742 0.132477
0.875458 0.691376 0.131409
0.408600 0.739563 0.006927
0.408600 0.739563 0.006927
0.408173 0.739227 0.006897
0.408173 0.739227 0.006897
0.408173 0.739227 0.006897
0.408203 0.739227 0.006897
0.407104 0.737915 0.006866
0.405304 0.735657 0.006775
0.403381 0.733307 0.006683
0.399170 0.728699 0.006500
0.507233 0.732880 0.008240
0.661255 0.740845 0.057556
0.769196 0.744843 0.094025
0.839203 0.747772 0.126007
0.877441 0.746307 0.132477
0.877441 0.743866 0.132690
0.877472 0.743286 0.132721
0.409637 0.739563 0.006927
0.409637 0.739563 0.006927
0.409637 0.739563 0.006927
0.409637 0.739563 0.006927
0.409637 0.739563 0.006927
0.409637 0.739563 0.006927
0.409637 0.739563 0.006927
0.409637 0.739563 0.006927
0.409607 0.739563 0.006927
0.409607 0.739563 0.006927
0.479095 0.743042 0.008118
0.638550 0.755066 0.046539
0.752106 0.763062 0.085754
0.823212 0.769562 0.111786
0.873535 0.772827 0.129822
0.877258 0.772827 0.130951
0.877289 0.772827 0.131012
0.409637 0.739563 0.006927
0.409637 0.739563 0.006927
0.409637 0.739563 0.006927
0.409637 0.739563 0.006927
0.409637 0.739563 0.006927
0.409637 0.739563 0.006927
0.409637 0.739563 0.006927
0.409637 0.739563 0.006927
0.409637 0.739563 0.006927
0.409637 0.739563 0.006927
0.458130 0.742950 0.007751
0.619141 0.753113 0.042755
0.737457 0.763000 0.083801
0.810608 0.767334 0.108002
0.860046 0.771912 0.132721
0.877136 0.772827 0.135620
0.877136 0.772827 0.135620
0.409637 0.739563 0.006927
0.409637 0.739563 0.006927
0.409637 0.739563 0.006927
0.409637 0.739563 0.006927
0.409637 0.739563 0.006927
0.409637 0.739563 0.006927
0.409637 0.739563 0.006927
0.409637 0.739563 0.006927
0.409637 0.739563 0.006927
0.409637 0.739563 0.006927
0.451843 0.741791 0.007660
0.612885 0.753082 0.040436
0.732819 0.762970 0.082245
0.806549 0.766754 0.106262
0.857269 0.771729 0.132538
0.877136 0.772827 0.135681
0.877136 0.772827 0.135681
0.000000 0.000092 0.000000
0.000000 0.000092 0.000000
0.000000 0.000092 0.000000
0.000458 0.000549 0.000336
0.058105 0.004333 0.002136
0.096619 0.007812 0.003021
0.144653 0.011688 0.006531
0.236603 0.005188 0.011810
0.354767 0.010590 0.011597
0.502289 0.029480 0.037384
0.657227 0.087006 0.060791
0.776398 0.139893 0.089905
0.786926 0.144836 0.092773
0.786926 0.144836 0.092773
0.786926 0.144836 0.092773
0.786926 0.144836 0.092773
0.786926 0.144836 0.092773
0.000000 0.000092 0.000000
0.000000 0.000092 0.000000
0.000000 0.000092 0.000000
