example/assets/luts/lut3.cube
#LUT size
LUT_3D_SIZE 5
#LUT data points
0.000000 0.000092 0.000000
0.065125 0.004944 0.002289
0.357910 0.010742 0.012146
0.786926 0.144836 0.092773
0.786926 0.144836 0.092773
0.000000 0.000092 0.000000
0.000000 0.000092 0.000000
0.318359 0.008911 0.008423
0.786926 0.144836 0.092773
0.786926 0.144836 0.092773
0.001007 0.229919 0.000702
0.000885 0.218811 0.000702
0.242188 0.233826 0.001709
0.798859 0.249603 0.099060
0.793488 0.208405 0.095886
0.368744 0.692291 0.005127
0.365845 0.688019 0.005005
0.358093 0.676636 0.004639
0.790894 0.699646 0.110779
0.875427 0.691315 0.131409
0.409637 0.739563 0.006927
0.409637 0.739563 0.006927
0.409637 0.739563 0.006927
0.735260 0.763000 0.083038
0.877136 0.772827 0.135681
0.000000 0.000092 0.000000
0.056519 0.004211 0.002106
0.353302 0.010498 0.011322
0.786926 0.144836 0.092773
0.786926 0.144836 0.092773
0.000000 0.000092 0.000000
0.000000 0.000092 0.000000
0.314270 0.008698 0.008575
0.786926 0.144836 0.092773
0.786926 0.144836 0.092773
0.001007 0.228302 0.000702
0.000854 0.217896 0.000702
0.237091 0.231476 0.001709
0.798828 0.249390 0.099060
0.793488 0.208435 0.095886
0.367828 0.691010 0.005096
0.365875 0.688110 0.005005
0.358124 0.676666 0.004639
0.788605 0.699432 0.110474
0.875458 0.691406 0.131409
0.409637 0.739563 0.006927
0.409637 0.739563 0.006927
0.409637 0.739563 0.006927
0.732880 0.762970 0.082245
0.877136 0.772827 0.135681
0.000000 0.019135 0.256714
0.000000 0.025421 0.255402
0.337769 0.066803 0.286835
0.792236 0.209717 0.344177
0.792053 0.220215 0.381653
0.000000 0.019775 0.247742
0.000000 0.016205 0.247437
0.295685 0.055817 0.276276
0.792145 0.207489 0.335541
0.792053 0.217865 0.373718
0.001770 0.266327 0.210785
0.001678 0.255524 0.207855
0.229156 0.264374 0.237274
0.804901 0.297150 0.322296
0.799011 0.269562 0.368652
0.372009 0.707367 0.162933
0.368774 0.703003 0.161316
0.360107 0.693756 0.158295
0.787537 0.714111 0.229279
0.879181 0.715912 0.303986
0.410004 0.747070 0.118164
0.409943 0.746857 0.116791
0.409943 0.746429 0.112396
0.730408 0.769348 0.165192
0.881226 0.786469 0.258911
0.035217 0.148895 0.717438
0.034760 0.148193 0.715820
0.218384 0.192169 0.728271
0.766785 0.340698 0.789062
0.761108 0.348724 0.820984
0.034363 0.147400 0.714203
0.033844 0.146698 0.712616
0.156158 0.182404 0.720825
0.766968 0.339813 0.786285
0.761230 0.348541 0.820343
0.005890 0.352509 0.686127
0.005829 0.340515 0.685699
0.089142 0.334229 0.692413
0.778717 0.405487 0.777344
0.768951 0.382202 0.810760
0.347137 0.778137 0.646973
0.344147 0.775269 0.646149
0.337219 0.767944 0.647461
0.756683 0.778931 0.688477
0.848602 0.779083 0.742523
0.386047 0.814056 0.612793
0.385925 0.813782 0.611237
0.385895 0.813843 0.611450
0.697723 0.832977 0.635712
0.854797 0.848999 0.698730
0.060883 0.189178 0.824646
0.060883 0.189178 0.824646
0.120117 0.222565 0.833099
0.750214 0.369659 0.901672
0.842224 0.857635 0.773254
0.060883 0.189178 0.824646
0.060883 0.189178 0.824646
0.063995 0.214233 0.828247
0.750214 0.369659 0.901672
0.842224 0.857635 0.773254
0.060455 0.376312 0.800629
0.060242 0.365662 0.800873
0.062012 0.352417 0.805664
0.757721 0.433136 0.899109
0.842224 0.857635 0.773254
0.317841 0.794861 0.781799
0.313690 0.791229 0.783081
0.305023 0.784943 0.784058
0.727448 0.791809 0.821289
0.842224 0.857635 0.773254
0.357330 0.835907 0.767090
0.357330 0.835907 0.767090
0.357330 0.835907 0.767090
0.665771 0.852509 0.787354
0.842224 0.857635 0.773254
