example/assets/luts/lut4.cube
#LUT size
LUT_3D_SIZE 5
#LUT data points
0.000000 0.004242 0.000000
0.077515 0.027069 0.002777
0.442169 0.060791 0.029388
0.836060 0.141296 0.027618
0.836060 0.141296 0.027618
0.000000 0.004242 0.000000
0.000000 0.004242 0.000000
0.395050 0.057526 0.029266
0.836060 0.141296 0.027618
0.836060 0.141296 0.027618
0.005707 0.318787 0.000000
0.000000 0.304352 0.000000
0.292023 0.304077 0.000000
0.841187 0.281281 0.014862
0.837372 0.226196 0.019714
0.397552 0.787354 0.148560
0.393280 0.781067 0.147034
0.386536 0.773041 0.142029
0.837891 0.756561 0.149200
0.919495 0.741791 0.151978
0.452087 0.854614 0.180634
0.452087 0.854614 0.180634
0.452087 0.854614 0.180634
0.786072 0.862701 0.184113
0.916656 0.862976 0.189453
0.000000 0.004242 0.000000
0.064941 0.025146 0.001251
0.437988 0.060547 0.029388
0.836060 0.141296 0.027618
0.836060 0.141296 0.027618
0.000000 0.004242 0.000000
0.000000 0.004242 0.000000
0.388275 0.057037 0.029205
0.836060 0.141296 0.027618
0.836060 0.141296 0.027618
0.004425 0.316742 0.000000
0.000000 0.304688 0.000000
0.285370 0.301331 0.000000
0.841309 0.279724 0.014984
0.837433 0.226501 0.019684
0.396271 0.785278 0.148041
0.393097 0.781219 0.147095
0.386658 0.773193 0.142090
0.835449 0.756195 0.149048
0.919495 0.741852 0.152008
0.452087 0.854614 0.180634
0.452087 0.854614 0.180634
0.452087 0.854614 0.180634
0.783905 0.862640 0.184052
0.916656 0.862976 0.189453
0.000000 0.037811 0.329590
0.000000 0.046539 0.336456
0.435944 0.132294 0.359497
0.861084 0.269196 0.387482
0.863831 0.289032 0.442963
0.000000 0.045166 0.319580
0.000000 0.034363 0.319733
0.385986 0.119476 0.350098
0.860687 0.265350 0.378601
0.863739 0.286713 0.436584
0.000000 0.380554 0.322021
0.000000 0.366852 0.319000
0.289246 0.363403 0.324738
0.867950 0.362030 0.348328
0.867767 0.336151 0.418793
0.390656 0.809204 0.320465
0.388733 0.806244 0.317535
0.380493 0.796143 0.312531
0.835449 0.779297 0.303558
0.919189 0.775269 0.373901
0.447876 0.874054 0.289551
0.447876 0.873810 0.288605
0.447876 0.873169 0.285095
0.779541 0.880066 0.276550
0.916870 0.894318 0.348328
0.000000 0.209808 0.827393
0.000000 0.210022 0.828003
0.404694 0.285614 0.847626
0.876526 0.427216 0.865845
0.876190 0.443207 0.934052
0.000000 0.210693 0.825439
0.000000 0.208649 0.824982
0.346222 0.272949 0.844330
0.876587 0.425598 0.857483
0.876221 0.441620 0.929718
0.000000 0.493073 0.833405
0.000000 0.479797 0.832153
0.227966 0.472565 0.835785
0.882721 0.504028 0.856049
0.878906 0.477112 0.918854
0.336426 0.910645 0.828583
0.332062 0.903503 0.829437
0.326355 0.893158 0.826996
0.812408 0.872162 0.819183
0.919708 0.865234 0.871643
0.395538 0.999298 0.806519
0.395142 0.998932 0.804108
0.394958 0.999054 0.804779
0.754181 1.000000 0.796844
0.931335 1.000000 0.853973
0.000000 0.260681 0.966675
0.000000 0.260681 0.966675
0.377716 0.323364 0.985352
0.872955 0.463715 0.987457
0.935883 1.000000 0.986389
0.000000 0.261505 0.966644
0.000000 0.260681 0.966675
0.317963 0.312256 0.984528
0.872955 0.463715 0.987457
0.935883 1.000000 0.986389
0.000000 0.522339 0.952332
0.000000 0.508636 0.952637
0.182861 0.496307 0.961639
0.879761 0.537170 0.986694
0.935883 1.000000 0.986389
0.311249 0.934937 0.948730
0.308563 0.931183 0.948761
0.301025 0.917572 0.949036
0.795807 0.899353 0.960297
0.935883 1.000000 0.986389
0.381561 1.000000 0.962189
0.381561 1.000000 0.962189
0.381561 1.000000 0.962189
0.741333 1.000000 0.976410
0.935883 1.000000 0.986389
