example/assets/luts/lut4.cube
#LUT size
LUT_3D_SIZE 17
#LUT data points
0.000000 0.004242 0.000000
0.000000 0.004242 0.000000
0.000000 0.004242 0.000000
0.003632 0.016998 0.000000
0.077515 0.027069 0.002777
0.126831 0.035248 0.010071
0.199432 0.042542 0.020844
0.306488 0.051086 0.027588
0.442169 0.060791 0.029388
0.593292 0.071106 0.027588
0.729889 0.089325 0.027802
0.829987 0.135498 0.027954
0.836060 0.141296 0.027618
0.836060 0.141296 0.027618
0.836060 0.141296 0.027618
0.836060 0.141296 0.027618
0.836060 0.141296 0.027618
0.000000 0.004242 0.000000
0.000000 0.004242 0.000000
0.000000 0.004242 0.000000
0.000000 0.004242 0.000000
0.016022 0.018555 0.000000
0.104340 0.031494 0.006561
0.173157 0.040100 0.017761
0.286102 0.049561 0.026794
0.424500 0.059540 0.029388
0.580048 0.070190 0.027832
0.721069 0.085724 0.027649
0.823578 0.133850 0.027832
0.836060 0.141296 0.027618
0.836060 0.141296 0.027618
0.836060 0.141296 0.027618
0.836060 0.141296 0.027618
0.836060 0.141296 0.027618
0.000000 0.004242 0.000000
0.000000 0.004242 0.000000
0.000000 0.004242 0.000000
0.000000 0.004242 0.000000
0.000000 0.008362 0.000000
0.082367 0.027832 0.003448
0.157288 0.038910 0.015167
0.269104 0.048279 0.026031
0.412323 0.058716 0.029388
0.569946 0.069489 0.028015
0.716766 0.083435 0.027588
0.819427 0.131653 0.027863
0.836060 0.141296 0.027618
0.836060 0.141296 0.027618
0.836060 0.141296 0.027618
0.836060 0.141296 0.027618
0.836060 0.141296 0.027618
0.000000 0.004242 0.000000
0.000000 0.004242 0.000000
0.000000 0.004242 0.000000
0.000000 0.004242 0.000000
0.000000 0.004242 0.000000
0.059937 0.024445 0.000732
0.146240 0.037842 0.013275
0.258362 0.047455 0.025421
0.401184 0.057922 0.029327
0.564392 0.069122 0.028137
0.712860 0.082733 0.027435
0.816681 0.131042 0.027802
0.836060 0.141296 0.027618
0.836060 0.141296 0.027618
0.836060 0.141296 0.027618
0.836060 0.141296 0.027618
0.836060 0.141296 0.027618
0.000000 0.004242 0.000000
0.000000 0.004242 0.000000
0.000000 0.004242 0.000000
0.000000 0.004242 0.000000
0.000000 0.004242 0.000000
0.034027 0.020935 0.000000
0.134827 0.036438 0.011414
0.250305 0.046814 0.024963
0.395050 0.057526 0.029266
0.559601 0.068787 0.028198
0.709808 0.082214 0.027344
0.813843 0.128662 0.027924
0.836060 0.141296 0.027618
0.836060 0.141296 0.027618
0.836060 0.141296 0.027618
0.836060 0.141296 0.027618
0.836060 0.141296 0.027618
0.000000 0.046753 0.000000
0.000000 0.034424 0.000000
0.000000 0.022125 0.000000
0.000000 0.014130 0.000000
0.000000 0.009796 0.000000
0.000000 0.013916 0.000000
0.117798 0.034943 0.008575
0.232758 0.045380 0.023773
0.383942 0.056702 0.029175
0.551483 0.068268 0.028320
0.703400 0.080505 0.027191
0.809540 0.127655 0.027832
0.836060 0.141296 0.027618
0.836060 0.141296 0.027618
0.836060 0.141296 0.027618
0.836060 0.141296 0.027618
0.836060 0.141296 0.027618
0.000000 0.114258 0.000000
0.000000 0.108765 0.000000
0.000000 0.106171 0.000000
0.000000 0.104095 0.000000
0.000000 0.102020 0.000000
0.000000 0.097473 0.000000
0.076233 0.100464 0.000000
0.199158 0.103851 0.002350
0.359955 0.097656 0.018829
0.535309 0.087708 0.025787
0.692841 0.095856 0.025848
0.801849 0.126923 0.027588
0.836060 0.141296 0.027618
0.836060 0.141296 0.027618
0.836060 0.141296 0.027618
0.836060 0.141296 0.027618
0.836060 0.141296 0.027618
0.000000 0.200439 0.000000
0.000000 0.193298 0.000000
0.000000 0.190277 0.000000
0.000000 0.187439 0.000000
0.000000 0.187073 0.000000
0.000000 0.184082 0.000000
0.026581 0.181458 0.000000
0.160156 0.187622 0.000000
0.320618 0.192230 0.001343
0.504120 0.190948 0.009857
0.670929 0.184235 0.016479
0.789948 0.178406 0.022095
0.836792 0.167969 0.025055
0.838043 0.155334 0.026367
0.836243 0.147980 0.026947
0.835785 0.143768 0.027374
0.835907 0.142548 0.027496
0.005707 0.318787 0.000000
0.001862 0.312286 0.000000
0.000671 0.308197 0.000000
0.000702 0.308380 0.000000
0.000000 0.304352 0.000000
0.000000 0.303162 0.000000
0.000397 0.296631 0.000000
0.121185 0.298431 0.000000
0.292023 0.304077 0.000000
0.482574 0.306702 0.000000
0.655670 0.303650 0.004883
0.780182 0.294952 0.010956
0.841187 0.281281 0.014862
0.839508 0.262177 0.016541
0.838409 0.243011 0.018219
0.837769 0.232941 0.019073
0.837372 0.226196 0.019714
0.125946 0.454132 0.000000
0.121490 0.449768 0.000000
0.118317 0.445465 0.000000
0.118500 0.445648 0.000000
0.117126 0.443756 0.000000
0.115692 0.441742 0.000000
0.111084 0.437347 0.000000
0.124268 0.430786 0.000000
0.272583 0.435394 0.000000
0.466370 0.439697 0.000000
0.647797 0.437317 0.009460
0.773102 0.427002 0.024658
0.858704 0.417725 0.037994
0.854736 0.399597 0.028870
0.852081 0.389618 0.025970
0.850372 0.379761 0.024445
0.850189 0.374298 0.023773
0.237701 0.595123 0.054047
0.234589 0.591614 0.052460
0.234863 0.591858 0.052612
0.234192 0.591034 0.052246
0.231659 0.588379 0.051208
0.231140 0.588562 0.051331
0.228058 0.584900 0.049866
0.223755 0.580109 0.045563
0.262604 0.573639 0.042480
0.450745 0.574310 0.051910
0.637573 0.572998 0.062988
0.768829 0.562958 0.072083
0.862488 0.556763 0.086456
0.880737 0.543396 0.087494
0.878357 0.535034 0.085541
0.876587 0.527283 0.079254
0.875946 0.523560 0.078552
0.330139 0.707977 0.112305
0.328125 0.704468 0.110657
0.328186 0.704559 0.109924
0.328125 0.704437 0.109924
0.326660 0.703003 0.109314
0.325043 0.701630 0.107330
0.323486 0.699799 0.106598
0.320648 0.696838 0.105194
0.316345 0.692627 0.103119
0.424866 0.688721 0.105713
0.618469 0.687103 0.109650
0.756378 0.682220 0.116699
0.854279 0.674042 0.121735
0.906494 0.666107 0.126617
0.904999 0.659607 0.124878
0.903717 0.653503 0.122528
0.902252 0.649933 0.119141
0.397552 0.787354 0.148560
0.395538 0.784119 0.147766
0.395203 0.784180 0.147766
0.393188 0.781006 0.146973
0.393280 0.781067 0.147034
0.392548 0.781189 0.147064
0.390625 0.778229 0.146301
0.388550 0.775421 0.142761
0.386536 0.773041 0.142029
0.408752 0.768768 0.141022
0.588013 0.766083 0.143005
0.738068 0.763123 0.145996
0.837891 0.756561 0.149200
0.919159 0.751923 0.157166
0.919281 0.747131 0.155548
0.919464 0.742737 0.154297
0.919495 0.741791 0.151978
0.442657 0.843475 0.172272
0.442139 0.842773 0.172089
0.439850 0.840820 0.171478
0.439880 0.840881 0.171509
0.439789 0.840729 0.171478
0.438629 0.839539 0.171173
0.437744 0.838379 0.170807
0.435883 0.835754 0.170074
0.433685 0.832825 0.167328
0.432587 0.828339 0.165649
0.560852 0.824982 0.166473
0.719391 0.821289 0.168243
0.819885 0.814697 0.169464
0.905823 0.811493 0.176575
0.917755 0.804504 0.173828
0.917816 0.801178 0.173981
0.917847 0.798828 0.173859
0.452087 0.854614 0.180634
0.452087 0.854614 0.180634
0.452087 0.854614 0.180634
0.452087 0.854614 0.180634
0.452087 0.854614 0.180145
0.452087 0.854614 0.180145
0.452087 0.854614 0.180176
0.452087 0.854614 0.180176
0.452087 0.854614 0.179169
0.452087 0.854584 0.178345
0.534576 0.856445 0.180054
0.700287 0.860168 0.179352
0.805664 0.858704 0.180939
0.890259 0.855377 0.183685
0.916931 0.846771 0.182983
0.916962 0.844208 0.182281
0.917023 0.841553 0.181580
0.452087 0.854614 0.180634
0.452087 0.854614 0.180634
0.452087 0.854614 0.180634
0.452087 0.854614 0.180634
0.452087 0.854614 0.180634
0.452087 0.854614 0.180634
0.452087 0.854614 0.180634
0.452087 0.854614 0.180634
0.452087 0.854614 0.180634
0.452087 0.854614 0.180634
0.504150 0.855682 0.181702
0.678345 0.860474 0.182159
0.793671 0.862915 0.184296
0.875702 0.865082 0.186340
0.916656 0.863159 0.183868
0.916656 0.861755 0.184204
0.916656 0.861755 0.184204
0.452087 0.854614 0.180634
0.452087 0.854614 0.180634
0.452087 0.854614 0.180634
0.452087 0.854614 0.180634
0.452087 0.854614 0.180634
0.452087 0.854614 0.180634
0.452087 0.854614 0.180634
0.452087 0.854614 0.180634
0.452087 0.854614 0.180634
0.452087 0.854614 0.180634
0.489868 0.855377 0.181396
0.667297 0.862762 0.184113
0.786072 0.862701 0.184113
0.869049 0.864929 0.186188
0.916626 0.865723 0.185730
0.916656 0.862976 0.189453
0.916656 0.862976 0.189453
0.000000 0.004242 0.000000
0.000000 0.004242 0.000000
0.000000 0.004242 0.000000
0.000000 0.014130 0.000000
0.073761 0.026459 0.002289
0.124725 0.034912 0.009705
0.195007 0.042114 0.020355
0.302948 0.050842 0.027466
0.440521 0.060669 0.029388
0.593292 0.071106 0.027588
0.729889 0.089325 0.027802
0.828735 0.135132 0.027924
0.836060 0.141296 0.027618
0.836060 0.141296 0.027618
0.836060 0.141296 0.027618
0.836060 0.141296 0.027618
0.836060 0.141296 0.027618
0.000000 0.004242 0.000000
0.000000 0.004242 0.000000
0.000000 0.004242 0.000000
0.000000 0.004242 0.000000
0.004913 0.017090 0.000000
0.098694 0.030487 0.005707
0.169403 0.039795 0.017212
0.282104 0.049255 0.026642
0.421417 0.059357 0.029388
0.578125 0.070038 0.027832
0.720978 0.085693 0.027649
0.823578 0.133850 0.027832
0.836060 0.141296 0.027618
0.836060 0.141296 0.027618
0.836060 0.141296 0.027618
0.836060 0.141296 0.027618
0.836060 0.141296 0.027618
0.000000 0.004242 0.000000
0.000000 0.004242 0.000000
0.000000 0.004242 0.000000
0.000000 0.004242 0.000000
0.000000 0.006073 0.000000
0.075989 0.026825 0.002594
0.154419 0.038666 0.014679
0.265259 0.047943 0.025818
0.407745 0.058380 0.029358
0.568054 0.069336 0.028046
0.715607 0.083252 0.027527
0.818085 0.131287 0.027832
0.836060 0.141296 0.027618
0.836060 0.141296 0.027618
0.836060 0.141296 0.027618
0.836060 0.141296 0.027618
0.836060 0.141296 0.027618
0.000000 0.004242 0.000000
0.000000 0.004242 0.000000
0.000000 0.004242 0.000000
0.000000 0.004242 0.000000
0.000000 0.004242 0.000000
0.050690 0.023132 0.000122
0.142426 0.037415 0.012665
0.255920 0.047241 0.025299
0.399231 0.057831 0.029297
0.562836 0.069031 0.028137
0.712402 0.082672 0.027435
0.815308 0.128967 0.027954
0.836060 0.141296 0.027618
0.836060 0.141296 0.027618
0.836060 0.141296 0.027618
0.836060 0.141296 0.027618
0.836060 0.141296 0.027618
0.000000 0.004242 0.000000
0.000000 0.004242 0.000000
0.000000 0.004242 0.000000
0.000000 0.004242 0.000000
0.000000 0.004242 0.000000
0.023285 0.019531 0.000000
0.131622 0.035980 0.010864
0.246277 0.046478 0.024658
0.391541 0.057251 0.029236
0.557831 0.068665 0.028229
0.708313 0.081909 0.027313
0.812653 0.128357 0.027893
0.836060 0.141296 0.027618
0.836060 0.141296 0.027618
0.836060 0.141296 0.027618
0.836060 0.141296 0.027618
0.836060 0.141296 0.027618
0.000000 0.046875 0.000000
0.000000 0.028961 0.000000
0.000000 0.021423 0.000000
0.000000 0.011292 0.000000
0.000000 0.007904 0.000000
0.000000 0.011566 0.000000
0.114166 0.033539 0.008026
0.230682 0.045227 0.023590
0.380341 0.056488 0.029144
0.548737 0.068054 0.028381
0.702637 0.080383 0.027191
0.808258 0.127319 0.027802
0.836060 0.141296 0.027618
0.836060 0.141296 0.027618
0.836060 0.141296 0.027618
0.836060 0.141296 0.027618
0.836060 0.141296 0.027618
0.000000 0.114288 0.000000
0.000000 0.108795 0.000000
0.000000 0.105988 0.000000
0.000000 0.103027 0.000000
0.000000 0.100891 0.000000
0.000000 0.097626 0.000000
0.073639 0.100220 0.000000
0.195923 0.102478 0.002258
0.357239 0.097534 0.018707
0.535614 0.086945 0.025940
0.691071 0.094055 0.025940
0.801849 0.126923 0.027588
0.836060 0.141296 0.027618
0.836060 0.141296 0.027618
0.836060 0.141296 0.027618
0.836060 0.141296 0.027618
0.836060 0.141296 0.027618
0.000000 0.200562 0.000000
0.000000 0.193420 0.000000
0.000000 0.190277 0.000000
0.000000 0.187500 0.000000
0.000000 0.185760 0.000000
0.000000 0.182190 0.000000
0.023132 0.181335 0.000000
0.156799 0.186615 0.000000
0.318207 0.191162 0.001251
0.500336 0.189636 0.009827
0.670746 0.184174 0.016479
0.790009 0.178467 0.022095
0.836792 0.168030 0.025055
0.837891 0.154388 0.026398
0.836243 0.147980 0.026947
0.835785 0.143768 0.027374
0.835907 0.142548 0.027496
0.004211 0.316467 0.000000
0.001923 0.312469 0.000000
0.000671 0.308258 0.000000
0.000580 0.307922 0.000000
0.000000 0.304413 0.000000
0.000000 0.301880 0.000000
0.000000 0.296539 0.000000
0.116364 0.297241 0.000000
0.288940 0.302673 0.000000
0.478363 0.305634 0.000000
0.653412 0.303680 0.004791
0.778412 0.294739 0.010925
0.841217 0.280945 0.014893
0.839355 0.260559 0.016693
0.838318 0.242706 0.018219
0.837799 0.232605 0.019135
0.837372 0.226196 0.019714
0.125946 0.454132 0.000000
0.121490 0.449768 0.000000
0.118439 0.445587 0.000000
0.118591 0.445709 0.000000
0.116669 0.443146 0.000000
0.115692 0.441742 0.000000
0.111084 0.437317 0.000000
0.122681 0.430725 0.000000
0.269592 0.435059 0.000000
0.463318 0.439453 0.000000
0.644684 0.437012 0.009155
0.771881 0.426910 0.024445
0.858704 0.417725 0.038025
0.854675 0.399323 0.028839
0.851746 0.388611 0.025757
0.850372 0.379761 0.024445
0.850189 0.374298 0.023773
0.237823 0.595245 0.054169
0.234741 0.591736 0.052551
0.234894 0.591888 0.052643
0.231842 0.588257 0.051117
0.231750 0.588470 0.051270
0.231140 0.588562 0.051331
0.228180 0.585052 0.049927
0.223602 0.579895 0.045532
0.260315 0.573578 0.042389
0.448669 0.574341 0.051605
0.637238 0.572906 0.062927
0.766510 0.562836 0.070801
0.862274 0.554749 0.086243
0.880737 0.543396 0.087494
0.877899 0.533478 0.085236
0.876587 0.527283 0.079254
0.875946 0.523560 0.078552
0.330200 0.708069 0.112366
0.328186 0.704559 0.110687
0.328217 0.704620 0.109985
0.327362 0.703522 0.109558
0.325562 0.701569 0.108673
0.325104 0.701721 0.107391
0.322540 0.698608 0.106049
0.320648 0.696869 0.105225
0.316437 0.692688 0.103149
0.423340 0.688690 0.105591
0.616241 0.687012 0.109589
0.754730 0.681915 0.116577
0.851654 0.672272 0.120819
0.906372 0.665588 0.126495
0.904999 0.659607 0.124878
0.903717 0.653534 0.122528
0.902252 0.649933 0.119141
0.396179 0.785156 0.147980
0.395569 0.784180 0.147766
0.394928 0.783691 0.147705
0.393219 0.781036 0.147003
0.393280 0.781067 0.147034
0.392578 0.781189 0.147095
0.390625 0.778229 0.146301
0.388580 0.775452 0.142792
0.386536 0.773041 0.142029
0.406769 0.768707 0.140961
0.585510 0.766083 0.142975
0.737701 0.763123 0.145996
0.835999 0.756592 0.149048
0.919159 0.751953 0.157196
0.919281 0.747131 0.155548
0.919464 0.742767 0.154297
0.919495 0.741791 0.151978
0.442657 0.843506 0.172272
0.442169 0.842804 0.172089
0.439880 0.840851 0.171478
0.439941 0.840912 0.171539
0.439484 0.840271 0.171356
0.438629 0.839539 0.171204
0.437561 0.838165 0.170746
0.435883 0.835785 0.170074
0.433685 0.832855 0.167358
0.430969 0.826904 0.165253
0.559296 0.824982 0.166473
0.717590 0.821259 0.168213
0.818970 0.814667 0.169464
0.905670 0.811462 0.176575
0.917755 0.804535 0.173798
0.917816 0.801178 0.173981
0.917847 0.798859 0.173859
0.452087 0.854614 0.180634
0.452087 0.854614 0.180634
0.452087 0.854614 0.180634
0.452087 0.854614 0.180481
0.452087 0.854614 0.180145
0.452087 0.854614 0.180145
0.452087 0.854614 0.180176
0.452087 0.854614 0.180176
0.452087 0.854614 0.179169
0.452087 0.854584 0.178345
0.532227 0.856293 0.180023
0.698242 0.860138 0.179474
0.805695 0.858734 0.180939
0.889832 0.855377 0.183685
0.916931 0.846771 0.182983
0.916962 0.844208 0.182281
0.917023 0.841553 0.181580
0.452087 0.854614 0.180634
0.452087 0.854614 0.180634
0.452087 0.854614 0.180634
0.452087 0.854614 0.180634
0.452087 0.854614 0.180634
0.452087 0.854614 0.180634
0.452087 0.854614 0.180634
0.452087 0.854614 0.180634
0.452087 0.854614 0.180634
0.452087 0.854614 0.180634
0.502380 0.855652 0.181671
0.677673 0.860687 0.182312
0.791901 0.862854 0.184235
0.875702 0.865082 0.186340
0.916626 0.863403 0.183838
0.916656 0.861755 0.184204
0.916656 0.861755 0.184204
0.452087 0.854614 0.180634
0.452087 0.854614 0.180634
0.452087 0.854614 0.180634
0.452087 0.854614 0.180634
0.452087 0.854614 0.180634
0.452087 0.854614 0.180634
0.452087 0.854614 0.180634
0.452087 0.854614 0.180634
0.452087 0.854614 0.180634
0.452087 0.854614 0.180634
0.489014 0.855347 0.181366
0.667053 0.862793 0.184113
0.784241 0.862671 0.184052
0.869141 0.864929 0.186188
0.916626 0.865723 0.185760
0.916656 0.862976 0.189453
0.916656 0.862976 0.189453
0.000000 0.004242 0.000000
0.000000 0.004242 0.000000
0.000000 0.004242 0.000000
0.000000 0.012421 0.000000
0.069397 0.025848 0.001801
0.123047 0.034607 0.009460
0.192261 0.041840 0.020050
0.300781 0.050690 0.027405
0.438690 0.060577 0.029388
0.593292 0.071106 0.027588
0.728302 0.088989 0.027740
0.828735 0.135132 0.027924
0.836060 0.141296 0.027618
0.836060 0.141296 0.027618
0.836060 0.141296 0.027618
0.836060 0.141296 0.027618
0.836060 0.141296 0.027618
0.000000 0.004242 0.000000
0.000000 0.004242 0.000000
0.000000 0.004242 0.000000
0.000000 0.004242 0.000000
0.001038 0.015930 0.000000
0.097351 0.030273 0.005524
0.167328 0.039581 0.016846
0.281708 0.049225 0.026611
0.421234 0.059357 0.029388
0.575836 0.069916 0.027893
0.720795 0.085632 0.027618
0.822327 0.133514 0.027802
0.836060 0.141296 0.027618
0.836060 0.141296 0.027618
0.836060 0.141296 0.027618
0.836060 0.141296 0.027618
0.836060 0.141296 0.027618
0.000000 0.004242 0.000000
0.000000 0.004242 0.000000
0.000000 0.004242 0.000000
0.000000 0.004242 0.000000
0.000000 0.005005 0.000000
0.072906 0.026337 0.002228
0.154449 0.038666 0.014679
0.265137 0.047943 0.025818
0.407776 0.058380 0.029358
0.568207 0.069366 0.028046
0.715393 0.083191 0.027527
0.818054 0.131287 0.027832
0.836060 0.141296 0.027618
0.836060 0.141296 0.027618
0.836060 0.141296 0.027618
0.836060 0.141296 0.027618
0.836060 0.141296 0.027618
0.000000 0.004242 0.000000
0.000000 0.004242 0.000000
0.000000 0.004242 0.000000
0.000000 0.004242 0.000000
0.000000 0.004242 0.000000
0.046021 0.022522 0.000000
0.141449 0.037262 0.012512
0.254578 0.047119 0.025208
0.397247 0.057678 0.029297
0.562500 0.069000 0.028137
0.711212 0.082458 0.027374
0.815094 0.128906 0.027954
0.836060 0.141296 0.027618
0.836060 0.141296 0.027618
0.836060 0.141296 0.027618
0.836060 0.141296 0.027618
0.836060 0.141296 0.027618
0.000000 0.004242 0.000000
0.000000 0.004242 0.000000
0.000000 0.004242 0.000000
0.000000 0.004242 0.000000
0.000000 0.004242 0.000000
0.017151 0.018738 0.000000
0.130066 0.035736 0.010651
0.243164 0.046204 0.024475
0.390961 0.057220 0.029236
0.556396 0.068573 0.028229
0.708130 0.081879 0.027313
0.812408 0.128296 0.027893
0.836060 0.141296 0.027618
0.836060 0.141296 0.027618
0.836060 0.141296 0.027618
0.836060 0.141296 0.027618
0.836060 0.141296 0.027618
0.000000 0.046875 0.000000
0.000000 0.029144 0.000000
0.000000 0.019897 0.000000
0.000000 0.011414 0.000000
0.000000 0.007935 0.000000
0.000000 0.010132 0.000000
0.113647 0.033447 0.007935
0.227844 0.044983 0.023376
0.379974 0.056458 0.029144
0.547485 0.067993 0.028381
0.701904 0.080261 0.027161
0.808289 0.127319 0.027802
0.836060 0.141296 0.027618
0.836060 0.141296 0.027618
0.836060 0.141296 0.027618
0.836060 0.141296 0.027618
0.836060 0.141296 0.027618
0.000000 0.114380 0.000000
0.000000 0.108551 0.000000
0.000000 0.104919 0.000000
0.000000 0.103027 0.000000
0.000000 0.100952 0.000000
0.000000 0.097473 0.000000
0.070984 0.099304 0.000000
0.194458 0.102417 0.002045
0.355988 0.096893 0.018799
0.533752 0.086548 0.026001
0.689667 0.093018 0.026001
0.800812 0.126648 0.027557
0.836060 0.141296 0.027618
0.836060 0.141296 0.027618
0.836060 0.141296 0.027618
0.836060 0.141296 0.027618
0.836060 0.141296 0.027618
0.000000 0.200562 0.000000
0.000000 0.193512 0.000000
0.000000 0.190369 0.000000
0.000000 0.187561 0.000000
0.000000 0.185577 0.000000
0.000000 0.182281 0.000000
0.020386 0.181122 0.000000
0.156128 0.186615 0.000000
0.316193 0.191010 0.001160
0.499420 0.189545 0.009827
0.669556 0.183960 0.016449
0.789886 0.178436 0.022095
0.836792 0.168030 0.025055
0.837921 0.154449 0.026398
0.836243 0.148010 0.026947
0.835785 0.143799 0.027344
0.835907 0.142578 0.027496
0.004242 0.316559 0.000000
0.001923 0.312469 0.000000
0.000702 0.308380 0.000000
0.000610 0.308044 0.000000
0.000000 0.304535 0.000000
0.000000 0.300385 0.000000
0.000000 0.296600 0.000000
0.115326 0.297150 0.000000
0.287079 0.302429 0.000000
0.478485 0.305725 0.000000
0.652679 0.303619 0.004761
0.777527 0.294739 0.010864
0.841217 0.280945 0.014893
0.839355 0.260681 0.016663
0.838257 0.242493 0.018250
0.837769 0.232727 0.019104
0.837372 0.226349 0.019684
0.126068 0.454254 0.000000
0.121582 0.449890 0.000000
0.118439 0.445587 0.000000
0.118652 0.445892 0.000000
0.116760 0.443207 0.000000
0.115784 0.441864 0.000000
0.110626 0.436737 0.000000
0.121613 0.430817 0.000000
0.267456 0.434662 0.000000
0.462494 0.439362 0.000000
0.644226 0.437073 0.009186
0.771912 0.426910 0.024445
0.858734 0.417877 0.038147
0.854675 0.399323 0.028839
0.851776 0.388763 0.025787
0.850403 0.379883 0.024475
0.850189 0.374451 0.023804
0.237976 0.595398 0.054260
0.234802 0.591797 0.052582
0.235016 0.592010 0.052704
0.231964 0.588379 0.051239
0.231049 0.588440 0.051239
0.230774 0.588165 0.051117
0.228180 0.585052 0.049927
0.222992 0.579193 0.045227
0.259277 0.573669 0.042450
0.446747 0.574280 0.051270
0.637085 0.572968 0.062958
0.766541 0.562836 0.070831
0.862061 0.554749 0.086182
0.880768 0.543518 0.087494
0.877899 0.533478 0.085236
0.876587 0.527313 0.079254
0.875977 0.523712 0.078552
0.330261 0.708160 0.112396
0.328186 0.704559 0.110687
0.328247 0.704681 0.110016
0.327423 0.703644 0.109619
0.325012 0.701630 0.108704
0.325104 0.701752 0.107391
0.322632 0.698669 0.106110
0.319519 0.695862 0.104736
0.316223 0.692719 0.103149
0.421112 0.688660 0.105438
0.615417 0.687012 0.109589
0.754120 0.680908 0.116302
0.851715 0.672363 0.120850
0.906372 0.665588 0.126495
0.904999 0.659729 0.124908
0.903717 0.653534 0.122528
0.902252 0.649994 0.119141
0.396210 0.785217 0.148010
0.395599 0.784210 0.147797
0.394928 0.783722 0.147705
0.393219 0.781036 0.147034
0.393372 0.781189 0.147064
0.392578 0.781219 0.147095
0.390656 0.778259 0.146332
0.388580 0.775482 0.142792
0.386597 0.773102 0.142059
0.406097 0.768707 0.140961
0.585114 0.766083 0.142975
0.737762 0.763153 0.146027
0.835327 0.756104 0.149017
0.919159 0.751984 0.157196
0.919281 0.747223 0.155579
0.919464 0.742767 0.154297
0.919495 0.741791 0.151978
0.442688 0.843536 0.172272
0.442169 0.842834 0.172119
0.439880 0.840881 0.171509
0.439941 0.840912 0.171539
0.439484 0.840271 0.171356
0.438660 0.839569 0.171204
0.437561 0.838165 0.170746
0.435944 0.835815 0.170074
0.433716 0.832886 0.167358
0.431000 0.826965 0.165253
0.558563 0.824982 0.166443
0.717438 0.821289 0.168213
0.817963 0.814667 0.169464
0.905701 0.811432 0.176544
0.917755 0.804565 0.173798
0.917816 0.801208 0.173981
0.917847 0.798706 0.173828
0.452087 0.854614 0.180634
0.452087 0.854614 0.180634
0.452087 0.854614 0.180634
0.452087 0.854614 0.180481
0.452087 0.854614 0.180145
0.452087 0.854614 0.180145
0.452087 0.854614 0.180176
0.452087 0.854614 0.180176
0.452087 0.854614 0.179169
0.452087 0.854584 0.178345
0.531189 0.856262 0.179993
0.698029 0.860107 0.179474
0.803986 0.858704 0.180908
0.889862 0.855377 0.183685
0.916931 0.846832 0.182983
0.916962 0.844208 0.182281
0.917023 0.841583 0.181580
0.452087 0.854614 0.180634
0.452087 0.854614 0.180634
0.452087 0.854614 0.180634
0.452087 0.854614 0.180634
0.452087 0.854614 0.180634
0.452087 0.854614 0.180634
0.452087 0.854614 0.180634
0.452087 0.854614 0.180634
0.452087 0.854614 0.180634
0.452087 0.854614 0.180634
0.502014 0.855652 0.181671
0.675934 0.860931 0.182556
0.791656 0.862854 0.184235
0.873993 0.865021 0.186279
0.916626 0.863892 0.183746
0.916656 0.861755 0.184204
0.916656 0.861755 0.184204
0.452087 0.854614 0.180634
0.452087 0.854614 0.180634
0.452087 0.854614 0.180634
0.452087 0.854614 0.180634
0.452087 0.854614 0.180634
0.452087 0.854614 0.180634
0.452087 0.854614 0.180634
0.452087 0.854614 0.180634
0.452087 0.854614 0.180634
0.452087 0.854614 0.180634
0.488739 0.855347 0.181366
0.664856 0.863190 0.184509
0.784302 0.862671 0.184052
0.869141 0.864929 0.186188
0.916626 0.865723 0.185760
0.916656 0.862976 0.189453
0.916656 0.862976 0.189453
0.000000 0.004242 0.000000
0.000000 0.004242 0.000000
0.000000 0.004242 0.000000
0.000000 0.012024 0.000000
0.064911 0.025146 0.001251
0.122650 0.034576 0.009369
0.191071 0.041779 0.019928
0.300781 0.050690 0.027405
0.438538 0.060577 0.029388
0.591125 0.070953 0.027618
0.726868 0.088684 0.027740
0.828735 0.135132 0.027924
0.836060 0.141296 0.027618
0.836060 0.141296 0.027618
0.836060 0.141296 0.027618
0.836060 0.141296 0.027618
0.836060 0.141296 0.027618
0.000000 0.004242 0.000000
0.000000 0.004242 0.000000
0.000000 0.004242 0.000000
