example/assets/luts/lut4.cube
#LUT size
LUT_3D_SIZE 9
#LUT data points
0.000000 0.004242 0.000000
0.000000 0.004242 0.000000
0.077515 0.027069 0.002777
0.199432 0.042542 0.020844
0.442169 0.060791 0.029388
0.729889 0.089325 0.027802
0.836060 0.141296 0.027618
0.836060 0.141296 0.027618
0.836060 0.141296 0.027618
0.000000 0.004242 0.000000
0.000000 0.004242 0.000000
0.000000 0.008362 0.000000
0.157288 0.038910 0.015167
0.412323 0.058716 0.029388
0.716766 0.083435 0.027588
0.836060 0.141296 0.027618
0.836060 0.141296 0.027618
0.836060 0.141296 0.027618
0.000000 0.004242 0.000000
0.000000 0.004242 0.000000
0.000000 0.004242 0.000000
0.134827 0.036438 0.011414
0.395050 0.057526 0.029266
0.709808 0.082214 0.027344
0.836060 0.141296 0.027618
0.836060 0.141296 0.027618
0.836060 0.141296 0.027618
0.000000 0.114258 0.000000
0.000000 0.106171 0.000000
0.000000 0.102020 0.000000
0.076233 0.100464 0.000000
0.359955 0.097656 0.018829
0.692841 0.095856 0.025848
0.836060 0.141296 0.027618
0.836060 0.141296 0.027618
0.836060 0.141296 0.027618
0.005707 0.318787 0.000000
0.000671 0.308197 0.000000
0.000000 0.304352 0.000000
0.000397 0.296631 0.000000
0.292023 0.304077 0.000000
0.655670 0.303650 0.004883
0.841187 0.281281 0.014862
0.838409 0.243011 0.018219
0.837372 0.226196 0.019714
0.237701 0.595123 0.054047
0.234863 0.591858 0.052612
0.231659 0.588379 0.051208
0.228058 0.584900 0.049866
0.262604 0.573639 0.042480
0.637573 0.572998 0.062988
0.862488 0.556763 0.086456
0.878357 0.535034 0.085541
0.875946 0.523560 0.078552
0.397552 0.787354 0.148560
0.395203 0.784180 0.147766
0.393280 0.781067 0.147034
0.390625 0.778229 0.146301
0.386536 0.773041 0.142029
0.588013 0.766083 0.143005
0.837891 0.756561 0.149200
0.919281 0.747131 0.155548
0.919495 0.741791 0.151978
0.452087 0.854614 0.180634
0.452087 0.854614 0.180634
0.452087 0.854614 0.180145
0.452087 0.854614 0.180176
0.452087 0.854614 0.179169
0.534576 0.856445 0.180054
0.805664 0.858704 0.180939
0.916931 0.846771 0.182983
0.917023 0.841553 0.181580
0.452087 0.854614 0.180634
0.452087 0.854614 0.180634
0.452087 0.854614 0.180634
0.452087 0.854614 0.180634
0.452087 0.854614 0.180634
0.489868 0.855377 0.181396
0.786072 0.862701 0.184113
0.916626 0.865723 0.185730
0.916656 0.862976 0.189453
0.000000 0.004242 0.000000
0.000000 0.004242 0.000000
0.069397 0.025848 0.001801
0.192261 0.041840 0.020050
0.438690 0.060577 0.029388
0.728302 0.088989 0.027740
0.836060 0.141296 0.027618
0.836060 0.141296 0.027618
0.836060 0.141296 0.027618
0.000000 0.004242 0.000000
0.000000 0.004242 0.000000
0.000000 0.005005 0.000000
0.154449 0.038666 0.014679
0.407776 0.058380 0.029358
0.715393 0.083191 0.027527
0.836060 0.141296 0.027618
0.836060 0.141296 0.027618
0.836060 0.141296 0.027618
0.000000 0.004242 0.000000
0.000000 0.004242 0.000000
0.000000 0.004242 0.000000
0.130066 0.035736 0.010651
0.390961 0.057220 0.029236
0.708130 0.081879 0.027313
0.836060 0.141296 0.027618
0.836060 0.141296 0.027618
0.836060 0.141296 0.027618
0.000000 0.114380 0.000000
0.000000 0.104919 0.000000
0.000000 0.100952 0.000000
0.070984 0.099304 0.000000
0.355988 0.096893 0.018799
0.689667 0.093018 0.026001
0.836060 0.141296 0.027618
0.836060 0.141296 0.027618
0.836060 0.141296 0.027618
0.004242 0.316559 0.000000
0.000702 0.308380 0.000000
0.000000 0.304535 0.000000
0.000000 0.296600 0.000000
0.287079 0.302429 0.000000
0.652679 0.303619 0.004761
0.841217 0.280945 0.014893
0.838257 0.242493 0.018250
0.837372 0.226349 0.019684
0.237976 0.595398 0.054260
0.235016 0.592010 0.052704
0.231049 0.588440 0.051239
0.228180 0.585052 0.049927
0.259277 0.573669 0.042450
0.637085 0.572968 0.062958
0.862061 0.554749 0.086182
0.877899 0.533478 0.085236
0.875977 0.523712 0.078552
0.396210 0.785217 0.148010
0.394928 0.783722 0.147705
0.393372 0.781189 0.147064
0.390656 0.778259 0.146332
0.386597 0.773102 0.142059
0.585114 0.766083 0.142975
0.835327 0.756104 0.149017
0.919281 0.747223 0.155579
0.919495 0.741791 0.151978
0.452087 0.854614 0.180634
0.452087 0.854614 0.180634
0.452087 0.854614 0.180145
0.452087 0.854614 0.180176
0.452087 0.854614 0.179169
0.531189 0.856262 0.179993
0.803986 0.858704 0.180908
0.916931 0.846832 0.182983
0.917023 0.841583 0.181580
0.452087 0.854614 0.180634
0.452087 0.854614 0.180634
0.452087 0.854614 0.180634
0.452087 0.854614 0.180634
0.452087 0.854614 0.180634
0.488739 0.855347 0.181366
0.784302 0.862671 0.184052
0.916626 0.865723 0.185760
0.916656 0.862976 0.189453
0.000000 0.004242 0.000000
0.000000 0.004242 0.000000
0.064941 0.025146 0.001251
0.191162 0.041779 0.019928
0.437988 0.060547 0.029388
0.726868 0.088684 0.027740
0.836060 0.141296 0.027618
0.836060 0.141296 0.027618
0.836060 0.141296 0.027618
0.000000 0.004242 0.000000
0.000000 0.004242 0.000000
0.000000 0.004333 0.000000
0.151520 0.038361 0.014221
0.403961 0.058136 0.029327
0.714081 0.082977 0.027466
0.836060 0.141296 0.027618
0.836060 0.141296 0.027618
0.836060 0.141296 0.027618
0.000000 0.004242 0.000000
0.000000 0.004242 0.000000
0.000000 0.004242 0.000000
0.127441 0.035370 0.010193
0.388275 0.057037 0.029205
0.706787 0.081604 0.027252
0.836060 0.141296 0.027618
0.836060 0.141296 0.027618
0.836060 0.141296 0.027618
0.000000 0.114380 0.000000
0.000000 0.104980 0.000000
0.000000 0.100830 0.000000
0.067200 0.098755 0.000000
0.353394 0.096588 0.018768
0.689941 0.092224 0.026093
0.836060 0.141296 0.027618
0.836060 0.141296 0.027618
0.836060 0.141296 0.027618
0.004425 0.316742 0.000000
0.000763 0.308563 0.000000
0.000000 0.304688 0.000000
0.000000 0.296600 0.000000
0.285370 0.301331 0.000000
0.651642 0.303650 0.004730
0.841309 0.279724 0.014984
0.838287 0.242584 0.018219
0.837433 0.226501 0.019684
0.238098 0.595551 0.054352
0.235107 0.592133 0.052795
0.231201 0.588623 0.051331
0.228302 0.585205 0.050018
0.257599 0.573761 0.042450
0.634216 0.572266 0.062592
0.861084 0.553925 0.085693
0.877930 0.533325 0.082642
0.876007 0.523865 0.078583
0.396271 0.785278 0.148041
0.395020 0.783844 0.147736
0.393097 0.781219 0.147095
0.390717 0.778320 0.145569
0.386658 0.773193 0.142090
0.583252 0.766083 0.142944
0.835449 0.756195 0.149048
0.919281 0.747253 0.155579
0.919495 0.741852 0.152008
0.452087 0.854614 0.180634
0.452087 0.854614 0.180634
0.452087 0.854614 0.180145
0.452087 0.854614 0.180176
0.452087 0.854614 0.179169
0.529816 0.856201 0.179993
0.803589 0.858734 0.180908
0.916931 0.846832 0.182983
0.917023 0.841614 0.181580
0.452087 0.854614 0.180634
0.452087 0.854614 0.180634
0.452087 0.854614 0.180634
0.452087 0.854614 0.180634
0.452087 0.854614 0.180634
0.487976 0.855347 0.181366
0.783905 0.862640 0.184052
0.916626 0.865723 0.185760
0.916656 0.862976 0.189453
0.000000 0.001465 0.134766
0.000000 0.001526 0.131622
0.052856 0.019135 0.138306
0.186859 0.039276 0.140961
0.442749 0.062775 0.149200
0.733002 0.141113 0.151367
0.845459 0.188385 0.160736
0.845459 0.188934 0.163086
0.847656 0.200378 0.199554
0.000000 0.001709 0.125793
0.000000 0.001740 0.123840
0.000000 0.002136 0.121399
0.136993 0.034424 0.127686
0.410065 0.057556 0.137421
0.716888 0.130432 0.139954
0.843933 0.184265 0.149872
0.844238 0.184906 0.151306
0.846710 0.198059 0.190033
0.000000 0.001923 0.117920
0.000000 0.001862 0.120270
0.000000 0.001923 0.118195
0.110168 0.030609 0.119598
0.392792 0.056305 0.131195
0.709106 0.125244 0.133972
0.842896 0.181519 0.143188
0.842896 0.181946 0.144440
0.846252 0.196533 0.185455
0.000000 0.127045 0.080841
0.000000 0.114838 0.078430
0.000000 0.109100 0.076782
0.041046 0.109985 0.086121
0.348846 0.119354 0.107391
0.690918 0.131744 0.120819
0.842896 0.177216 0.130768
0.842896 0.178192 0.133636
0.845459 0.192169 0.174774
0.002045 0.329926 0.077118
0.000000 0.322571 0.074249
0.000000 0.318451 0.071075
0.000000 0.310120 0.067963
0.284302 0.315155 0.073608
0.656006 0.314056 0.091400
0.845703 0.293732 0.104431
0.842896 0.260284 0.101349
0.846405 0.255737 0.148407
0.238464 0.601166 0.099487
0.235443 0.597015 0.095490
0.231659 0.593353 0.093842
0.228394 0.589417 0.091888
0.254120 0.576874 0.083282
0.633362 0.575714 0.092438
0.861084 0.556915 0.106415
0.880646 0.537201 0.103760
0.879059 0.531403 0.129150
0.396362 0.785400 0.149200
0.394012 0.782227 0.147705
0.392944 0.781342 0.147491
0.390778 0.778412 0.146729
0.386688 0.773224 0.142822
0.580780 0.766083 0.142914
0.833313 0.755768 0.148895
0.919281 0.747314 0.155640
0.919495 0.742188 0.156982
0.452087 0.854614 0.180634
0.452087 0.854614 0.180634
0.452087 0.854614 0.180176
0.452087 0.854614 0.180176
0.452087 0.854614 0.179169
0.527557 0.856171 0.179932
0.802765 0.857880 0.180664
0.916931 0.846863 0.182983
0.917023 0.841644 0.181610
0.452087 0.854614 0.180634
0.452087 0.854614 0.180634
0.452087 0.854614 0.180634
0.452087 0.854614 0.180634
0.452087 0.854614 0.180634
0.485504 0.855286 0.181335
0.781830 0.862549 0.183960
0.916626 0.865936 0.185608
0.916656 0.862976 0.189453
0.000000 0.037811 0.329590
0.000000 0.037506 0.328369
0.000000 0.046539 0.336456
0.173889 0.075806 0.351105
0.435944 0.132294 0.359497
0.738098 0.219910 0.371216
0.861084 0.269196 0.387482
0.860840 0.272400 0.396637
0.863831 0.289032 0.442963
0.000000 0.036285 0.324371
0.000000 0.035553 0.322632
0.000000 0.036743 0.322845
0.119354 0.064697 0.342194
0.403656 0.124268 0.354156
0.722198 0.211884 0.365448
0.860870 0.266510 0.381104
0.861084 0.269775 0.389221
0.863647 0.287689 0.439301
0.000000 0.045166 0.319580
0.000000 0.034210 0.319397
0.000000 0.034363 0.319733
0.081818 0.059357 0.335785
0.385986 0.119476 0.350098
0.714996 0.207825 0.361084
0.860687 0.265350 0.378601
0.861115 0.268524 0.385742
0.863739 0.286713 0.436584
0.000000 0.160095 0.304382
0.000000 0.149933 0.303436
0.000000 0.142914 0.303894
0.000214 0.141998 0.310608
0.348358 0.164154 0.335846
0.698914 0.211121 0.352478
0.860260 0.263062 0.373871
0.860931 0.266388 0.380737
0.863922 0.284607 0.430634
0.000000 0.380554 0.322021
0.000000 0.371246 0.320160
0.000000 0.366852 0.319000
0.000000 0.357239 0.317871
0.289246 0.363403 0.324738
0.671143 0.370697 0.340118
0.867950 0.362030 0.348328
0.864349 0.333801 0.360077
0.867767 0.336151 0.418793
0.234070 0.647095 0.333069
0.227905 0.640381 0.331543
0.227386 0.639801 0.331940
0.223236 0.633759 0.328888
0.245728 0.624634 0.324188
0.642212 0.626678 0.333069
0.877319 0.612946 0.344971
0.903290 0.592285 0.349030
0.905273 0.598419 0.406586
0.390656 0.809204 0.320465
0.388641 0.806366 0.318604
0.388733 0.806244 0.317535
0.386749 0.803589 0.316528
0.380493 0.796143 0.312531
0.576813 0.789642 0.309326
0.835449 0.779297 0.303558
0.919067 0.771454 0.323669
0.919189 0.775269 0.373901
0.447937 0.877258 0.302063
0.447906 0.876984 0.300049
0.447906 0.877045 0.300415
0.447906 0.877014 0.300171
0.447906 0.876373 0.297058
0.519531 0.876373 0.292664
0.801056 0.874817 0.286011
0.917023 0.868530 0.304108
0.917175 0.875336 0.357788
0.447876 0.874054 0.289551
0.447876 0.873749 0.288239
0.447876 0.873810 0.288605
0.447876 0.873688 0.287720
0.447876 0.873169 0.285095
0.478516 0.873199 0.280090
0.779541 0.880066 0.276550
0.916718 0.881226 0.284363
0.916870 0.894318 0.348328
0.000000 0.121704 0.599030
0.000000 0.121826 0.599304
0.000000 0.121979 0.597656
0.124084 0.152710 0.612366
0.427551 0.212311 0.624573
0.740875 0.305664 0.636475
0.875214 0.357452 0.653168
0.875519 0.360413 0.661102
0.874603 0.378052 0.714020
0.000000 0.120453 0.595581
0.000000 0.120422 0.595551
0.000000 0.119904 0.593842
0.034912 0.140320 0.604797
0.391113 0.202545 0.619354
0.725311 0.298767 0.633575
0.875000 0.356689 0.649994
0.875519 0.358917 0.657288
0.874664 0.376617 0.710876
0.000000 0.122559 0.591827
0.000000 0.119324 0.592468
0.000000 0.119507 0.592865
0.000000 0.134857 0.603912
0.372681 0.198212 0.618073
0.717224 0.294495 0.630432
0.875092 0.356873 0.650726
0.875519 0.358826 0.656830
0.874725 0.375458 0.707489
0.000000 0.219055 0.586273
0.000000 0.209167 0.584320
0.000000 0.202637 0.584930
0.000000 0.196289 0.586273
0.339050 0.230988 0.611847
0.699829 0.294861 0.625305
0.874878 0.356110 0.647491
0.875427 0.357971 0.653351
0.874786 0.374573 0.705109
0.000000 0.443695 0.608643
0.000000 0.434387 0.605133
0.000000 0.430237 0.604553
0.000000 0.421112 0.601044
0.270386 0.425323 0.610596
0.676636 0.441010 0.622681
0.884155 0.445709 0.641479
0.880920 0.418152 0.646393
0.881195 0.420258 0.699097
0.214233 0.702911 0.621277
0.211700 0.700226 0.621552
0.208984 0.697296 0.620544
0.206116 0.694733 0.620850
0.217102 0.686127 0.619141
0.636749 0.689850 0.628387
0.881378 0.678009 0.621948
0.917725 0.665497 0.641968
0.916595 0.666260 0.696533
0.367950 0.861298 0.604004
0.366150 0.858093 0.602264
0.365692 0.857574 0.602661
0.363953 0.854797 0.602051
0.358948 0.847778 0.600616
0.554626 0.841034 0.599762
0.831207 0.830261 0.592041
0.919159 0.822571 0.601044
0.919312 0.829468 0.670654
0.426086 0.940247 0.583923
0.426025 0.940399 0.584320
0.426025 0.940369 0.584259
0.425964 0.940460 0.584442
0.426208 0.939423 0.581573
0.490082 0.942535 0.578705
0.794067 0.940491 0.573059
0.917633 0.933716 0.592316
0.917786 0.941803 0.648743
0.428162 0.937378 0.575806
0.428009 0.937500 0.576141
0.427887 0.937714 0.576691
0.427765 0.937866 0.577179
0.428589 0.936798 0.573578
0.450134 0.940765 0.570160
0.770721 0.944977 0.567474
0.917419 0.949951 0.583527
0.917480 0.966675 0.640839
0.000000 0.209808 0.827393
0.000000 0.209900 0.827637
0.000000 0.210022 0.828003
0.027100 0.230835 0.841461
0.404694 0.285614 0.847626
0.732788 0.376343 0.858856
0.876526 0.427216 0.865845
0.876404 0.430054 0.878723
0.876190 0.443207 0.934052
0.000000 0.208954 0.825867
0.000000 0.209045 0.826111
0.000000 0.209015 0.825989
0.000000 0.217926 0.833191
0.366425 0.276917 0.843750
0.717957 0.369781 0.855042
0.876556 0.426758 0.863342
0.876495 0.428253 0.869202
0.876251 0.441406 0.929047
0.000000 0.210693 0.825439
0.000000 0.208527 0.824677
0.000000 0.208649 0.824982
0.000000 0.213989 0.829285
0.346222 0.272949 0.844330
0.709778 0.366669 0.854950
0.876587 0.425598 0.857483
0.876495 0.428375 0.869904
0.876221 0.441620 0.929718
0.000000 0.287689 0.823029
0.000000 0.278564 0.820953
0.000000 0.272583 0.819336
0.000000 0.263794 0.818268
0.309326 0.295746 0.835632
0.692352 0.365326 0.850189
0.876617 0.425140 0.854980
0.876556 0.426605 0.860748
0.876282 0.439972 0.924927
0.000000 0.493073 0.833405
0.000000 0.483429 0.831787
0.000000 0.479797 0.832153
0.000000 0.472900 0.832031
0.227966 0.472565 0.835785
0.662354 0.494049 0.845032
0.882721 0.504028 0.856049
0.882172 0.478058 0.853790
0.878906 0.477112 0.918854
0.185791 0.742249 0.853241
0.183075 0.738892 0.851746
0.179932 0.736115 0.851166
0.176697 0.732758 0.851501
0.176758 0.723328 0.850281
0.608185 0.724823 0.854980
0.865540 0.718231 0.865479
0.909515 0.705902 0.863586
0.906982 0.702698 0.919769
0.336426 0.910645 0.828583
0.334259 0.907013 0.829010
0.332062 0.903503 0.829437
0.330261 0.900116 0.829712
0.326355 0.893158 0.826996
0.511749 0.882507 0.828186
0.812408 0.872162 0.819183
0.919556 0.865448 0.834137
0.919708 0.865234 0.871643
0.394684 1.000000 0.811493
0.394470 1.000000 0.811737
0.394409 1.000000 0.812073
0.394379 1.000000 0.812408
0.394165 0.999817 0.808990
0.444336 1.000000 0.808960
0.775391 0.999176 0.801941
0.917969 0.992340 0.813385
0.918091 0.993927 0.841339
0.395538 0.999298 0.806519
0.395233 0.998871 0.803802
0.395142 0.998932 0.804108
0.395081 0.999023 0.804352
0.394958 0.999054 0.804779
0.408264 0.998138 0.801147
0.754181 1.000000 0.796844
0.916809 1.000000 0.815369
0.931335 1.000000 0.853973
0.000000 0.260681 0.966675
0.000000 0.260681 0.966675
0.000000 0.260681 0.966675
0.000000 0.273529 0.979004
0.388123 0.325195 0.985474
0.725800 0.411194 0.987701
0.872955 0.463715 0.987457
0.872955 0.463715 0.987457
0.872955 0.463715 0.987457
0.000000 0.260681 0.966675
0.000000 0.260681 0.966675
0.000000 0.260681 0.966675
0.000000 0.264465 0.969696
0.348938 0.318726 0.984802
0.710022 0.404541 0.987823
0.872955 0.463715 0.987457
0.872955 0.463715 0.987457
0.872955 0.463715 0.987457
0.000000 0.261688 0.966583
0.000000 0.260681 0.966675
0.000000 0.260681 0.966675
0.000000 0.263123 0.966797
0.328735 0.313690 0.984650
0.700439 0.401672 0.987854
0.872955 0.463715 0.987457
0.872955 0.463715 0.987457
0.872955 0.463715 0.987457
0.000000 0.330017 0.961243
0.000000 0.320160 0.962097
0.000000 0.315552 0.962555
0.000000 0.307739 0.963226
0.290649 0.335876 0.980530
0.681152 0.399109 0.987854
0.872955 0.463715 0.987457
0.872955 0.463715 0.987457
0.872955 0.463715 0.987457
0.000000 0.522156 0.952148
0.000000 0.514008 0.952332
0.000000 0.509827 0.952484
0.000000 0.501099 0.952637
0.196777 0.498138 0.961761
0.647125 0.519196 0.977875
0.880646 0.537964 0.986694
0.878357 0.511993 0.986908
0.878632 0.501495 0.987000
0.167236 0.759247 0.950653
0.159943 0.752502 0.950653
0.159821 0.752319 0.950653
0.154144 0.746857 0.950623
0.150513 0.739868 0.950714
0.582092 0.739410 0.962982
0.850983 0.738800 0.973846
0.902313 0.725189 0.976837
0.900635 0.718842 0.977356
0.310059 0.934418 0.948730
0.308228 0.931549 0.948761
0.308014 0.930939 0.948761
0.306396 0.927277 0.948822
0.301239 0.917969 0.949036
0.479828 0.907776 0.952240
0.799774 0.898712 0.960449
0.919556 0.892334 0.964264
0.919647 0.886261 0.964539
0.382050 1.000000 0.962250
0.382141 1.000000 0.962250
0.382080 1.000000 0.962250
0.382050 1.000000 0.962250
0.381653 1.000000 0.962189
0.422333 1.000000 0.963593
0.770142 1.000000 0.978088
0.930481 1.000000 0.981354
0.930298 1.000000 0.978271
0.383026 1.000000 0.962250
0.382996 1.000000 0.962250
0.382965 1.000000 0.962250
0.382904 1.000000 0.962250
0.383728 1.000000 0.962311
0.392273 1.000000 0.962616
0.745911 1.000000 0.976685
0.910828 1.000000 0.985382
0.935883 1.000000 0.986389
0.000000 0.260681 0.966675
0.000000 0.260681 0.966675
0.000000 0.260681 0.966675
0.000000 0.272064 0.976196
0.377716 0.323364 0.985352
0.722107 0.410095 0.987701
0.872955 0.463715 0.987457
0.893982 0.855835 0.966217
0.935883 1.000000 0.986389
0.000000 0.260681 0.966675
0.000000 0.260681 0.966675
0.000000 0.260681 0.966675
0.000000 0.263672 0.967957
0.339203 0.316620 0.984711
0.704803 0.402924 0.987823
0.872955 0.463715 0.987457
0.893829 0.862823 0.965820
0.935883 1.000000 0.986389
0.000000 0.261505 0.966644
0.000000 0.260681 0.966675
0.000000 0.260681 0.966675
0.000000 0.263031 0.966583
0.317963 0.312256 0.984528
0.695770 0.400299 0.987854
0.872955 0.463715 0.987457
0.894440 0.873199 0.965271
0.935883 1.000000 0.986389
0.000000 0.327820 0.961395
0.000000 0.318573 0.962250
0.000000 0.313995 0.962646
0.000000 0.306610 0.963379
0.278625 0.332672 0.980530
0.676849 0.397644 0.987854
0.872955 0.463715 0.987457
0.894867 0.887177 0.964630
0.935883 1.000000 0.986389
0.000000 0.522339 0.952332
0.000000 0.513702 0.952484
0.000000 0.508636 0.952637
0.000000 0.500336 0.952637
0.182861 0.496307 0.961639
0.641418 0.517883 0.977661
0.879761 0.537170 0.986694
0.902039 0.916443 0.971558
0.935883 1.000000 0.986389
0.165497 0.755890 0.950653
0.161987 0.752655 0.950653
0.158966 0.749695 0.950653
0.156158 0.746948 0.950653
0.149475 0.738678 0.950714
0.575226 0.738861 0.962799
0.847717 0.738525 0.973755
0.910553 0.973907 0.973511
0.935883 1.000000 0.986389
0.311249 0.934937 0.948730
0.309082 0.931030 0.948761
0.308563 0.931183 0.948761
0.306519 0.927399 0.948822
0.301025 0.917572 0.949036
0.471405 0.910675 0.951965
0.795807 0.899353 0.960297
0.919342 1.000000 0.983246
0.935883 1.000000 0.986389
0.381561 1.000000 0.962189
0.381561 1.000000 0.962189
0.381561 1.000000 0.962189
0.381134 1.000000 0.962189
0.381165 1.000000 0.962189
0.414459 1.000000 0.963318
0.766541 1.000000 0.977875
0.913605 1.000000 0.985474
0.935883 1.000000 0.986389
0.381561 1.000000 0.962189
0.381561 1.000000 0.962189
0.381561 1.000000 0.962189
0.381561 1.000000 0.962189
0.381561 1.000000 0.962189
0.387970 1.000000 0.962402
0.741333 1.000000 0.976410
0.910553 1.000000 0.985382
0.935883 1.000000 0.986389
