example/assets/luts/lut5.cube
#LUT size
LUT_3D_SIZE 17
#LUT data points
0.000000 0.020416 0.035583
0.000000 0.020416 0.035583
0.000000 0.020416 0.035583
0.000000 0.020844 0.035950
0.004120 0.030670 0.044067
0.069916 0.037659 0.049622
0.130310 0.046875 0.055786
0.243500 0.056671 0.065735
0.401489 0.065796 0.070923
0.568787 0.131195 0.067841
0.720306 0.210785 0.079468
0.796295 0.261841 0.102600
0.796295 0.261841 0.102600
0.796295 0.261841 0.102600
0.796295 0.261841 0.102600
0.796295 0.261841 0.102600
0.796295 0.261841 0.102600
0.000000 0.020416 0.035583
0.000000 0.020416 0.035583
0.000000 0.020416 0.035583
0.000000 0.020844 0.035950
0.004120 0.030670 0.044067
0.069916 0.037659 0.049622
0.130310 0.046875 0.055786
0.243500 0.056671 0.065735
0.401489 0.065796 0.070923
0.568787 0.131195 0.067841
0.720306 0.210785 0.079468
0.796295 0.261841 0.102600
0.796295 0.261841 0.102600
0.796295 0.261841 0.102600
0.796295 0.261841 0.102600
0.796295 0.261841 0.102600
0.796295 0.261841 0.102600
0.000000 0.020416 0.035583
0.000000 0.020416 0.035583
0.000000 0.020416 0.035583
0.000000 0.020416 0.035583
0.000000 0.022522 0.037476
0.024628 0.033020 0.045898
0.106628 0.042542 0.053192
0.218414 0.054962 0.064240
0.379913 0.064667 0.070404
0.555725 0.126007 0.068054
0.711395 0.206787 0.077393
0.796295 0.261841 0.102600
0.796295 0.261841 0.102600
0.796295 0.261841 0.102600
0.796295 0.261841 0.102600
0.796295 0.261841 0.102600
0.796295 0.261841 0.102600
0.000000 0.020416 0.035583
0.000000 0.020416 0.035583
0.000000 0.020416 0.035583
0.000000 0.020416 0.035583
0.000000 0.020416 0.035583
0.000000 0.029388 0.043091
0.092072 0.040253 0.051727
0.202087 0.053772 0.063141
0.367615 0.064026 0.070099
0.547821 0.120789 0.068481
0.706116 0.203979 0.075836
0.796295 0.261841 0.102600
0.796295 0.261841 0.102600
0.796295 0.261841 0.102600
0.796295 0.261841 0.102600
0.796295 0.261841 0.102600
0.796295 0.261841 0.102600
0.000000 0.020416 0.035583
0.000000 0.020416 0.035583
0.000000 0.020416 0.035583
0.000000 0.020416 0.035583
0.000000 0.020416 0.035583
0.000000 0.025238 0.039764
0.078888 0.038727 0.050446
0.189453 0.052765 0.062073
0.357971 0.063507 0.069824
0.542206 0.118225 0.068634
0.703094 0.202332 0.074982
0.796295 0.261871 0.102600
0.796295 0.261841 0.102600
0.796295 0.261841 0.102600
0.796295 0.261841 0.102600
0.796295 0.261841 0.102600
0.796295 0.261841 0.102600
0.000000 0.022400 0.035126
0.000000 0.022400 0.035126
0.000000 0.020416 0.035583
0.000000 0.020416 0.035583
0.000000 0.020416 0.035583
0.000000 0.022308 0.037231
0.066528 0.037292 0.049286
0.176270 0.051636 0.060913
0.346588 0.062836 0.069550
0.535095 0.115173 0.068817
0.699554 0.199005 0.074097
0.796295 0.261810 0.102600
0.796295 0.261841 0.102600
0.796295 0.261841 0.102600
0.796295 0.261841 0.102600
0.796295 0.261841 0.102600
0.796295 0.261841 0.102600
0.000000 0.115021 0.019379
0.000000 0.115021 0.019379
0.000000 0.107513 0.017059
0.000000 0.101746 0.015137
0.000000 0.098663 0.014130
0.000000 0.095612 0.013153
0.040649 0.090973 0.028625
0.161591 0.095428 0.050049
0.327240 0.097046 0.063873
0.517090 0.123383 0.067291
0.690247 0.193665 0.071808
0.796295 0.261627 0.102631
0.796295 0.261841 0.102600
0.796295 0.261841 0.102600
0.796295 0.261841 0.102600
0.796295 0.261841 0.102600
0.796295 0.261841 0.102600
0.027588 0.214661 0.028168
0.027588 0.214661 0.028168
0.023254 0.207245 0.028229
0.020599 0.203339 0.028168
0.018036 0.199371 0.028076
0.016113 0.195435 0.027985
0.037170 0.186157 0.029297
0.148956 0.185730 0.038086
0.306213 0.186707 0.049194
0.496643 0.196899 0.057495
0.675720 0.226715 0.067200
0.793793 0.273438 0.101013
0.795959 0.266022 0.102264
0.796204 0.263336 0.102478
0.796295 0.261841 0.102600
0.796295 0.261841 0.102600
0.796295 0.261841 0.102600
0.109131 0.352875 0.019714
0.109131 0.352875 0.019714
0.104523 0.346649 0.020111
0.102020 0.341736 0.020508
0.101135 0.340118 0.020630
0.099426 0.336060 0.020935
0.097046 0.330322 0.021393
0.144714 0.322235 0.024323
0.294281 0.321747 0.032593
0.478119 0.321289 0.042297
0.660522 0.332458 0.060150
0.784088 0.351013 0.102539
0.801208 0.340210 0.107086
0.800140 0.325165 0.105011
0.798737 0.314728 0.104004
0.799194 0.309387 0.103241
0.799194 0.309387 0.103241
0.204041 0.520355 0.005859
0.204041 0.520355 0.005859
0.200745 0.515869 0.006195
0.199402 0.513000 0.006470
0.198425 0.510986 0.006653
0.196930 0.507812 0.006927
0.194122 0.503204 0.007324
0.192108 0.496735 0.007935
0.282074 0.489288 0.012207
0.462952 0.485107 0.021027
0.645966 0.487427 0.067688
0.773376 0.489014 0.109863
0.815521 0.480835 0.125397
0.813873 0.469452 0.121155
0.813446 0.458496 0.120239
0.813019 0.453033 0.119598
0.813019 0.453033 0.119598
0.300720 0.678009 0.001862
0.300720 0.678009 0.001862
0.298584 0.674255 0.001404
0.298218 0.673706 0.001282
0.296234 0.670715 0.001038
0.296021 0.670349 0.000977
0.293335 0.666412 0.000488
0.290710 0.662872 0.000000
0.294586 0.655121 0.000000
0.443329 0.649048 0.038635
0.629974 0.643616 0.095764
0.762665 0.642944 0.134888
0.836975 0.640625 0.159943
0.836334 0.627869 0.159485
0.835266 0.620758 0.154755
0.834381 0.617310 0.154083
0.834381 0.617310 0.154083
0.377686 0.790466 0.094574
0.377686 0.790466 0.094574
0.377502 0.790070 0.094513
0.376038 0.787750 0.093903
0.375763 0.787292 0.093811
0.375458 0.786621 0.093628
0.373688 0.783325 0.092773
0.371582 0.779480 0.086639
0.367615 0.774384 0.084015
0.426483 0.768158 0.094208
0.604340 0.763184 0.126404
0.747406 0.757355 0.156677
0.838959 0.756195 0.185791
0.857269 0.750275 0.187897
0.857300 0.743561 0.188080
0.856842 0.740387 0.187683
0.856842 0.740387 0.187683
0.434753 0.886444 0.137726
0.434753 0.886444 0.137726
0.433807 0.883148 0.136627
0.433624 0.882019 0.135864
0.433655 0.882050 0.135864
0.432739 0.879425 0.135376
0.431213 0.876984 0.134888
0.429108 0.872345 0.133698
0.426270 0.867432 0.131836
0.430481 0.860199 0.129883
0.583313 0.853638 0.150269
0.728760 0.845001 0.175903
0.822693 0.841919 0.202423
0.876526 0.838837 0.212982
0.875244 0.832672 0.212311
0.874573 0.830566 0.212280
0.874573 0.830566 0.212280
0.460663 0.947266 0.156128
0.460663 0.947266 0.156128
0.460663 0.947266 0.156158
0.460663 0.947266 0.156189
0.460663 0.947266 0.155212
0.460663 0.947266 0.154175
0.460663 0.947266 0.154175
0.460663 0.947266 0.154175
0.460632 0.947266 0.154083
0.458160 0.938477 0.152618
0.566833 0.929230 0.167572
0.714172 0.922577 0.189484
0.808777 0.916748 0.208740
0.880890 0.911102 0.230743
0.888062 0.906647 0.230530
0.886993 0.902802 0.229645
0.886993 0.902802 0.229645
0.460663 0.947266 0.156281
0.460663 0.947266 0.156281
0.460663 0.947266 0.156281
0.460663 0.947266 0.156281
0.460663 0.947266 0.156281
0.460663 0.947266 0.156281
0.460663 0.947266 0.156281
0.460663 0.947266 0.156281
0.460663 0.947266 0.156281
0.460663 0.947266 0.156281
0.543945 0.949432 0.169220
0.698425 0.953949 0.194122
0.799011 0.957764 0.214325
0.868866 0.966156 0.234406
0.896484 0.963226 0.239014
0.896057 0.960754 0.238525
0.896057 0.960754 0.238525
0.460663 0.947266 0.156281
0.460663 0.947266 0.156281
0.460663 0.947266 0.156281
0.460663 0.947266 0.156281
0.460663 0.947266 0.156281
0.460663 0.947266 0.156281
0.460663 0.947266 0.156281
0.460663 0.947266 0.156281
0.460663 0.947266 0.156281
0.460663 0.947266 0.156281
0.530823 0.949066 0.166382
0.687897 0.953644 0.192108
0.789917 0.957458 0.212250
0.862915 0.965973 0.231781
0.896515 0.967010 0.239777
0.896515 0.967010 0.239777
0.896515 0.967010 0.239777
0.460663 0.947266 0.156281
0.460663 0.947266 0.156281
0.460663 0.947266 0.156281
0.460663 0.947266 0.156281
0.460663 0.947266 0.156281
0.460663 0.947266 0.156281
0.460663 0.947266 0.156281
0.460663 0.947266 0.156281
0.460663 0.947266 0.156281
0.460663 0.947266 0.156281
0.530823 0.949066 0.166382
0.687897 0.953644 0.192108
0.789917 0.957458 0.212250
0.862915 0.965973 0.231781
0.896515 0.967010 0.239777
0.896515 0.967010 0.239777
0.896515 0.967010 0.239777
0.000000 0.020416 0.035583
0.000000 0.020416 0.035583
0.000000 0.020416 0.035583
0.000000 0.020844 0.035950
0.004120 0.030670 0.044067
0.069916 0.037659 0.049622
0.130310 0.046875 0.055786
0.243500 0.056671 0.065735
0.401489 0.065796 0.070923
0.568787 0.131195 0.067841
0.720306 0.210785 0.079468
0.796295 0.261841 0.102600
0.796295 0.261841 0.102600
0.796295 0.261841 0.102600
0.796295 0.261841 0.102600
0.796295 0.261841 0.102600
0.796295 0.261841 0.102600
0.000000 0.020416 0.035583
0.000000 0.020416 0.035583
0.000000 0.020416 0.035583
0.000000 0.020844 0.035950
0.004120 0.030670 0.044067
0.069916 0.037659 0.049622
0.130310 0.046875 0.055786
0.243500 0.056671 0.065735
0.401489 0.065796 0.070923
0.568787 0.131195 0.067841
0.720306 0.210785 0.079468
0.796295 0.261841 0.102600
0.796295 0.261841 0.102600
0.796295 0.261841 0.102600
0.796295 0.261841 0.102600
0.796295 0.261841 0.102600
0.796295 0.261841 0.102600
0.000000 0.020416 0.035583
0.000000 0.020416 0.035583
0.000000 0.020416 0.035583
0.000000 0.020416 0.035583
0.000000 0.022522 0.037476
0.024628 0.033020 0.045898
0.106628 0.042542 0.053192
0.218414 0.054962 0.064240
0.379913 0.064667 0.070404
0.555725 0.126007 0.068054
0.711395 0.206787 0.077393
0.796295 0.261841 0.102600
0.796295 0.261841 0.102600
0.796295 0.261841 0.102600
0.796295 0.261841 0.102600
0.796295 0.261841 0.102600
0.796295 0.261841 0.102600
0.000000 0.020416 0.035583
0.000000 0.020416 0.035583
0.000000 0.020416 0.035583
0.000000 0.020416 0.035583
0.000000 0.020416 0.035583
0.000000 0.029388 0.043091
0.092072 0.040253 0.051727
0.202087 0.053772 0.063141
0.367615 0.064026 0.070099
0.547821 0.120789 0.068481
0.706116 0.203979 0.075836
0.796295 0.261841 0.102600
0.796295 0.261841 0.102600
0.796295 0.261841 0.102600
0.796295 0.261841 0.102600
0.796295 0.261841 0.102600
0.796295 0.261841 0.102600
0.000000 0.020416 0.035583
0.000000 0.020416 0.035583
0.000000 0.020416 0.035583
0.000000 0.020416 0.035583
0.000000 0.020416 0.035583
0.000000 0.025238 0.039764
0.078888 0.038727 0.050446
0.189453 0.052765 0.062073
0.357971 0.063507 0.069824
0.542206 0.118225 0.068634
0.703094 0.202332 0.074982
0.796295 0.261871 0.102600
0.796295 0.261841 0.102600
0.796295 0.261841 0.102600
0.796295 0.261841 0.102600
0.796295 0.261841 0.102600
0.796295 0.261841 0.102600
0.000000 0.022400 0.035126
0.000000 0.022400 0.035126
0.000000 0.020416 0.035583
0.000000 0.020416 0.035583
0.000000 0.020416 0.035583
0.000000 0.022308 0.037231
0.066528 0.037292 0.049286
0.176270 0.051636 0.060913
0.346588 0.062836 0.069550
0.535095 0.115173 0.068817
0.699554 0.199005 0.074097
0.796295 0.261810 0.102600
0.796295 0.261841 0.102600
0.796295 0.261841 0.102600
0.796295 0.261841 0.102600
0.796295 0.261841 0.102600
0.796295 0.261841 0.102600
0.000000 0.115021 0.019379
0.000000 0.115021 0.019379
0.000000 0.107513 0.017059
0.000000 0.101746 0.015137
0.000000 0.098663 0.014130
0.000000 0.095612 0.013153
0.040649 0.090973 0.028625
0.161591 0.095428 0.050049
0.327240 0.097046 0.063873
0.517090 0.123383 0.067291
0.690247 0.193665 0.071808
0.796295 0.261627 0.102631
0.796295 0.261841 0.102600
0.796295 0.261841 0.102600
0.796295 0.261841 0.102600
0.796295 0.261841 0.102600
0.796295 0.261841 0.102600
0.027588 0.214661 0.028168
0.027588 0.214661 0.028168
0.023254 0.207245 0.028229
0.020599 0.203339 0.028168
0.018036 0.199371 0.028076
0.016113 0.195435 0.027985
0.037170 0.186157 0.029297
0.148956 0.185730 0.038086
0.306213 0.186707 0.049194
0.496643 0.196899 0.057495
0.675720 0.226715 0.067200
0.793793 0.273438 0.101013
0.795959 0.266022 0.102264
0.796204 0.263336 0.102478
0.796295 0.261841 0.102600
0.796295 0.261841 0.102600
0.796295 0.261841 0.102600
0.109131 0.352875 0.019714
0.109131 0.352875 0.019714
0.104523 0.346649 0.020111
0.102020 0.341736 0.020508
0.101135 0.340118 0.020630
0.099426 0.336060 0.020935
0.097046 0.330322 0.021393
0.144714 0.322235 0.024323
0.294281 0.321747 0.032593
0.478119 0.321289 0.042297
0.660522 0.332458 0.060150
0.784088 0.351013 0.102539
0.801208 0.340210 0.107086
0.800140 0.325165 0.105011
0.798737 0.314728 0.104004
0.799194 0.309387 0.103241
0.799194 0.309387 0.103241
0.204041 0.520355 0.005859
0.204041 0.520355 0.005859
0.200745 0.515869 0.006195
0.199402 0.513000 0.006470
0.198425 0.510986 0.006653
0.196930 0.507812 0.006927
0.194122 0.503204 0.007324
0.192108 0.496735 0.007935
0.282074 0.489288 0.012207
0.462952 0.485107 0.021027
0.645966 0.487427 0.067688
0.773376 0.489014 0.109863
0.815521 0.480835 0.125397
0.813873 0.469452 0.121155
0.813446 0.458496 0.120239
0.813019 0.453033 0.119598
0.813019 0.453033 0.119598
0.300720 0.678009 0.001862
0.300720 0.678009 0.001862
0.298584 0.674255 0.001404
0.298218 0.673706 0.001282
0.296234 0.670715 0.001038
0.296021 0.670349 0.000977
0.293335 0.666412 0.000488
0.290710 0.662872 0.000000
0.294586 0.655121 0.000000
0.443329 0.649048 0.038635
0.629974 0.643616 0.095764
0.762665 0.642944 0.134888
0.836975 0.640625 0.159943
0.836334 0.627869 0.159485
0.835266 0.620758 0.154755
0.834381 0.617310 0.154083
0.834381 0.617310 0.154083
0.377686 0.790466 0.094574
0.377686 0.790466 0.094574
0.377502 0.790070 0.094513
0.376038 0.787750 0.093903
0.375763 0.787292 0.093811
0.375458 0.786621 0.093628
0.373688 0.783325 0.092773
0.371582 0.779480 0.086639
0.367615 0.774384 0.084015
0.426483 0.768158 0.094208
0.604340 0.763184 0.126404
0.747406 0.757355 0.156677
0.838959 0.756195 0.185791
0.857269 0.750275 0.187897
0.857300 0.743561 0.188080
0.856842 0.740387 0.187683
0.856842 0.740387 0.187683
0.434753 0.886444 0.137726
0.434753 0.886444 0.137726
0.433807 0.883148 0.136627
0.433624 0.882019 0.135864
0.433655 0.882050 0.135864
0.432739 0.879425 0.135376
0.431213 0.876984 0.134888
0.429108 0.872345 0.133698
0.426270 0.867432 0.131836
0.430481 0.860199 0.129883
0.583313 0.853638 0.150269
0.728760 0.845001 0.175903
0.822693 0.841919 0.202423
0.876526 0.838837 0.212982
0.875244 0.832672 0.212311
0.874573 0.830566 0.212280
0.874573 0.830566 0.212280
0.460663 0.947266 0.156128
0.460663 0.947266 0.156128
0.460663 0.947266 0.156158
0.460663 0.947266 0.156189
0.460663 0.947266 0.155212
0.460663 0.947266 0.154175
0.460663 0.947266 0.154175
0.460663 0.947266 0.154175
0.460632 0.947266 0.154083
0.458160 0.938477 0.152618
0.566833 0.929230 0.167572
0.714172 0.922577 0.189484
0.808777 0.916748 0.208740
0.880890 0.911102 0.230743
0.888062 0.906647 0.230530
0.886993 0.902802 0.229645
0.886993 0.902802 0.229645
0.460663 0.947266 0.156281
0.460663 0.947266 0.156281
0.460663 0.947266 0.156281
0.460663 0.947266 0.156281
0.460663 0.947266 0.156281
0.460663 0.947266 0.156281
0.460663 0.947266 0.156281
0.460663 0.947266 0.156281
0.460663 0.947266 0.156281
0.460663 0.947266 0.156281
0.543945 0.949432 0.169220
0.698425 0.953949 0.194122
0.799011 0.957764 0.214325
0.868866 0.966156 0.234406
0.896484 0.963226 0.239014
0.896057 0.960754 0.238525
0.896057 0.960754 0.238525
0.460663 0.947266 0.156281
0.460663 0.947266 0.156281
0.460663 0.947266 0.156281
0.460663 0.947266 0.156281
0.460663 0.947266 0.156281
0.460663 0.947266 0.156281
0.460663 0.947266 0.156281
0.460663 0.947266 0.156281
0.460663 0.947266 0.156281
0.460663 0.947266 0.156281
0.530823 0.949066 0.166382
0.687897 0.953644 0.192108
0.789917 0.957458 0.212250
0.862915 0.965973 0.231781
0.896515 0.967010 0.239777
0.896515 0.967010 0.239777
0.896515 0.967010 0.239777
0.460663 0.947266 0.156281
0.460663 0.947266 0.156281
0.460663 0.947266 0.156281
0.460663 0.947266 0.156281
0.460663 0.947266 0.156281
0.460663 0.947266 0.156281
0.460663 0.947266 0.156281
0.460663 0.947266 0.156281
0.460663 0.947266 0.156281
0.460663 0.947266 0.156281
0.530823 0.949066 0.166382
0.687897 0.953644 0.192108
0.789917 0.957458 0.212250
0.862915 0.965973 0.231781
0.896515 0.967010 0.239777
0.896515 0.967010 0.239777
0.896515 0.967010 0.239777
0.000000 0.020416 0.035583
0.000000 0.020416 0.035583
0.000000 0.020416 0.035583
0.000000 0.020447 0.035614
0.000732 0.030060 0.043610
0.065887 0.037201 0.049225
0.127380 0.046387 0.055450
0.240295 0.056488 0.065552
0.397675 0.065582 0.070831
0.567139 0.130615 0.067841
0.720367 0.210846 0.079468
0.796295 0.261841 0.102600
0.796295 0.261841 0.102600
0.796295 0.261841 0.102600
0.796295 0.261841 0.102600
0.796295 0.261841 0.102600
0.796295 0.261841 0.102600
0.000000 0.020416 0.035583
0.000000 0.020416 0.035583
0.000000 0.020416 0.035583
0.000000 0.020447 0.035614
0.000732 0.030060 0.043610
0.065887 0.037201 0.049225
0.127380 0.046387 0.055450
0.240295 0.056488 0.065552
0.397675 0.065582 0.070831
0.567139 0.130615 0.067841
0.720367 0.210846 0.079468
0.796295 0.261841 0.102600
0.796295 0.261841 0.102600
0.796295 0.261841 0.102600
0.796295 0.261841 0.102600
0.796295 0.261841 0.102600
0.796295 0.261841 0.102600
0.000000 0.020416 0.035583
0.000000 0.020416 0.035583
0.000000 0.020416 0.035583
0.000000 0.020416 0.035583
0.000000 0.021912 0.036865
0.018799 0.032410 0.045441
0.102875 0.041809 0.052856
0.214661 0.054688 0.063995
0.377258 0.064545 0.070374
0.554993 0.125793 0.068085
0.711365 0.206757 0.077393
0.796295 0.261841 0.102600
0.796295 0.261841 0.102600
0.796295 0.261841 0.102600
0.796295 0.261841 0.102600
0.796295 0.261841 0.102600
0.796295 0.261841 0.102600
0.000000 0.020416 0.035583
0.000000 0.020416 0.035583
0.000000 0.020416 0.035583
0.000000 0.020416 0.035583
0.000000 0.020416 0.035583
0.000000 0.028412 0.042297
0.089203 0.039886 0.051453
0.198761 0.053497 0.062866
0.363586 0.063812 0.069977
0.546997 0.120422 0.068512
0.705933 0.203888 0.075806
0.796295 0.261841 0.102600
0.796295 0.261841 0.102600
0.796295 0.261841 0.102600
0.796295 0.261841 0.102600
0.796295 0.261841 0.102600
0.796295 0.261841 0.102600
0.000000 0.020416 0.035583
0.000000 0.020416 0.035583
0.000000 0.020416 0.035583
0.000000 0.020416 0.035583
0.000000 0.020416 0.035583
0.000000 0.024353 0.038971
0.076447 0.038391 0.050232
0.186340 0.052521 0.061859
0.354980 0.063324 0.069763
0.539978 0.117310 0.068695
0.703125 0.202118 0.075012
0.796295 0.261871 0.102600
0.796295 0.261841 0.102600
0.796295 0.261841 0.102600
0.796295 0.261841 0.102600
0.796295 0.261841 0.102600
0.796295 0.261841 0.102600
0.000000 0.022369 0.035126
0.000000 0.022369 0.035126
0.000000 0.020416 0.035583
0.000000 0.020416 0.035583
0.000000 0.020416 0.035583
0.000000 0.021545 0.036560
0.062195 0.036804 0.048950
0.173340 0.051422 0.060608
0.343231 0.062683 0.069427
0.531860 0.113831 0.068909
0.696991 0.197540 0.073456
0.796326 0.261597 0.102631
0.796295 0.261841 0.102600
0.796295 0.261841 0.102600
0.796295 0.261841 0.102600
0.796295 0.261841 0.102600
0.796295 0.261841 0.102600
0.000000 0.113007 0.018829
0.000000 0.113007 0.018829
0.000000 0.106232 0.016693
0.000000 0.101410 0.015045
0.000000 0.098511 0.014099
0.000000 0.094299 0.012726
0.035309 0.090179 0.027924
0.157959 0.092682 0.050110
0.324646 0.096558 0.063843
0.517059 0.123383 0.067291
0.688782 0.192902 0.071472
0.796204 0.261536 0.102570
0.796295 0.261841 0.102600
0.796295 0.261841 0.102600
0.796295 0.261841 0.102600
0.796295 0.261841 0.102600
0.796295 0.261841 0.102600
0.027557 0.214569 0.028168
0.027557 0.214569 0.028168
0.023193 0.207092 0.028229
0.020508 0.203186 0.028168
0.018005 0.199280 0.028076
0.016113 0.195374 0.027985
0.034058 0.185913 0.029083
0.145599 0.185364 0.037842
0.302399 0.184723 0.049225
0.493469 0.194977 0.057617
0.675415 0.226044 0.067200
0.792023 0.272095 0.100403
0.796021 0.265564 0.102295
0.796204 0.263336 0.102478
0.796295 0.261841 0.102600
0.796295 0.261841 0.102600
0.796295 0.261841 0.102600
0.108063 0.351013 0.019836
0.108063 0.351013 0.019836
0.104431 0.346466 0.020111
0.101959 0.341583 0.020508
0.100464 0.338593 0.020721
0.099396 0.335999 0.020935
0.097046 0.330322 0.021393
0.141113 0.320496 0.024323
0.291473 0.320587 0.032562
0.474915 0.320526 0.042236
0.657684 0.331573 0.059326
0.782867 0.350464 0.102051
0.801086 0.339081 0.106964
0.799896 0.324280 0.105011
0.798798 0.314148 0.103882
0.799194 0.309387 0.103241
0.799194 0.309387 0.103241
0.203888 0.520142 0.005890
0.203888 0.520142 0.005890
0.200653 0.515747 0.006195
0.198608 0.511383 0.006622
0.198364 0.510925 0.006683
0.196777 0.507477 0.006958
0.194061 0.503113 0.007324
0.191742 0.496735 0.007904
0.278809 0.488373 0.012177
0.459656 0.484039 0.021027
0.645355 0.487335 0.067505
0.771667 0.488556 0.109406
0.815521 0.480835 0.125397
0.813873 0.469452 0.121155
0.813446 0.457947 0.120209
0.813019 0.453033 0.119598
0.813019 0.453033 0.119598
0.300262 0.677185 0.001709
0.300262 0.677185 0.001709
0.298523 0.674194 0.001404
0.298126 0.673584 0.001282
0.296173 0.670563 0.001007
0.295959 0.670258 0.000916
0.293335 0.666412 0.000488
0.290710 0.662872 0.000000
0.294067 0.655121 0.000000
0.440735 0.647797 0.037262
0.629669 0.643616 0.095673
0.762512 0.642944 0.134857
0.836975 0.640747 0.159943
0.836334 0.627838 0.159485
0.835236 0.620605 0.154724
0.834381 0.617310 0.154083
0.834381 0.617310 0.154083
0.377625 0.790375 0.094543
0.377625 0.790375 0.094543
0.377441 0.789978 0.094513
0.375732 0.787201 0.093811
0.375610 0.786987 0.093719
0.375427 0.786591 0.093628
0.373688 0.783295 0.092773
0.371399 0.779266 0.086487
0.367645 0.774414 0.084015
0.424469 0.767670 0.093872
0.603577 0.763214 0.126221
0.747192 0.757446 0.156586
0.837524 0.756195 0.185394
0.857300 0.750366 0.187897
0.857300 0.743622 0.188080
0.856842 0.740479 0.187714
0.856842 0.740479 0.187714
0.434692 0.886261 0.137665
0.434692 0.886261 0.137665
0.433838 0.883087 0.136444
0.433624 0.881958 0.135803
0.433655 0.882050 0.135864
0.432343 0.879059 0.135315
0.431213 0.876984 0.134888
0.429108 0.872345 0.133698
0.425842 0.866730 0.131622
0.429413 0.858978 0.129059
0.581909 0.853668 0.150238
0.728180 0.845032 0.175812
0.821350 0.841522 0.201599
0.876526 0.838989 0.213013
0.875275 0.832703 0.212311
0.874603 0.830719 0.212341
0.874603 0.830719 0.212341
0.460663 0.947266 0.156128
0.460663 0.947266 0.156128
0.460663 0.947266 0.156158
0.460663 0.947266 0.156189
0.460663 0.947266 0.154175
0.460663 0.947266 0.154175
0.460663 0.947266 0.154175
0.460663 0.947266 0.154175
0.460632 0.947266 0.154114
0.458008 0.938599 0.152618
0.564667 0.929260 0.167267
0.712891 0.922607 0.189331
0.808594 0.916809 0.208740
0.879822 0.911163 0.230469
0.888092 0.906677 0.230560
0.886993 0.902832 0.229645
0.886993 0.902832 0.229645
0.460663 0.947266 0.156281
0.460663 0.947266 0.156281
0.460663 0.947266 0.156281
0.460663 0.947266 0.156281
0.460663 0.947266 0.156281
0.460663 0.947266 0.156281
0.460663 0.947266 0.156281
0.460663 0.947266 0.156281
0.460663 0.947266 0.156281
0.460663 0.947266 0.156281
0.542450 0.949371 0.168793
0.698273 0.953949 0.194092
0.798370 0.957733 0.214050
0.868805 0.965942 0.234344
0.896484 0.963318 0.239044
0.896118 0.960876 0.238556
0.896118 0.960876 0.238556
0.460663 0.947266 0.156281
0.460663 0.947266 0.156281
0.460663 0.947266 0.156281
0.460663 0.947266 0.156281
0.460663 0.947266 0.156281
0.460663 0.947266 0.156281
0.460663 0.947266 0.156281
0.460663 0.947266 0.156281
0.460663 0.947266 0.156281
0.460663 0.947266 0.156281
0.529236 0.949005 0.166077
0.686554 0.953583 0.191803
0.789825 0.957458 0.212250
0.860382 0.965881 0.231323
0.896515 0.967010 0.239777
0.896515 0.967010 0.239777
0.896515 0.967010 0.239777
0.460663 0.947266 0.156281
0.460663 0.947266 0.156281
0.460663 0.947266 0.156281
0.460663 0.947266 0.156281
0.460663 0.947266 0.156281
0.460663 0.947266 0.156281
0.460663 0.947266 0.156281
0.460663 0.947266 0.156281
0.460663 0.947266 0.156281
0.460663 0.947266 0.156281
0.529236 0.949005 0.166077
0.686554 0.953583 0.191803
0.789825 0.957458 0.212250
0.860382 0.965881 0.231323
0.896515 0.967010 0.239777
0.896515 0.967010 0.239777
0.896515 0.967010 0.239777
0.000000 0.020416 0.035583
0.000000 0.020416 0.035583
0.000000 0.020416 0.035583
0.000000 0.020416 0.035583
0.000000 0.029663 0.043335
0.063660 0.036957 0.049072
0.124725 0.045959 0.055176
0.237000 0.056305 0.065399
0.396851 0.065552 0.070831
0.567261 0.130676 0.067841
0.720062 0.210724 0.079468
0.796295 0.261841 0.102600
0.796295 0.261841 0.102600
0.796295 0.261841 0.102600
0.796295 0.261841 0.102600
0.796295 0.261841 0.102600
0.796295 0.261841 0.102600
0.000000 0.020416 0.035583
0.000000 0.020416 0.035583
0.000000 0.020416 0.035583
