example/assets/luts/lut5.cube
#LUT size
LUT_3D_SIZE 9
#LUT data points
0.000000 0.020416 0.035583
0.000000 0.020416 0.035583
0.004120 0.030670 0.044067
0.130310 0.046875 0.055786
0.401489 0.065796 0.070923
0.720306 0.210785 0.079468
0.796295 0.261841 0.102600
0.796295 0.261841 0.102600
0.796295 0.261841 0.102600
0.000000 0.020416 0.035583
0.000000 0.020416 0.035583
0.000000 0.022522 0.037476
0.106628 0.042542 0.053192
0.379913 0.064667 0.070404
0.711395 0.206787 0.077393
0.796295 0.261841 0.102600
0.796295 0.261841 0.102600
0.796295 0.261841 0.102600
0.000000 0.020416 0.035583
0.000000 0.020416 0.035583
0.000000 0.020416 0.035583
0.078888 0.038727 0.050446
0.357971 0.063507 0.069824
0.703094 0.202332 0.074982
0.796295 0.261841 0.102600
0.796295 0.261841 0.102600
0.796295 0.261841 0.102600
0.000000 0.115021 0.019379
0.000000 0.107513 0.017059
0.000000 0.098663 0.014130
0.040649 0.090973 0.028625
0.327240 0.097046 0.063873
0.690247 0.193665 0.071808
0.796295 0.261841 0.102600
0.796295 0.261841 0.102600
0.796295 0.261841 0.102600
0.109131 0.352875 0.019714
0.104523 0.346649 0.020111
0.101135 0.340118 0.020630
0.097046 0.330322 0.021393
0.294281 0.321747 0.032593
0.660522 0.332458 0.060150
0.801208 0.340210 0.107086
0.798737 0.314728 0.104004
0.799194 0.309387 0.103241
0.300720 0.678009 0.001862
0.298584 0.674255 0.001404
0.296234 0.670715 0.001038
0.293335 0.666412 0.000488
0.294586 0.655121 0.000000
0.629974 0.643616 0.095764
0.836975 0.640625 0.159943
0.835266 0.620758 0.154755
0.834381 0.617310 0.154083
0.434753 0.886444 0.137726
0.433807 0.883148 0.136627
0.433655 0.882050 0.135864
0.431213 0.876984 0.134888
0.426270 0.867432 0.131836
0.583313 0.853638 0.150269
0.822693 0.841919 0.202423
0.875244 0.832672 0.212311
0.874573 0.830566 0.212280
0.460663 0.947266 0.156281
0.460663 0.947266 0.156281
0.460663 0.947266 0.156281
0.460663 0.947266 0.156281
0.460663 0.947266 0.156281
0.543945 0.949432 0.169220
0.799011 0.957764 0.214325
0.896484 0.963226 0.239014
0.896057 0.960754 0.238525
0.460663 0.947266 0.156281
0.460663 0.947266 0.156281
0.460663 0.947266 0.156281
0.460663 0.947266 0.156281
0.460663 0.947266 0.156281
0.530823 0.949066 0.166382
0.789917 0.957458 0.212250
0.896515 0.967010 0.239777
0.896515 0.967010 0.239777
0.000000 0.020416 0.035583
0.000000 0.020416 0.035583
0.000732 0.030060 0.043610
0.127380 0.046387 0.055450
0.397675 0.065582 0.070831
0.720367 0.210846 0.079468
0.796295 0.261841 0.102600
0.796295 0.261841 0.102600
0.796295 0.261841 0.102600
0.000000 0.020416 0.035583
0.000000 0.020416 0.035583
0.000000 0.021912 0.036865
0.102875 0.041809 0.052856
0.377258 0.064545 0.070374
0.711365 0.206757 0.077393
0.796295 0.261841 0.102600
0.796295 0.261841 0.102600
0.796295 0.261841 0.102600
0.000000 0.020416 0.035583
0.000000 0.020416 0.035583
0.000000 0.020416 0.035583
0.076447 0.038391 0.050232
0.354980 0.063324 0.069763
0.703125 0.202118 0.075012
0.796295 0.261841 0.102600
0.796295 0.261841 0.102600
0.796295 0.261841 0.102600
0.000000 0.113007 0.018829
0.000000 0.106232 0.016693
0.000000 0.098511 0.014099
0.035309 0.090179 0.027924
0.324646 0.096558 0.063843
0.688782 0.192902 0.071472
0.796295 0.261841 0.102600
0.796295 0.261841 0.102600
0.796295 0.261841 0.102600
0.108063 0.351013 0.019836
0.104431 0.346466 0.020111
0.100464 0.338593 0.020721
0.097046 0.330322 0.021393
0.291473 0.320587 0.032562
0.657684 0.331573 0.059326
0.801086 0.339081 0.106964
0.798798 0.314148 0.103882
0.799194 0.309387 0.103241
0.300262 0.677185 0.001709
0.298523 0.674194 0.001404
0.296173 0.670563 0.001007
0.293335 0.666412 0.000488
0.294067 0.655121 0.000000
0.629669 0.643616 0.095673
0.836975 0.640747 0.159943
0.835236 0.620605 0.154724
0.834381 0.617310 0.154083
0.434692 0.886261 0.137665
0.433838 0.883087 0.136444
0.433655 0.882050 0.135864
0.431213 0.876984 0.134888
0.425842 0.866730 0.131622
0.581909 0.853668 0.150238
0.821350 0.841522 0.201599
0.875275 0.832703 0.212311
0.874603 0.830719 0.212341
0.460663 0.947266 0.156281
0.460663 0.947266 0.156281
0.460663 0.947266 0.156281
0.460663 0.947266 0.156281
0.460663 0.947266 0.156281
0.542450 0.949371 0.168793
0.798370 0.957733 0.214050
0.896484 0.963318 0.239044
0.896118 0.960876 0.238556
0.460663 0.947266 0.156281
0.460663 0.947266 0.156281
0.460663 0.947266 0.156281
0.460663 0.947266 0.156281
0.460663 0.947266 0.156281
0.529236 0.949005 0.166077
0.789825 0.957458 0.212250
0.896515 0.967010 0.239777
0.896515 0.967010 0.239777
0.000000 0.020416 0.035583
0.000000 0.020416 0.035583
0.000000 0.029236 0.042999
0.124451 0.045898 0.055145
0.393860 0.065430 0.070770
0.717590 0.209656 0.078918
0.796295 0.261841 0.102600
0.796295 0.261841 0.102600
0.796295 0.261841 0.102600
0.000000 0.020416 0.035583
0.000000 0.020416 0.035583
0.000000 0.021149 0.036194
0.100433 0.041443 0.052582
0.373230 0.064301 0.070251
0.710205 0.206146 0.077087
0.796295 0.261841 0.102600
0.796295 0.261841 0.102600
0.796295 0.261841 0.102600
0.000000 0.020416 0.035583
0.000000 0.020416 0.035583
0.000000 0.020416 0.035583
0.074066 0.038116 0.050018
0.351471 0.063141 0.069672
0.700317 0.199432 0.074280
0.796295 0.261841 0.102600
0.796295 0.261841 0.102600
0.796295 0.261841 0.102600
0.000000 0.112762 0.018768
0.000000 0.105927 0.016571
0.000000 0.097290 0.013641
0.029053 0.089722 0.027039
0.322479 0.096100 0.063812
0.686279 0.191742 0.070984
0.796295 0.261841 0.102600
0.796295 0.261841 0.102600
0.796295 0.261841 0.102600
0.107819 0.350647 0.019867
0.104187 0.345947 0.020172
0.099884 0.337189 0.020844
0.096893 0.330017 0.021423
0.288239 0.319061 0.032532
0.657288 0.331116 0.059174
0.801086 0.338989 0.106934
0.798828 0.313965 0.103821
0.799194 0.309174 0.103210
0.300018 0.676788 0.001587
0.298187 0.673798 0.001312
0.296021 0.670319 0.000916
0.293243 0.666321 0.000458
0.292511 0.655029 0.000000
0.626160 0.643433 0.094574
0.837006 0.640808 0.159943
0.835205 0.620483 0.154694
0.834381 0.617310 0.154083
0.434601 0.885895 0.137604
0.433380 0.881348 0.135681
0.433594 0.881866 0.135803
0.431183 0.876831 0.134888
0.425873 0.866760 0.131622
0.579468 0.853668 0.150177
0.819580 0.840698 0.200470
0.875336 0.832886 0.212341
0.874207 0.829559 0.212372
0.460663 0.947266 0.156281
0.460663 0.947266 0.156281
0.460663 0.947266 0.156281
0.460663 0.947266 0.156281
0.460663 0.947266 0.156281
0.540558 0.949341 0.168365
0.796783 0.957672 0.213531
0.896484 0.963379 0.239044
0.896149 0.961121 0.238586
0.460663 0.947266 0.156281
0.460663 0.947266 0.156281
0.460663 0.947266 0.156281
0.460663 0.947266 0.156281
0.460663 0.947266 0.156281
0.527222 0.948975 0.165955
0.788605 0.957428 0.212097
0.896515 0.967010 0.239777
0.896515 0.967010 0.239777
0.000000 0.012054 0.140961
0.000000 0.012054 0.140808
0.000000 0.016083 0.140900
0.093353 0.038757 0.147339
0.370911 0.073273 0.169281
0.710724 0.217163 0.182770
0.791473 0.268188 0.186218
0.790527 0.272827 0.229279
0.790588 0.272644 0.227081
0.000000 0.012634 0.135223
0.000000 0.012726 0.134094
0.000000 0.013000 0.131653
0.071503 0.033356 0.140137
0.350464 0.067108 0.161438
0.702148 0.211792 0.175201
0.791504 0.268097 0.185760
0.790833 0.272064 0.220490
0.790833 0.272034 0.219849
0.000000 0.013336 0.128387
0.000000 0.013580 0.125732
0.000000 0.013641 0.125183
0.046967 0.028076 0.130798
0.330231 0.062531 0.151733
0.693054 0.205017 0.165131
0.791687 0.266846 0.180267
0.791016 0.271301 0.210541
0.791016 0.271240 0.210297
0.000000 0.105988 0.092987
0.000000 0.099304 0.089691
0.000000 0.091187 0.087982
0.001617 0.085724 0.095734
0.301178 0.097870 0.132324
0.679840 0.196655 0.151581
0.793060 0.265778 0.170013
0.791351 0.269226 0.193970
0.791382 0.269043 0.192474
0.101105 0.349579 0.052368
0.098145 0.344696 0.046967
0.092896 0.337067 0.045868
0.087708 0.328339 0.040009
0.280212 0.319031 0.060333
0.650360 0.332428 0.112457
0.800018 0.339966 0.141327
0.795959 0.318604 0.176086
0.795624 0.314941 0.174927
0.299286 0.678345 0.024628
0.297729 0.675171 0.013611
0.295349 0.671692 0.011353
0.292603 0.666992 0.004486
0.291046 0.654602 0.000122
0.623260 0.643097 0.096832
0.836823 0.639099 0.159821
0.835144 0.620331 0.164093
0.834320 0.617035 0.163452
0.434418 0.885406 0.137543
0.433228 0.880920 0.135529
0.433044 0.880371 0.135498
0.431091 0.876678 0.134857
0.425812 0.866699 0.131561
0.576630 0.852234 0.149567
0.818909 0.840576 0.199921
0.875336 0.832886 0.212341
0.874207 0.829559 0.212372
0.460663 0.947266 0.156281
0.460663 0.947266 0.156281
0.460663 0.947266 0.156281
0.460663 0.947266 0.156281
0.460663 0.947266 0.156281
0.538025 0.949249 0.168243
0.795898 0.957642 0.213318
0.896515 0.963409 0.239075
0.896149 0.961121 0.238586
0.460663 0.947266 0.156281
0.460663 0.947266 0.156281
0.460663 0.947266 0.156281
0.460663 0.947266 0.156281
0.460663 0.947266 0.156281
0.524841 0.948914 0.165894
0.787079 0.957367 0.212006
0.896515 0.967010 0.239777
0.896515 0.967010 0.239777
0.000000 0.020233 0.329071
0.000000 0.020203 0.328949
0.000000 0.023132 0.325806
0.000000 0.047241 0.335907
0.303864 0.110962 0.373535
0.676270 0.247772 0.408569
0.773071 0.299408 0.419220
0.772430 0.300507 0.423950
0.764709 0.310791 0.485992
0.000000 0.019867 0.324982
0.000000 0.019745 0.323395
0.000000 0.019562 0.321747
0.000000 0.039490 0.323853
0.283875 0.104889 0.365875
0.667053 0.243164 0.403107
0.773071 0.299408 0.419159
0.773071 0.299408 0.419159
0.765259 0.310333 0.481293
0.000000 0.019287 0.320343
0.000000 0.019226 0.317566
0.000000 0.019257 0.316315
0.000000 0.033478 0.314697
0.262451 0.095612 0.360321
0.656158 0.235077 0.396118
0.773102 0.299408 0.417236
0.773071 0.299408 0.419159
0.765991 0.309875 0.475708
0.000000 0.108429 0.301025
0.000000 0.101379 0.301147
0.000000 0.093506 0.301117
0.000000 0.086853 0.300781
0.235962 0.116821 0.344452
0.641296 0.227081 0.386139
0.773132 0.299469 0.413452
0.773071 0.299408 0.419159
0.766937 0.309937 0.470001
0.042267 0.351196 0.318024
0.034698 0.343262 0.316711
0.031219 0.337341 0.312775
0.022339 0.327972 0.310516
0.229004 0.321259 0.323151
0.619995 0.350281 0.363434
0.782532 0.368134 0.393890
0.778168 0.345764 0.405029
0.773254 0.348358 0.448059
0.272095 0.688873 0.316345
0.269989 0.685242 0.315643
0.267883 0.682098 0.313293
0.265533 0.677643 0.309143
0.263306 0.663330 0.302734
0.600250 0.659119 0.328278
0.827301 0.653961 0.359863
0.822723 0.637207 0.376770
0.818054 0.636810 0.415680
0.420258 0.893433 0.290527
0.418701 0.888885 0.290009
0.418335 0.887085 0.287384
0.417664 0.884705 0.284393
0.411377 0.873840 0.279846
0.558868 0.857605 0.284241
0.811096 0.846741 0.304413
0.866821 0.840179 0.341339
0.862396 0.840729 0.381470
0.451843 0.952484 0.270050
0.452087 0.952484 0.268768
0.452240 0.952484 0.267242
0.452545 0.952545 0.265411
0.453369 0.952576 0.260712
0.525360 0.954437 0.260406
0.789368 0.963104 0.285675
0.892151 0.968964 0.317017
0.886627 0.970337 0.365875
0.452759 0.952545 0.264160
0.452942 0.952545 0.262604
0.453064 0.952545 0.261810
0.453949 0.952576 0.258606
0.454590 0.952637 0.254578
0.512543 0.954132 0.253723
0.780701 0.962738 0.279327
0.893005 0.972626 0.316956
0.888519 0.978333 0.362579
0.000000 0.103699 0.632812
0.000000 0.103699 0.632812
0.000000 0.104279 0.632599
0.000000 0.116882 0.631165
0.157288 0.174683 0.660461
0.602570 0.306427 0.710266
0.724182 0.362030 0.736023
0.725128 0.361176 0.732605
0.713531 0.375305 0.786194
0.000000 0.103180 0.631531
0.000000 0.103149 0.631470
0.000000 0.102386 0.629761
0.000000 0.111206 0.626984
0.131866 0.168060 0.652039
0.590210 0.300293 0.705811
0.725067 0.361176 0.732635
0.726013 0.360260 0.729065
0.714478 0.374451 0.783447
0.000000 0.101715 0.628143
0.000000 0.101501 0.627686
0.000000 0.100922 0.626434
0.000000 0.106659 0.625336
0.085480 0.160889 0.647736
0.577209 0.294220 0.698395
0.726257 0.360107 0.728302
0.726776 0.359558 0.726227
0.714996 0.373962 0.781860
0.000000 0.158722 0.617462
0.000000 0.152954 0.617462
0.000000 0.147461 0.617004
0.000000 0.139557 0.617249
0.026947 0.168274 0.635864
0.559601 0.284332 0.691803
0.727417 0.359009 0.723999
0.728058 0.358398 0.721466
0.716522 0.372589 0.777130
0.000000 0.364594 0.628754
0.000000 0.359528 0.627960
0.000000 0.352203 0.625122
0.000000 0.344055 0.623077
0.012604 0.338379 0.631500
0.534210 0.386810 0.681213
0.739746 0.418243 0.713257
0.736450 0.395233 0.709656
0.723999 0.401642 0.765015
0.146210 0.708466 0.656921
0.143127 0.705292 0.656433
0.142212 0.703552 0.655090
0.137573 0.698181 0.654144
0.130768 0.685303 0.647980
0.518341 0.685638 0.669922
0.788391 0.686432 0.684326
0.787903 0.669312 0.681152
0.774872 0.672852 0.752136
0.344818 0.915100 0.622040
0.344910 0.915558 0.621552
0.343353 0.911835 0.618744
0.341309 0.908142 0.617798
0.337036 0.898529 0.614899
0.484131 0.882599 0.616333
0.769287 0.873383 0.634094
0.831726 0.866364 0.648621
0.820953 0.868530 0.709229
0.391479 0.981476 0.604858
0.391541 0.981445 0.604340
0.391602 0.981323 0.603149
0.391327 0.980774 0.599792
0.391174 0.980438 0.597626
0.457306 0.980835 0.592529
0.755127 0.987885 0.610382
0.863403 0.990387 0.633972
0.855438 0.992798 0.697540
0.391479 0.981018 0.601166
0.391388 0.980927 0.600708
0.391327 0.980743 0.599609
0.391357 0.980194 0.594757
0.391571 0.980103 0.593109
0.444794 0.980347 0.588776
0.747498 0.987732 0.607910
0.865234 0.992249 0.632202
0.859100 0.995911 0.698364
0.000000 0.195190 0.902344
0.000000 0.195251 0.902405
0.000000 0.194672 0.900543
0.000000 0.199432 0.900208
0.000000 0.237091 0.909546
0.502289 0.358154 0.982391
0.666443 0.417511 0.988342
0.664856 0.419189 0.989441
0.659821 0.426453 0.992371
0.000000 0.194641 0.900421
0.000000 0.194672 0.900543
0.000000 0.194702 0.900665
0.000000 0.197174 0.900269
0.000000 0.232605 0.907837
0.488647 0.352814 0.980530
0.666748 0.417267 0.988098
0.665070 0.419006 0.989349
0.659851 0.426422 0.992371
0.000000 0.193390 0.896454
0.000000 0.193390 0.896454
0.000000 0.192993 0.895264
0.000000 0.192657 0.894196
0.000000 0.226654 0.903229
0.471802 0.347809 0.976685
0.667358 0.416718 0.987671
0.665619 0.418427 0.988953
0.661041 0.425140 0.992218
0.000000 0.231384 0.890869
0.000000 0.228241 0.891083
0.000000 0.223907 0.891113
0.000000 0.216492 0.887726
0.000000 0.232666 0.893677
0.449188 0.339508 0.966888
0.668030 0.416138 0.987335
0.666351 0.417633 0.988434
0.661926 0.423798 0.991791
0.000000 0.403320 0.898560
0.000000 0.400116 0.898254
0.000000 0.393951 0.894745
0.000000 0.386780 0.891083
0.000000 0.374390 0.891083
0.416565 0.421814 0.954742
0.681488 0.462830 0.984375
0.675568 0.445007 0.986267
0.669922 0.450043 0.990173
0.000000 0.718445 0.932556
0.000000 0.715302 0.931641
0.000000 0.712219 0.930450
0.000000 0.708191 0.926208
0.000000 0.696045 0.919952
0.395264 0.697937 0.948669
0.732605 0.703735 0.969788
0.735840 0.691956 0.972656
0.728729 0.693207 0.975800
0.216888 0.937408 0.885315
0.214264 0.934143 0.885620
0.214172 0.933502 0.885040
0.212250 0.928223 0.882233
0.204803 0.917572 0.878784
0.366180 0.900574 0.882996
0.711884 0.893341 0.899353
0.787689 0.886200 0.926636
0.779144 0.888458 0.960541
0.296051 0.992310 0.874176
0.296204 0.992310 0.873840
0.296570 0.992310 0.873138
0.296967 0.992310 0.872284
0.297791 0.992340 0.870483
0.357239 0.993011 0.865967
0.707520 0.999634 0.885162
0.826599 1.000000 0.927795
0.821198 1.000000 0.976349
0.296387 0.992310 0.873566
0.296539 0.992310 0.873230
0.296906 0.992310 0.872467
0.299530 0.992340 0.866211
0.299835 0.992340 0.865448
0.343903 0.992828 0.859802
0.697083 0.999481 0.879730
0.823822 1.000000 0.924072
0.825043 1.000000 0.979675
0.000000 0.227295 0.972382
0.000000 0.227295 0.972382
0.000000 0.227295 0.972382
0.000000 0.229309 0.972321
0.000000 0.263947 0.973480
0.464600 0.377136 0.991180
0.644165 0.436401 0.991516
0.644165 0.436401 0.991516
0.644165 0.436401 0.991516
0.000000 0.227295 0.972382
0.000000 0.227295 0.972382
0.000000 0.227295 0.972382
0.000000 0.229309 0.972321
0.000000 0.261200 0.973480
0.449768 0.373627 0.991058
0.644165 0.436401 0.991516
0.644165 0.436401 0.991516
0.644165 0.436401 0.991516
0.000000 0.227295 0.972382
0.000000 0.227295 0.972382
0.000000 0.227295 0.972382
0.000000 0.228302 0.972321
0.000000 0.255646 0.972595
0.430695 0.369629 0.990875
0.644165 0.436401 0.991516
0.644165 0.436401 0.991516
0.644165 0.436401 0.991516
0.000000 0.259491 0.971313
0.000000 0.257446 0.971375
0.000000 0.253540 0.971466
0.000000 0.246918 0.971680
0.000000 0.260742 0.972443
0.402100 0.362152 0.990662
0.644165 0.436401 0.991516
0.644165 0.436401 0.991516
0.644165 0.436401 0.991516
0.000000 0.424591 0.971680
0.000000 0.419189 0.971741
0.000000 0.414124 0.971802
0.000000 0.405579 0.971832
0.000000 0.395691 0.971924
0.359924 0.437286 0.985962
0.655121 0.482025 0.989136
0.651581 0.464935 0.990021
0.651062 0.461639 0.990204
0.000000 0.721619 0.969421
0.000000 0.720581 0.969421
0.000000 0.719116 0.969452
0.000000 0.716064 0.969513
0.000000 0.703400 0.969849
0.324738 0.704132 0.974426
0.697662 0.715363 0.975006
0.709869 0.702911 0.975952
0.708893 0.700348 0.976135
0.118591 0.948059 0.962891
0.112640 0.944061 0.963074
0.111023 0.942932 0.963104
0.107483 0.940674 0.963226
0.085693 0.929047 0.963867
0.284485 0.908569 0.963379
0.676880 0.909058 0.962555
0.762756 0.902863 0.962952
0.761871 0.898712 0.963104
0.223969 1.000000 0.983002
0.223969 1.000000 0.983002
0.223938 1.000000 0.983002
0.223907 1.000000 0.983002
0.223938 1.000000 0.983002
0.283173 1.000000 0.982819
0.674286 1.000000 0.988647
0.801208 1.000000 0.989960
0.804810 1.000000 0.988861
0.223969 1.000000 0.983002
0.223938 1.000000 0.983002
0.223907 1.000000 0.983002
0.224548 1.000000 0.983002
0.225861 1.000000 0.983002
0.266144 1.000000 0.982910
0.662537 1.000000 0.988434
0.796600 1.000000 0.990265
0.807556 1.000000 0.990387
0.000000 0.227295 0.972382
0.000000 0.227295 0.972382
0.000000 0.227295 0.972382
0.000000 0.229309 0.972321
0.000000 0.263702 0.973511
0.464600 0.377136 0.991180
0.644165 0.436401 0.991516
0.803589 1.000000 0.990265
0.811584 1.000000 0.990448
0.000000 0.227295 0.972382
0.000000 0.227295 0.972382
0.000000 0.227295 0.972382
0.000000 0.229309 0.972321
0.000000 0.260590 0.973358
0.447449 0.373077 0.991058
0.644165 0.436401 0.991516
0.803986 1.000000 0.990265
0.811584 1.000000 0.990448
0.000000 0.227295 0.972382
0.000000 0.227295 0.972382
0.000000 0.227295 0.972382
0.000000 0.227844 0.972382
0.000000 0.255005 0.972656
0.425934 0.368591 0.990814
0.644165 0.436401 0.991516
0.804535 1.000000 0.990265
0.811584 1.000000 0.990448
0.000000 0.259399 0.971313
0.000000 0.257263 0.971375
0.000000 0.252808 0.971466
0.000000 0.246857 0.971680
0.000000 0.260406 0.972443
0.401733 0.362030 0.990662
0.644165 0.436401 0.991516
0.804749 1.000000 0.990265
0.811584 1.000000 0.990448
0.000000 0.424561 0.971680
0.000000 0.418823 0.971741
0.000000 0.414062 0.971802
0.000000 0.405579 0.971832
0.000000 0.395599 0.971985
0.359100 0.437103 0.985962
0.655121 0.481903 0.989136
0.804596 1.000000 0.990265
0.811584 1.000000 0.990448
0.000000 0.721436 0.969421
0.000000 0.720398 0.969421
0.000000 0.719055 0.969452
0.000000 0.715973 0.969513
0.000000 0.703156 0.969849
0.322021 0.701263 0.974548
0.697205 0.715302 0.975006
0.804230 1.000000 0.990265
0.811584 1.000000 0.990448
0.118164 0.947723 0.962891
0.112274 0.943817 0.963104
0.110809 0.942749 0.963165
0.107269 0.940521 0.963318
0.084381 0.928375 0.963928
0.280670 0.908417 0.963379
0.676239 0.908813 0.962555
0.803741 1.000000 0.990265
0.811584 1.000000 0.990448
0.224426 1.000000 0.983002
0.224426 1.000000 0.983002
0.224426 1.000000 0.983002
0.224426 1.000000 0.983002
0.224426 1.000000 0.983002
0.278992 1.000000 0.982819
0.671753 1.000000 0.989197
0.803162 1.000000 0.990204
0.811584 1.000000 0.990448
0.224426 1.000000 0.983002
0.224426 1.000000 0.983002
0.224426 1.000000 0.983002
0.224426 1.000000 0.983002
0.224426 1.000000 0.983002
0.261871 1.000000 0.982910
0.660950 1.000000 0.989136
0.802917 1.000000 0.990204
0.811584 1.000000 0.990448
