example/assets/luts/lut5.cube
#LUT size
LUT_3D_SIZE 5
#LUT data points
0.000000 0.020416 0.035583
0.004120 0.030670 0.044067
0.401489 0.065796 0.070923
0.796295 0.261841 0.102600
0.796295 0.261841 0.102600
0.000000 0.020416 0.035583
0.000000 0.020416 0.035583
0.357971 0.063507 0.069824
0.796295 0.261841 0.102600
0.796295 0.261841 0.102600
0.109131 0.352875 0.019714
0.101135 0.340118 0.020630
0.294281 0.321747 0.032593
0.801208 0.340210 0.107086
0.799194 0.309387 0.103241
0.434753 0.886444 0.137726
0.433655 0.882050 0.135864
0.426270 0.867432 0.131836
0.822693 0.841919 0.202423
0.874573 0.830566 0.212280
0.460663 0.947266 0.156281
0.460663 0.947266 0.156281
0.460663 0.947266 0.156281
0.789917 0.957458 0.212250
0.896515 0.967010 0.239777
0.000000 0.020416 0.035583
0.000000 0.029236 0.042999
0.393860 0.065430 0.070770
0.796295 0.261841 0.102600
0.796295 0.261841 0.102600
0.000000 0.020416 0.035583
0.000000 0.020416 0.035583
0.351471 0.063141 0.069672
0.796295 0.261841 0.102600
0.796295 0.261841 0.102600
0.107819 0.350647 0.019867
0.099884 0.337189 0.020844
0.288239 0.319061 0.032532
0.801086 0.338989 0.106934
0.799194 0.309174 0.103210
0.434601 0.885895 0.137604
0.433594 0.881866 0.135803
0.425873 0.866760 0.131622
0.819580 0.840698 0.200470
0.874207 0.829559 0.212372
0.460663 0.947266 0.156281
0.460663 0.947266 0.156281
0.460663 0.947266 0.156281
0.788605 0.957428 0.212097
0.896515 0.967010 0.239777
0.000000 0.020233 0.329071
0.000000 0.023132 0.325806
0.303864 0.110962 0.373535
0.773071 0.299408 0.419220
0.764709 0.310791 0.485992
0.000000 0.019287 0.320343
0.000000 0.019257 0.316315
0.262451 0.095612 0.360321
0.773102 0.299408 0.417236
0.765991 0.309875 0.475708
0.042267 0.351196 0.318024
0.031219 0.337341 0.312775
0.229004 0.321259 0.323151
0.782532 0.368134 0.393890
0.773254 0.348358 0.448059
0.420258 0.893433 0.290527
0.418335 0.887085 0.287384
0.411377 0.873840 0.279846
0.811096 0.846741 0.304413
0.862396 0.840729 0.381470
0.452759 0.952545 0.264160
0.453064 0.952545 0.261810
0.454590 0.952637 0.254578
0.780701 0.962738 0.279327
0.888519 0.978333 0.362579
0.000000 0.195190 0.902344
0.000000 0.194672 0.900543
0.000000 0.237091 0.909546
0.666443 0.417511 0.988342
0.659821 0.426453 0.992371
0.000000 0.193390 0.896454
0.000000 0.192993 0.895264
0.000000 0.226654 0.903229
0.667358 0.416718 0.987671
0.661041 0.425140 0.992218
0.000000 0.403320 0.898560
0.000000 0.393951 0.894745
0.000000 0.374390 0.891083
0.681488 0.462830 0.984375
0.669922 0.450043 0.990173
0.216888 0.937408 0.885315
0.214172 0.933502 0.885040
0.204803 0.917572 0.878784
0.711884 0.893341 0.899353
0.779144 0.888458 0.960541
0.296387 0.992310 0.873566
0.296906 0.992310 0.872467
0.299835 0.992340 0.865448
0.697083 0.999481 0.879730
0.825043 1.000000 0.979675
0.000000 0.227295 0.972382
0.000000 0.227295 0.972382
0.000000 0.263702 0.973511
0.644165 0.436401 0.991516
0.811584 1.000000 0.990448
0.000000 0.227295 0.972382
0.000000 0.227295 0.972382
0.000000 0.255005 0.972656
0.644165 0.436401 0.991516
0.811584 1.000000 0.990448
0.000000 0.424561 0.971680
0.000000 0.414062 0.971802
0.000000 0.395599 0.971985
0.655121 0.481903 0.989136
0.811584 1.000000 0.990448
0.118164 0.947723 0.962891
0.110809 0.942749 0.963165
0.084381 0.928375 0.963928
0.676239 0.908813 0.962555
0.811584 1.000000 0.990448
0.224426 1.000000 0.983002
0.224426 1.000000 0.983002
0.224426 1.000000 0.983002
0.660950 1.000000 0.989136
0.811584 1.000000 0.990448
