example/assets/luts/lut6.cube
#LUT size
LUT_3D_SIZE 5
#LUT data points
0.000000 0.004944 0.000000
0.070709 0.031464 0.017151
0.579865 0.167297 0.050598
0.824463 0.290253 0.104156
0.824463 0.290253 0.104156
0.000000 0.004944 0.000000
0.000000 0.004944 0.000000
0.541565 0.153778 0.045868
0.824463 0.290253 0.104156
0.824463 0.290253 0.104156
0.013733 0.408051 0.105164
0.000793 0.386322 0.096252
0.322998 0.351379 0.084045
0.826202 0.346039 0.115723
0.825439 0.331421 0.111877
0.326691 0.822144 0.303864
0.327576 0.823120 0.304718
0.323120 0.814484 0.298096
0.841278 0.813507 0.294434
0.859070 0.794006 0.284973
0.328247 0.823120 0.305817
0.328247 0.823120 0.305817
0.328247 0.823120 0.305817
0.756226 0.863617 0.317108
0.857697 0.878235 0.326569
0.000000 0.004944 0.000000
0.051239 0.027008 0.012360
0.579285 0.167328 0.050446
0.824463 0.290253 0.104156
0.824463 0.290253 0.104156
0.000000 0.004944 0.000000
0.000000 0.004944 0.000000
0.531830 0.149902 0.044128
0.824463 0.290253 0.104156
0.824463 0.290253 0.104156
0.001709 0.390045 0.098602
0.000000 0.375580 0.091797
0.298920 0.344543 0.080536
0.825714 0.342377 0.115234
0.825714 0.327271 0.110413
0.324890 0.817627 0.300598
0.327271 0.823090 0.304718
0.323730 0.815643 0.298584
0.831635 0.816711 0.295654
0.858978 0.798431 0.287018
0.328247 0.823120 0.305817
0.328247 0.823120 0.305817
0.328247 0.823120 0.305817
0.748077 0.862579 0.316895
0.857697 0.878235 0.326569
0.000000 0.154755 0.536987
0.000000 0.155151 0.525909
0.584625 0.303009 0.557220
0.851166 0.412354 0.550598
0.851929 0.419769 0.578369
0.000000 0.137085 0.492676
0.000000 0.126404 0.465881
0.515381 0.260223 0.492737
0.846710 0.388947 0.480591
0.849487 0.394714 0.499878
0.000000 0.434906 0.458313
0.000000 0.417206 0.419067
0.254761 0.378357 0.375977
0.840210 0.387848 0.363770
0.840973 0.378082 0.385559
0.303955 0.819946 0.392273
0.316254 0.826538 0.361633
0.317505 0.815765 0.327026
0.819611 0.815613 0.297333
0.858917 0.800232 0.310089
0.326996 0.826782 0.326904
0.328278 0.823975 0.314911
0.328247 0.823120 0.306549
0.733002 0.862183 0.316559
0.857697 0.878235 0.326965
0.145233 0.321564 0.908813
0.145233 0.321564 0.908813
0.584991 0.430725 0.944580
0.867767 0.553009 0.989929
0.867767 0.553009 0.989929
0.145233 0.321564 0.908813
0.145233 0.321564 0.908813
0.506500 0.407349 0.937347
0.867767 0.553009 0.989929
0.867767 0.553009 0.989929
0.022705 0.552795 0.936371
0.021851 0.549744 0.935944
0.220795 0.507904 0.928223
0.865997 0.558350 0.981140
0.866699 0.550781 0.987885
0.171570 0.914093 0.959076
0.184753 0.933411 0.937347
0.188629 0.924530 0.906799
0.779205 0.911102 0.873779
0.845062 0.897919 0.906647
0.204376 0.955719 0.908997
0.204987 0.949493 0.887573
0.214600 0.943268 0.852112
0.668335 0.968445 0.817444
0.843353 1.000000 0.852417
0.145233 0.321564 0.908813
0.145233 0.321564 0.908813
0.576630 0.427673 0.943024
0.867767 0.553009 0.989929
0.849701 1.000000 1.000000
0.145233 0.321564 0.908813
0.145233 0.321564 0.908813
0.485901 0.400757 0.933868
0.867767 0.553009 0.989929
0.849701 1.000000 1.000000
0.026031 0.547394 0.935730
0.028076 0.543335 0.934784
0.186432 0.501160 0.928497
0.867401 0.562012 0.989838
0.849701 1.000000 1.000000
0.164093 0.905914 0.968506
0.173737 0.932098 0.968079
0.174316 0.930725 0.968109
0.763519 0.925415 0.980164
0.849701 1.000000 1.000000
0.190948 0.967316 0.967499
0.190948 0.967316 0.967499
0.190948 0.967316 0.967499
0.630035 1.000000 0.975616
0.849701 1.000000 1.000000
