example/assets/luts/lut6.cube
#LUT size
LUT_3D_SIZE 17
#LUT data points
0.000000 0.004944 0.000000
0.000000 0.004944 0.000000
0.000000 0.004944 0.000000
0.000000 0.008423 0.000000
0.070709 0.031464 0.017151
0.144287 0.060486 0.037537
0.268250 0.081451 0.046936
0.416992 0.116699 0.040314
0.579865 0.167297 0.050598
0.720703 0.229889 0.076569
0.817230 0.285583 0.101562
0.824463 0.290253 0.104156
0.824463 0.290253 0.104156
0.824463 0.290253 0.104156
0.824463 0.290253 0.104156
0.824463 0.290253 0.104156
0.824463 0.290253 0.104156
0.000000 0.004944 0.000000
0.000000 0.004944 0.000000
0.000000 0.004944 0.000000
0.000000 0.008362 0.000000
0.070557 0.031433 0.017120
0.144135 0.060425 0.037476
0.268188 0.081451 0.046936
0.416931 0.116669 0.040314
0.579926 0.167328 0.050629
0.720917 0.229980 0.076630
0.817444 0.285645 0.101624
0.824463 0.290253 0.104156
0.824463 0.290253 0.104156
0.824463 0.290253 0.104156
0.824463 0.290253 0.104156
0.824463 0.290253 0.104156
0.824463 0.290253 0.104156
0.000000 0.004944 0.000000
0.000000 0.004944 0.000000
0.000000 0.004944 0.000000
0.000000 0.004944 0.000000
0.000000 0.015808 0.000916
0.109436 0.042694 0.027771
0.236786 0.076050 0.046967
0.397644 0.111694 0.041412
0.572998 0.165039 0.049103
0.721558 0.230621 0.076843
0.821075 0.287811 0.102936
0.824463 0.290253 0.104156
0.824463 0.290253 0.104156
0.824463 0.290253 0.104156
0.824463 0.290253 0.104156
0.824463 0.290253 0.104156
0.824463 0.290253 0.104156
0.000000 0.004944 0.000000
0.000000 0.004944 0.000000
0.000000 0.004944 0.000000
0.000000 0.004944 0.000000
0.000000 0.004944 0.000000
0.075226 0.032562 0.018341
0.203705 0.069092 0.046814
0.370911 0.105347 0.042725
0.556519 0.160095 0.047455
0.721313 0.229492 0.076508
0.823608 0.289276 0.103851
0.824463 0.290253 0.104156
0.824463 0.290253 0.104156
0.824463 0.290253 0.104156
0.824463 0.290253 0.104156
0.824463 0.290253 0.104156
0.824463 0.290253 0.104156
0.000000 0.004944 0.000000
0.000000 0.004944 0.000000
0.000000 0.004944 0.000000
0.000000 0.004944 0.000000
0.000000 0.004944 0.000000
0.017914 0.021179 0.006134
0.167847 0.064240 0.042847
0.345062 0.098694 0.044098
0.541565 0.153778 0.045868
0.715027 0.226776 0.075500
0.823608 0.289520 0.103851
0.824463 0.290253 0.104156
0.824463 0.290253 0.104156
0.824463 0.290253 0.104156
0.824463 0.290253 0.104156
0.824463 0.290253 0.104156
0.824463 0.290253 0.104156
0.000000 0.072510 0.000000
0.000000 0.072449 0.000000
0.000000 0.056610 0.000000
0.000000 0.035797 0.000000
0.000000 0.011871 0.000000
0.000000 0.005493 0.000000
0.126953 0.055725 0.032806
0.312103 0.092255 0.045074
0.518433 0.146271 0.042084
0.703339 0.222229 0.074127
0.822937 0.288910 0.103638
0.824463 0.290253 0.104156
0.824463 0.290253 0.104156
0.824463 0.290253 0.104156
0.824463 0.290253 0.104156
0.824463 0.290253 0.104156
0.824463 0.290253 0.104156
0.000000 0.149414 0.000000
0.000000 0.149384 0.000000
0.000000 0.144073 0.000000
0.000000 0.130707 0.000000
0.000000 0.121460 0.000000
0.000000 0.113678 0.000000
0.051117 0.114624 0.000000
0.252045 0.132538 0.026581
0.479004 0.156372 0.039001
0.684540 0.213409 0.070038
0.816437 0.285187 0.101288
0.824463 0.290253 0.104156
0.824463 0.290253 0.104156
0.824463 0.290253 0.104156
0.824463 0.290253 0.104156
0.824463 0.290253 0.104156
0.824463 0.290253 0.104156
0.000000 0.261963 0.041443
0.000000 0.261932 0.041443
0.000000 0.257233 0.039185
0.000000 0.246094 0.032806
0.000000 0.232666 0.027283
0.000000 0.219971 0.018494
0.000000 0.205109 0.007477
0.164001 0.217224 0.020721
0.410034 0.231323 0.047455
0.645630 0.251556 0.074066
0.797729 0.290070 0.099731
0.824280 0.293182 0.103973
0.824463 0.290466 0.104126
0.824463 0.290253 0.104156
0.824463 0.290253 0.104156
0.824463 0.290253 0.104156
0.824463 0.290253 0.104156
0.013733 0.408051 0.105164
0.013733 0.408051 0.105164
0.012604 0.406647 0.104736
0.004486 0.394470 0.100647
0.000793 0.386322 0.096252
0.000000 0.370422 0.090454
0.000000 0.351379 0.082123
0.047821 0.339264 0.076080
0.322998 0.351379 0.084045
0.589447 0.364044 0.099915
0.771912 0.377411 0.116791
0.826874 0.368591 0.121277
0.826202 0.346039 0.115723
0.825439 0.332092 0.112183
0.825684 0.327759 0.110565
0.825470 0.331299 0.111847
0.825439 0.331421 0.111877
0.144440 0.566284 0.177856
0.144501 0.566345 0.177887
0.146271 0.568054 0.178955
0.141785 0.562256 0.176422
0.137268 0.556396 0.173889
0.128113 0.541901 0.169067
0.115326 0.525970 0.161591
0.100861 0.507812 0.149475
0.225403 0.496490 0.144348
0.518127 0.509735 0.148529
0.736969 0.514801 0.155243
0.837250 0.511810 0.163391
0.834259 0.483856 0.149963
0.832825 0.467407 0.144897
0.833191 0.458984 0.142670
0.833099 0.461243 0.143250
0.833099 0.461304 0.143280
0.236450 0.693817 0.236450
0.236542 0.693909 0.236481
0.239227 0.697144 0.238373
0.237823 0.695160 0.237518
0.236267 0.693207 0.236298
0.232178 0.687866 0.233826
0.224457 0.676910 0.228424
0.215515 0.664337 0.221649
0.202881 0.644623 0.214935
0.422821 0.645782 0.210602
0.687378 0.654205 0.208221
0.825989 0.652618 0.214722
0.848511 0.635040 0.208557
0.846680 0.617676 0.201508
0.845703 0.607361 0.197998
0.845734 0.605896 0.197418
0.845734 0.605896 0.197418
0.294830 0.773499 0.279083
0.294830 0.773529 0.279114
0.296387 0.776337 0.280945
0.296326 0.775909 0.281006
0.296173 0.775543 0.280823
0.295288 0.773773 0.279755
0.292450 0.769318 0.276764
0.286682 0.762726 0.271332
0.279541 0.751923 0.265869
0.321991 0.740601 0.260864
0.608063 0.749542 0.259705
0.781433 0.751862 0.257111
0.856445 0.745514 0.257996
0.856689 0.733582 0.251831
0.854218 0.723541 0.247589
0.853760 0.720215 0.245911
0.853729 0.720154 0.245880
0.326691 0.822144 0.303864
0.326721 0.822205 0.303894
0.327179 0.823090 0.304657
0.327454 0.823090 0.304688
0.327576 0.823120 0.304718
0.327545 0.823120 0.304016
0.327332 0.823090 0.303833
0.325897 0.820251 0.302002
0.323120 0.814484 0.298096
0.315979 0.805237 0.292542
0.516754 0.805939 0.291046
0.732391 0.812775 0.291321
0.841278 0.813507 0.294434
0.858795 0.806152 0.290985
0.858978 0.798401 0.286865
0.859070 0.794067 0.285004
0.859070 0.794006 0.284973
0.328247 0.823120 0.305817
0.328247 0.823120 0.305817
0.328247 0.823120 0.305817
0.328247 0.823120 0.305817
0.328247 0.823120 0.305817
0.328247 0.823120 0.305817
0.328247 0.823120 0.305817
0.328247 0.823120 0.305817
0.328247 0.823120 0.305817
0.328247 0.823120 0.305695
0.431061 0.831879 0.306427
0.681091 0.852600 0.312683
0.805511 0.858887 0.314209
0.858002 0.855164 0.312469
0.858124 0.847168 0.310059
0.858124 0.844055 0.309143
0.858124 0.844025 0.309113
0.328247 0.823120 0.305817
0.328247 0.823120 0.305817
0.328247 0.823120 0.305817
0.328247 0.823120 0.305817
0.328247 0.823120 0.305817
0.328247 0.823120 0.305817
0.328247 0.823120 0.305817
0.328247 0.823120 0.305817
0.328247 0.823120 0.305817
0.328247 0.823120 0.305817
0.361237 0.826904 0.306366
0.628754 0.847748 0.310852
0.776611 0.867523 0.317505
0.854431 0.878143 0.322235
0.857697 0.878235 0.323425
0.857697 0.877991 0.323303
0.857697 0.877960 0.323303
0.328247 0.823120 0.305817
0.328247 0.823120 0.305817
0.328247 0.823120 0.305817
0.328247 0.823120 0.305817
0.328247 0.823120 0.305817
0.328247 0.823120 0.305817
0.328247 0.823120 0.305817
0.328247 0.823120 0.305817
0.328247 0.823120 0.305817
0.328247 0.823120 0.305817
0.338135 0.823273 0.306000
0.590576 0.846222 0.310120
0.756439 0.863647 0.317108
0.839722 0.876038 0.321136
0.857697 0.878235 0.326569
0.857697 0.878235 0.326569
0.857697 0.878235 0.326569
0.328247 0.823120 0.305817
0.328247 0.823120 0.305817
0.328247 0.823120 0.305817
0.328247 0.823120 0.305817
0.328247 0.823120 0.305817
0.328247 0.823120 0.305817
0.328247 0.823120 0.305817
0.328247 0.823120 0.305817
0.328247 0.823120 0.305817
0.328247 0.823120 0.305817
0.337982 0.823273 0.306000
0.590179 0.846130 0.310120
0.756226 0.863617 0.317108
0.839600 0.876007 0.321136
0.857697 0.878235 0.326569
0.857697 0.878235 0.326569
0.857697 0.878235 0.326569
0.000000 0.004944 0.000000
0.000000 0.004944 0.000000
0.000000 0.004944 0.000000
0.000000 0.008423 0.000000
0.070679 0.031464 0.017151
0.144257 0.060486 0.037537
0.268250 0.081451 0.046936
0.416992 0.116699 0.040314
0.579895 0.167297 0.050629
0.720795 0.229919 0.076599
0.817291 0.285583 0.101562
0.824463 0.290253 0.104156
0.824463 0.290253 0.104156
0.824463 0.290253 0.104156
0.824463 0.290253 0.104156
0.824463 0.290253 0.104156
0.824463 0.290253 0.104156
0.000000 0.004944 0.000000
0.000000 0.004944 0.000000
0.000000 0.004944 0.000000
0.000000 0.008362 0.000000
0.070526 0.031433 0.017090
0.144104 0.060425 0.037476
0.268188 0.081421 0.046936
0.416931 0.116669 0.040314
0.579956 0.167328 0.050629
0.720978 0.230042 0.076630
0.817444 0.285645 0.101624
0.824463 0.290253 0.104156
0.824463 0.290253 0.104156
0.824463 0.290253 0.104156
0.824463 0.290253 0.104156
0.824463 0.290253 0.104156
0.824463 0.290253 0.104156
0.000000 0.004944 0.000000
0.000000 0.004944 0.000000
0.000000 0.004944 0.000000
0.000000 0.004944 0.000000
0.000000 0.015808 0.000916
0.109406 0.042664 0.027771
0.236816 0.076080 0.046967
0.397644 0.111694 0.041412
0.572998 0.165039 0.049103
0.721588 0.230652 0.076843
0.821106 0.287811 0.102936
0.824463 0.290253 0.104156
0.824463 0.290253 0.104156
0.824463 0.290253 0.104156
0.824463 0.290253 0.104156
0.824463 0.290253 0.104156
0.824463 0.290253 0.104156
0.000000 0.004944 0.000000
0.000000 0.004944 0.000000
0.000000 0.004944 0.000000
0.000000 0.004944 0.000000
0.000000 0.004944 0.000000
0.075195 0.032562 0.018341
0.203674 0.069092 0.046814
0.370850 0.105347 0.042725
0.556488 0.160095 0.047455
0.721344 0.229492 0.076508
0.823639 0.289276 0.103851
0.824463 0.290253 0.104156
0.824463 0.290253 0.104156
0.824463 0.290253 0.104156
0.824463 0.290253 0.104156
0.824463 0.290253 0.104156
0.824463 0.290253 0.104156
0.000000 0.004944 0.000000
0.000000 0.004944 0.000000
0.000000 0.004944 0.000000
0.000000 0.004944 0.000000
0.000000 0.004944 0.000000
0.017853 0.021179 0.006134
0.167786 0.064209 0.042816
0.344971 0.098663 0.044128
0.541504 0.153778 0.045868
0.714966 0.226746 0.075470
0.823608 0.289520 0.103851
0.824463 0.290253 0.104156
0.824463 0.290253 0.104156
0.824463 0.290253 0.104156
0.824463 0.290253 0.104156
0.824463 0.290253 0.104156
0.824463 0.290253 0.104156
0.000000 0.072479 0.000000
0.000000 0.072388 0.000000
0.000000 0.056549 0.000000
0.000000 0.035767 0.000000
0.000000 0.011841 0.000000
0.000000 0.005493 0.000000
0.126923 0.055695 0.032806
0.312042 0.092224 0.045074
0.518372 0.146240 0.042084
0.703308 0.222198 0.074127
0.822937 0.288910 0.103607
0.824463 0.290253 0.104156
0.824463 0.290253 0.104156
0.824463 0.290253 0.104156
0.824463 0.290253 0.104156
0.824463 0.290253 0.104156
0.824463 0.290253 0.104156
0.000000 0.149384 0.000000
0.000000 0.149323 0.000000
0.000000 0.144043 0.000000
0.000000 0.130676 0.000000
0.000000 0.121429 0.000000
0.000000 0.113647 0.000000
0.051056 0.114594 0.000000
0.251984 0.132507 0.026581
0.478912 0.156342 0.038971
0.684479 0.213409 0.070038
0.816437 0.285187 0.101288
0.824463 0.290253 0.104156
0.824463 0.290253 0.104156
0.824463 0.290253 0.104156
0.824463 0.290253 0.104156
0.824463 0.290253 0.104156
0.824463 0.290253 0.104156
0.000000 0.261902 0.041412
0.000000 0.261871 0.041412
0.000000 0.257202 0.039154
0.000000 0.246063 0.032806
0.000000 0.232605 0.027252
0.000000 0.219940 0.018494
0.000000 0.205109 0.007446
0.163940 0.217194 0.020691
0.409943 0.231323 0.047455
0.645599 0.251556 0.074066
0.797729 0.290070 0.099731
0.824280 0.293182 0.103973
0.824463 0.290466 0.104126
0.824463 0.290253 0.104156
0.824463 0.290253 0.104156
0.824463 0.290253 0.104156
0.824463 0.290253 0.104156
0.013641 0.407990 0.105133
0.013641 0.407990 0.105133
0.012573 0.406586 0.104736
0.004456 0.394440 0.100647
0.000763 0.386261 0.096222
0.000000 0.370392 0.090454
0.000000 0.351379 0.082123
0.047760 0.339264 0.076080
0.322906 0.351349 0.084015
0.589386 0.364014 0.099915
0.771851 0.377441 0.116791
0.826874 0.368622 0.121277
0.826202 0.346039 0.115723
0.825439 0.332092 0.112183
0.825684 0.327759 0.110565
0.825470 0.331299 0.111847
0.825439 0.331421 0.111877
0.144409 0.566223 0.177826
0.144470 0.566284 0.177856
0.146240 0.568024 0.178955
0.141785 0.562256 0.176422
0.137238 0.556396 0.173859
0.128082 0.541901 0.169067
0.115326 0.525970 0.161621
0.100861 0.507843 0.149475
0.225311 0.496460 0.144348
0.518005 0.509735 0.148529
0.736908 0.514801 0.155243
0.837250 0.511810 0.163391
0.834259 0.483887 0.149994
0.832825 0.467438 0.144897
0.833191 0.459015 0.142670
0.833099 0.461273 0.143280
0.833099 0.461334 0.143280
0.236450 0.693787 0.236420
0.236481 0.693848 0.236450
0.239197 0.697113 0.238342
0.237793 0.695099 0.237518
0.236267 0.693207 0.236298
0.232178 0.687836 0.233826
0.224457 0.676910 0.228424
0.215515 0.664337 0.221649
0.202881 0.644684 0.214935
0.422699 0.645782 0.210602
0.687317 0.654236 0.208221
0.825958 0.652649 0.214722
0.848511 0.635101 0.208588
0.846680 0.617737 0.201508
0.845703 0.607391 0.198029
0.845734 0.605927 0.197418
0.845734 0.605927 0.197418
0.294800 0.773438 0.279053
0.294830 0.773499 0.279083
0.296387 0.776306 0.280945
0.296326 0.775909 0.281006
0.296173 0.775543 0.280823
0.295288 0.773773 0.279755
0.292450 0.769348 0.276764
0.286682 0.762756 0.271332
0.279541 0.751953 0.265869
0.321869 0.740601 0.260895
0.607971 0.749603 0.259705
0.781372 0.751892 0.257141
0.856445 0.745575 0.258026
0.856689 0.733612 0.251862
0.854218 0.723572 0.247589
0.853760 0.720245 0.245911
0.853760 0.720215 0.245911
0.326691 0.822144 0.303864
0.326721 0.822174 0.303864
0.327179 0.823090 0.304657
0.327454 0.823090 0.304688
0.327576 0.823120 0.304718
0.327545 0.823120 0.304016
0.327332 0.823090 0.303833
0.325897 0.820251 0.302002
0.323151 0.814514 0.298096
0.315979 0.805267 0.292542
0.516632 0.805969 0.291046
0.732300 0.812805 0.291321
0.841248 0.813568 0.294434
0.858795 0.806152 0.290985
0.858978 0.798462 0.286896
0.859070 0.794098 0.285004
0.859070 0.794037 0.284973
0.328247 0.823120 0.305817
0.328247 0.823120 0.305817
0.328247 0.823120 0.305817
0.328247 0.823120 0.305817
0.328247 0.823120 0.305817
0.328247 0.823120 0.305817
0.328247 0.823120 0.305817
0.328247 0.823120 0.305817
0.328247 0.823120 0.305817
0.328247 0.823120 0.305695
0.430908 0.831879 0.306427
0.681000 0.852600 0.312683
0.805481 0.858917 0.314209
0.858002 0.855194 0.312469
0.858124 0.847198 0.310089
0.858124 0.844055 0.309143
0.858124 0.844055 0.309143
0.328247 0.823120 0.305817
0.328247 0.823120 0.305817
0.328247 0.823120 0.305817
0.328247 0.823120 0.305817
0.328247 0.823120 0.305817
0.328247 0.823120 0.305817
0.328247 0.823120 0.305817
0.328247 0.823120 0.305817
0.328247 0.823120 0.305817
0.328247 0.823120 0.305817
0.361145 0.826904 0.306366
0.628632 0.847748 0.310852
0.776550 0.867523 0.317505
0.854401 0.878143 0.322205
0.857697 0.878235 0.323425
0.857697 0.877991 0.323334
0.857697 0.877960 0.323303
0.328247 0.823120 0.305817
0.328247 0.823120 0.305817
0.328247 0.823120 0.305817
0.328247 0.823120 0.305817
0.328247 0.823120 0.305817
0.328247 0.823120 0.305817
0.328247 0.823120 0.305817
0.328247 0.823120 0.305817
0.328247 0.823120 0.305817
0.328247 0.823120 0.305817
0.338104 0.823273 0.306000
0.590485 0.846191 0.310120
0.756409 0.863647 0.317108
0.839691 0.876007 0.321136
0.857697 0.878235 0.326569
0.857697 0.878235 0.326569
0.857697 0.878235 0.326569
0.328247 0.823120 0.305817
0.328247 0.823120 0.305817
0.328247 0.823120 0.305817
0.328247 0.823120 0.305817
0.328247 0.823120 0.305817
0.328247 0.823120 0.305817
0.328247 0.823120 0.305817
0.328247 0.823120 0.305817
0.328247 0.823120 0.305817
0.328247 0.823120 0.305817
0.337952 0.823273 0.306000
0.590118 0.846100 0.310120
0.756195 0.863586 0.317108
0.839569 0.875977 0.321136
0.857697 0.878235 0.326569
0.857697 0.878235 0.326569
0.857697 0.878235 0.326569
0.000000 0.004944 0.000000
0.000000 0.004944 0.000000
0.000000 0.004944 0.000000
0.000000 0.005463 0.000000
0.064392 0.029938 0.015533
0.137939 0.058716 0.035828
0.265564 0.080933 0.046997
0.414978 0.116150 0.040436
0.580963 0.167786 0.050812
0.722992 0.231232 0.077179
0.819092 0.286438 0.102203
0.824463 0.290253 0.104156
0.824463 0.290253 0.104156
0.824463 0.290253 0.104156
0.824463 0.290253 0.104156
0.824463 0.290253 0.104156
0.824463 0.290253 0.104156
0.000000 0.004944 0.000000
0.000000 0.004944 0.000000
0.000000 0.004944 0.000000
0.000000 0.005463 0.000000
0.064240 0.029938 0.015503
0.137787 0.058655 0.035797
0.265472 0.080902 0.046997
0.414948 0.116119 0.040436
0.580994 0.167786 0.050842
0.723206 0.231323 0.077209
0.819275 0.286530 0.102264
0.824463 0.290253 0.104156
0.824463 0.290253 0.104156
0.824463 0.290253 0.104156
0.824463 0.290253 0.104156
0.824463 0.290253 0.104156
0.824463 0.290253 0.104156
0.000000 0.004944 0.000000
0.000000 0.004944 0.000000
0.000000 0.004944 0.000000
0.000000 0.004944 0.000000
0.000000 0.012421 0.000000
0.105682 0.040863 0.026703
0.232819 0.074951 0.047089
0.395233 0.111115 0.041534
0.571350 0.165009 0.048920
0.723541 0.231781 0.077332
0.822723 0.288513 0.103546
0.824463 0.290253 0.104156
0.824463 0.290253 0.104156
0.824463 0.290253 0.104156
0.824463 0.290253 0.104156
0.824463 0.290253 0.104156
0.824463 0.290253 0.104156
0.000000 0.004944 0.000000
0.000000 0.004944 0.000000
0.000000 0.004944 0.000000
0.000000 0.004944 0.000000
0.000000 0.004944 0.000000
0.069336 0.031128 0.016785
0.198761 0.068207 0.046600
0.368225 0.104675 0.042877
0.555603 0.159760 0.047363
0.721283 0.229553 0.076538
0.824219 0.289551 0.104065
0.824463 0.290253 0.104156
0.824463 0.290253 0.104156
0.824463 0.290253 0.104156
0.824463 0.290253 0.104156
0.824463 0.290253 0.104156
0.824463 0.290253 0.104156
0.000000 0.004944 0.000000
0.000000 0.004944 0.000000
0.000000 0.004944 0.000000
0.000000 0.004944 0.000000
0.000000 0.004944 0.000000
0.011108 0.020386 0.005280
0.163574 0.063873 0.042023
0.341827 0.097839 0.044281
0.539764 0.152954 0.045532
0.714294 0.226471 0.075378
0.823914 0.289673 0.103943
0.824463 0.290253 0.104156
0.824463 0.290253 0.104156
0.824463 0.290253 0.104156
0.824463 0.290253 0.104156
0.824463 0.290253 0.104156
0.824463 0.290253 0.104156
0.000000 0.068695 0.000000
0.000000 0.068634 0.000000
0.000000 0.053986 0.000000
0.000000 0.032440 0.000000
0.000000 0.010010 0.000000
0.000000 0.004944 0.000000
0.124390 0.053345 0.032043
0.308380 0.091644 0.045135
0.515076 0.145325 0.041595
0.702026 0.221588 0.073883
0.822845 0.288818 0.103607
0.824463 0.290253 0.104156
0.824463 0.290253 0.104156
0.824463 0.290253 0.104156
0.824463 0.290253 0.104156
0.824463 0.290253 0.104156
0.824463 0.290253 0.104156
0.000000 0.146179 0.000000
0.000000 0.146149 0.000000
0.000000 0.141846 0.000000
0.000000 0.128601 0.000000
0.000000 0.120209 0.000000
0.000000 0.112671 0.000000
0.047150 0.112854 0.000000
0.247131 0.131104 0.026489
0.474640 0.154785 0.038422
0.682068 0.212463 0.069489
0.815491 0.284668 0.100983
0.824463 0.290253 0.104156
0.824463 0.290253 0.104156
0.824463 0.290253 0.104156
0.824463 0.290253 0.104156
0.824463 0.290253 0.104156
0.824463 0.290253 0.104156
0.000000 0.257904 0.039551
0.000000 0.257874 0.039551
0.000000 0.254028 0.037262
0.000000 0.243195 0.031433
0.000000 0.230194 0.025970
0.000000 0.218689 0.017426
0.000000 0.203552 0.006287
0.158661 0.215607 0.019531
0.404724 0.229950 0.046387
0.642090 0.250305 0.073517
0.796265 0.289093 0.099487
0.824280 0.293030 0.103973
0.824463 0.290436 0.104126
0.824463 0.290253 0.104156
0.824463 0.290253 0.104156
0.824463 0.290253 0.104156
0.824463 0.290253 0.104156
0.009460 0.402496 0.103790
0.009491 0.402527 0.103821
0.009186 0.402130 0.103699
0.002533 0.391235 0.099274
0.000244 0.383850 0.095184
0.000000 0.368469 0.089722
0.000000 0.350189 0.081451
0.041473 0.338135 0.075104
0.316406 0.350220 0.083282
0.584442 0.363159 0.099304
0.769562 0.376831 0.116455
0.826874 0.368835 0.121277
0.826172 0.345856 0.115723
0.825439 0.331726 0.112030
0.825714 0.327332 0.110443
0.825500 0.330627 0.111542
0.825500 0.330719 0.111572
0.140625 0.561218 0.175659
0.140686 0.561249 0.175659
0.142853 0.564148 0.176941
0.139374 0.559174 0.175079
0.135864 0.554077 0.173187
0.127045 0.540466 0.168518
0.114929 0.525452 0.161346
0.100983 0.507935 0.149536
0.217773 0.496216 0.144379
0.511230 0.509949 0.148590
0.733368 0.515625 0.155487
0.837433 0.513214 0.163818
0.834442 0.485199 0.150299
0.832764 0.468445 0.145172
0.833160 0.459839 0.142914
0.833069 0.461884 0.143433
0.833069 0.461945 0.143463
0.233887 0.690674 0.234985
0.233948 0.690735 0.234985
0.237183 0.694672 0.236938
0.236298 0.693329 0.236450
0.235321 0.691986 0.235626
0.231628 0.687164 0.233521
0.224426 0.676880 0.228394
0.215912 0.664825 0.221893
0.203186 0.646057 0.215393
0.414276 0.646362 0.210876
0.682495 0.655579 0.208862
0.823242 0.654327 0.214691
0.848450 0.637421 0.209351
0.847198 0.620148 0.202362
0.845673 0.609497 0.198853
0.845703 0.607880 0.198273
0.845703 0.607880 0.198273
0.293884 0.771790 0.277802
0.293915 0.771881 0.277863
0.295563 0.774811 0.280060
0.295807 0.774963 0.280426
0.295837 0.774902 0.280426
0.295166 0.773590 0.279602
0.292542 0.769501 0.276917
0.287262 0.763367 0.271881
0.280029 0.753113 0.266327
0.315063 0.741791 0.261505
0.601135 0.750977 0.260468
0.778046 0.753143 0.257996
0.856384 0.747894 0.259766
0.856781 0.735687 0.252899
0.854919 0.725891 0.248718
0.854095 0.722473 0.247070
0.854095 0.722473 0.247040
0.326324 0.821228 0.303162
0.326324 0.821259 0.303223
0.327118 0.823090 0.304596
0.327332 0.823090 0.304688
0.327545 0.823120 0.304718
0.327545 0.823120 0.304016
0.327362 0.823090 0.303864
0.326172 0.820801 0.302338
0.323547 0.815277 0.298737
0.316925 0.806519 0.293243
0.508209 0.807373 0.291718
0.728149 0.814178 0.292480
0.838257 0.815186 0.295197
0.858765 0.808167 0.292389
0.858917 0.800812 0.288025
0.859039 0.795959 0.285889
0.859039 0.795959 0.285889
0.328247 0.823120 0.305817
0.328247 0.823120 0.305817
0.328247 0.823120 0.305817
0.328247 0.823120 0.305817
0.328247 0.823120 0.305817
0.328247 0.823120 0.305817
0.328247 0.823120 0.305817
0.328247 0.823120 0.305817
0.328247 0.823120 0.305817
0.328247 0.823120 0.305756
0.421906 0.830719 0.306274
0.674774 0.852295 0.313080
0.802704 0.859985 0.314667
0.857971 0.857025 0.313019
0.858093 0.849091 0.310638
0.858124 0.845734 0.309662
0.858124 0.845703 0.309631
0.328247 0.823120 0.305817
0.328247 0.823120 0.305817
0.328247 0.823120 0.305817
0.328247 0.823120 0.305817
0.328247 0.823120 0.305817
0.328247 0.823120 0.305817
0.328247 0.823120 0.305817
0.328247 0.823120 0.305817
0.328247 0.823120 0.305817
0.328247 0.823120 0.305817
0.357391 0.825653 0.306305
0.621613 0.847565 0.310699
0.773346 0.867432 0.317413
0.852234 0.878113 0.321411
0.857697 0.878235 0.323425
0.857697 0.878235 0.323425
0.857697 0.878235 0.323425
0.328247 0.823120 0.305817
0.328247 0.823120 0.305817
0.328247 0.823120 0.305817
0.328247 0.823120 0.305817
0.328247 0.823120 0.305817
0.328247 0.823120 0.305817
0.328247 0.823120 0.305817
0.328247 0.823120 0.305817
0.328247 0.823120 0.305817
0.328247 0.823120 0.305817
0.336426 0.823242 0.305969
0.585114 0.845123 0.310059
0.754120 0.863037 0.317047
0.838165 0.875549 0.321106
0.857697 0.878235 0.326569
0.857697 0.878235 0.326569
0.857697 0.878235 0.326569
0.328247 0.823120 0.305817
0.328247 0.823120 0.305817
0.328247 0.823120 0.305817
0.328247 0.823120 0.305817
0.328247 0.823120 0.305817
0.328247 0.823120 0.305817
0.328247 0.823120 0.305817
0.328247 0.823120 0.305817
0.328247 0.823120 0.305817
0.328247 0.823120 0.305817
0.336304 0.823242 0.305969
0.584686 0.845032 0.310059
0.753937 0.863007 0.317047
0.838043 0.875519 0.321106
0.857697 0.878235 0.326569
0.857697 0.878235 0.326569
0.857697 0.878235 0.326569
0.000000 0.004944 0.000000
0.000000 0.004944 0.000000
0.000000 0.004944 0.000000
0.000000 0.004944 0.000000
0.056305 0.028107 0.013580
0.132843 0.056610 0.034454
0.260010 0.080017 0.046997
0.412842 0.115540 0.040588
0.581879 0.168152 0.051025
0.723999 0.231903 0.077423
0.820129 0.287018 0.102631
0.824463 0.290253 0.104156
0.824463 0.290253 0.104156
0.824463 0.290253 0.104156
0.824463 0.290253 0.104156
0.824463 0.290253 0.104156
0.824463 0.290253 0.104156
0.000000 0.004944 0.000000
0.000000 0.004944 0.000000
0.000000 0.004944 0.000000
