example/assets/luts/lut6.cube
#LUT size
LUT_3D_SIZE 9
#LUT data points
0.000000 0.004944 0.000000
0.000000 0.004944 0.000000
0.070709 0.031464 0.017151
0.268250 0.081451 0.046936
0.579865 0.167297 0.050598
0.817230 0.285583 0.101562
0.824463 0.290253 0.104156
0.824463 0.290253 0.104156
0.824463 0.290253 0.104156
0.000000 0.004944 0.000000
0.000000 0.004944 0.000000
0.000000 0.015808 0.000916
0.236786 0.076050 0.046967
0.572998 0.165039 0.049103
0.821075 0.287811 0.102936
0.824463 0.290253 0.104156
0.824463 0.290253 0.104156
0.824463 0.290253 0.104156
0.000000 0.004944 0.000000
0.000000 0.004944 0.000000
0.000000 0.004944 0.000000
0.167847 0.064240 0.042847
0.541565 0.153778 0.045868
0.823608 0.289520 0.103851
0.824463 0.290253 0.104156
0.824463 0.290253 0.104156
0.824463 0.290253 0.104156
0.000000 0.149414 0.000000
0.000000 0.144073 0.000000
0.000000 0.121460 0.000000
0.051117 0.114624 0.000000
0.479004 0.156372 0.039001
0.816437 0.285187 0.101288
0.824463 0.290253 0.104156
0.824463 0.290253 0.104156
0.824463 0.290253 0.104156
0.013733 0.408051 0.105164
0.012604 0.406647 0.104736
0.000793 0.386322 0.096252
0.000000 0.351379 0.082123
0.322998 0.351379 0.084045
0.771912 0.377411 0.116791
0.826202 0.346039 0.115723
0.825684 0.327759 0.110565
0.825439 0.331421 0.111877
0.236450 0.693817 0.236450
0.239227 0.697144 0.238373
0.236267 0.693207 0.236298
0.224457 0.676910 0.228424
0.202881 0.644623 0.214935
0.687378 0.654205 0.208221
0.848511 0.635040 0.208557
0.845703 0.607361 0.197998
0.845734 0.605896 0.197418
0.326691 0.822144 0.303864
0.327179 0.823090 0.304657
0.327576 0.823120 0.304718
0.327332 0.823090 0.303833
0.323120 0.814484 0.298096
0.516754 0.805939 0.291046
0.841278 0.813507 0.294434
0.858978 0.798401 0.286865
0.859070 0.794006 0.284973
0.328247 0.823120 0.305817
0.328247 0.823120 0.305817
0.328247 0.823120 0.305817
0.328247 0.823120 0.305817
0.328247 0.823120 0.305817
0.361237 0.826904 0.306366
0.776611 0.867523 0.317505
0.857697 0.878235 0.323425
0.857697 0.877960 0.323303
0.328247 0.823120 0.305817
0.328247 0.823120 0.305817
0.328247 0.823120 0.305817
0.328247 0.823120 0.305817
0.328247 0.823120 0.305817
0.337982 0.823273 0.306000
0.756226 0.863617 0.317108
0.857697 0.878235 0.326569
0.857697 0.878235 0.326569
0.000000 0.004944 0.000000
0.000000 0.004944 0.000000
0.064392 0.029938 0.015533
0.265564 0.080933 0.046997
0.580963 0.167786 0.050812
0.819092 0.286438 0.102203
0.824463 0.290253 0.104156
0.824463 0.290253 0.104156
0.824463 0.290253 0.104156
0.000000 0.004944 0.000000
0.000000 0.004944 0.000000
0.000000 0.012421 0.000000
0.232819 0.074951 0.047089
0.571350 0.165009 0.048920
0.822723 0.288513 0.103546
0.824463 0.290253 0.104156
0.824463 0.290253 0.104156
0.824463 0.290253 0.104156
0.000000 0.004944 0.000000
0.000000 0.004944 0.000000
0.000000 0.004944 0.000000
0.163574 0.063873 0.042023
0.539764 0.152954 0.045532
0.823914 0.289673 0.103943
0.824463 0.290253 0.104156
0.824463 0.290253 0.104156
0.824463 0.290253 0.104156
0.000000 0.146179 0.000000
0.000000 0.141846 0.000000
0.000000 0.120209 0.000000
0.047150 0.112854 0.000000
0.474640 0.154785 0.038422
0.815491 0.284668 0.100983
0.824463 0.290253 0.104156
0.824463 0.290253 0.104156
0.824463 0.290253 0.104156
0.009460 0.402496 0.103790
0.009186 0.402130 0.103699
0.000244 0.383850 0.095184
0.000000 0.350189 0.081451
0.316406 0.350220 0.083282
0.769562 0.376831 0.116455
0.826172 0.345856 0.115723
0.825714 0.327332 0.110443
0.825500 0.330719 0.111572
0.233887 0.690674 0.234985
0.237183 0.694672 0.236938
0.235321 0.691986 0.235626
0.224426 0.676880 0.228394
0.203186 0.646057 0.215393
0.682495 0.655579 0.208862
0.848450 0.637421 0.209351
0.845673 0.609497 0.198853
0.845703 0.607880 0.198273
0.326324 0.821228 0.303162
0.327118 0.823090 0.304596
0.327545 0.823120 0.304718
0.327362 0.823090 0.303864
0.323547 0.815277 0.298737
0.508209 0.807373 0.291718
0.838257 0.815186 0.295197
0.858917 0.800812 0.288025
0.859039 0.795959 0.285889
0.328247 0.823120 0.305817
0.328247 0.823120 0.305817
0.328247 0.823120 0.305817
0.328247 0.823120 0.305817
0.328247 0.823120 0.305817
0.357391 0.825653 0.306305
0.773346 0.867432 0.317413
0.857697 0.878235 0.323425
0.857697 0.878235 0.323425
0.328247 0.823120 0.305817
0.328247 0.823120 0.305817
0.328247 0.823120 0.305817
0.328247 0.823120 0.305817
0.328247 0.823120 0.305817
0.336304 0.823242 0.305969
0.753937 0.863007 0.317047
0.857697 0.878235 0.326569
0.857697 0.878235 0.326569
0.000000 0.004944 0.000000
0.000000 0.004944 0.000000
0.051239 0.027008 0.012360
0.258148 0.079773 0.046997
0.579285 0.167328 0.050446
0.821991 0.287872 0.103302
0.824463 0.290253 0.104156
0.824463 0.290253 0.104156
0.824463 0.290253 0.104156
0.000000 0.004944 0.000000
0.000000 0.004944 0.000000
0.000000 0.008423 0.000000
0.226501 0.073242 0.047241
0.570953 0.164062 0.048889
0.823608 0.289093 0.103851
0.824463 0.290253 0.104156
0.824463 0.290253 0.104156
0.824463 0.290253 0.104156
0.000000 0.004944 0.000000
0.000000 0.004944 0.000000
0.000000 0.004944 0.000000
0.148376 0.061218 0.038544
0.531830 0.149902 0.044128
0.823792 0.289276 0.103912
0.824463 0.290253 0.104156
0.824463 0.290253 0.104156
0.824463 0.290253 0.104156
0.000000 0.138763 0.000000
0.000000 0.133850 0.000000
0.000000 0.116089 0.000000
0.026398 0.105713 0.000000
0.462463 0.149048 0.036926
0.812927 0.283203 0.100189
0.824463 0.290253 0.104156
0.824463 0.290253 0.104156
0.824463 0.290253 0.104156
0.001709 0.390045 0.098602
0.001984 0.390717 0.099030
0.000000 0.375580 0.091797
0.000000 0.344849 0.078339
0.298920 0.344543 0.080536
0.761902 0.372284 0.114868
0.825714 0.342377 0.115234
0.825867 0.324371 0.109650
0.825714 0.327271 0.110413
0.226715 0.681213 0.231415
0.231049 0.687225 0.233643
0.231323 0.686768 0.233307
0.222534 0.674103 0.226807
0.202332 0.644775 0.215027
0.669708 0.653137 0.208527
0.848419 0.638855 0.209839
0.845734 0.610291 0.199219
0.845673 0.608459 0.198425
0.324890 0.817627 0.300598
0.326508 0.821686 0.303497
0.327271 0.823090 0.304718
0.327301 0.823090 0.303802
0.323730 0.815643 0.298584
0.489166 0.808533 0.291992
0.831635 0.816711 0.295654
0.858887 0.802094 0.288879
0.858978 0.798431 0.287018
0.328247 0.823120 0.305817
0.328247 0.823120 0.305817
0.328247 0.823120 0.305817
0.328247 0.823120 0.305817
0.328247 0.823120 0.305817
0.345062 0.823608 0.306152
0.766357 0.866760 0.317261
0.857697 0.878235 0.323425
0.857697 0.878235 0.323425
0.328247 0.823120 0.305817
0.328247 0.823120 0.305817
0.328247 0.823120 0.305817
0.328247 0.823120 0.305817
0.328247 0.823120 0.305817
0.332733 0.823212 0.305908
0.748077 0.862579 0.316895
0.857697 0.878235 0.326569
0.857697 0.878235 0.326569
0.000000 0.035858 0.240326
0.000000 0.031677 0.233337
0.012543 0.059662 0.227142
0.234436 0.118347 0.235748
0.579193 0.210052 0.247253
0.831543 0.322205 0.258881
0.832672 0.316833 0.231567
0.832794 0.318604 0.237305
0.832886 0.317719 0.234467
0.000000 0.024750 0.222992
0.000000 0.021179 0.216675
0.000000 0.029907 0.206482
0.202942 0.105713 0.216400
0.569366 0.199677 0.227081
0.832855 0.317841 0.237000
0.829895 0.309845 0.206635
0.831879 0.315033 0.225433
0.830292 0.312347 0.215912
0.000000 0.010437 0.190674
0.000000 0.008392 0.181458
0.000000 0.004211 0.164459
0.128113 0.077667 0.168365
0.522766 0.174561 0.176300
0.829193 0.304504 0.184174
0.827148 0.301392 0.164673
0.830170 0.304932 0.179169
0.828766 0.303253 0.174072
0.000000 0.149567 0.146790
0.000000 0.144958 0.137451
0.000000 0.121674 0.113312
0.000397 0.106018 0.099182
0.449127 0.156799 0.123535
0.809235 0.288452 0.146301
0.827118 0.293365 0.117371
0.827423 0.297333 0.138153
0.827576 0.295380 0.128418
0.000000 0.381592 0.148926
0.000000 0.383057 0.142700
0.000000 0.365936 0.121613
0.000000 0.339417 0.097809
0.281891 0.337219 0.085327
0.756439 0.365234 0.112732
0.825195 0.335785 0.113800
0.826172 0.319672 0.108521
0.825989 0.322144 0.109253
0.217285 0.667358 0.224915
0.222778 0.675415 0.228912
0.224854 0.677429 0.228851
0.218201 0.668121 0.223358
0.199005 0.639557 0.212830
0.655975 0.649109 0.207214
0.848480 0.636261 0.208893
0.845734 0.606567 0.197632
0.845703 0.604248 0.196686
0.322174 0.812500 0.296539
0.324738 0.817261 0.300354
0.326080 0.821198 0.303284
0.326630 0.822113 0.303070
0.323212 0.814667 0.297852
0.472504 0.806671 0.291595
0.826050 0.816925 0.295715
0.858856 0.802979 0.289337
0.858948 0.798920 0.287262
0.328247 0.823120 0.305817
0.328247 0.823120 0.305817
0.328247 0.823120 0.305817
0.328247 0.823120 0.305817
0.328247 0.823120 0.305817
0.338776 0.823303 0.306030
0.758545 0.864319 0.317139
0.857697 0.878235 0.323425
0.857697 0.878235 0.323425
0.328247 0.823120 0.305817
0.328247 0.823120 0.305817
0.328247 0.823120 0.305817
0.328247 0.823120 0.305817
0.328247 0.823120 0.305817
0.330719 0.823181 0.305878
0.742096 0.862427 0.316772
0.857697 0.878235 0.326569
0.857697 0.878235 0.326569
0.000000 0.154755 0.536987
0.000000 0.153168 0.532654
0.000000 0.155151 0.525909
0.222931 0.196869 0.535950
0.584625 0.303009 0.557220
0.849152 0.417542 0.577515
0.851166 0.412354 0.550598
0.849182 0.401245 0.520233
0.851929 0.419769 0.578369
0.000000 0.149170 0.523834
0.000000 0.146759 0.518097
0.000000 0.143829 0.505646
0.193512 0.183594 0.513824
0.573395 0.293518 0.540375
0.851044 0.412842 0.554932
0.849152 0.401642 0.521301
0.849548 0.395599 0.503021
0.851257 0.412689 0.551575
0.000000 0.137085 0.492676
0.000000 0.133850 0.484528
0.000000 0.126404 0.465881
0.100159 0.149292 0.464966
0.515381 0.260223 0.492737
0.843933 0.393127 0.507233
0.846710 0.388947 0.480591
0.846222 0.383636 0.460175
0.849487 0.394714 0.499878
0.000000 0.213043 0.458557
0.000000 0.207397 0.448669
0.000000 0.181061 0.425751
0.000000 0.156952 0.401642
0.432404 0.227631 0.432739
0.818573 0.367340 0.452087
0.843079 0.372406 0.425140
0.846039 0.381195 0.450562
0.845581 0.380585 0.448181
0.000000 0.434906 0.458313
0.000000 0.434845 0.447113
0.000000 0.417206 0.419067
0.000000 0.389313 0.390656
0.254761 0.378357 0.375977
0.759949 0.412903 0.380188
0.840210 0.387848 0.363770
0.842590 0.379547 0.394196
0.840973 0.378082 0.385559
0.176941 0.692413 0.436066
0.185852 0.698517 0.424988
0.194061 0.696808 0.398438
0.192474 0.686646 0.374146
0.175476 0.656799 0.345306
0.644043 0.662689 0.324799
0.851990 0.647491 0.307617
0.852325 0.625885 0.337616
0.851532 0.619812 0.323303
0.303955 0.819946 0.392273
0.309418 0.822327 0.381348
0.316254 0.826538 0.361633
0.319305 0.822937 0.344818
0.317505 0.815765 0.327026
0.451263 0.805664 0.307434
0.819611 0.815613 0.297333
0.858826 0.804657 0.315430
0.858917 0.800232 0.310089
0.323700 0.828949 0.344269
0.324127 0.827087 0.335449
0.328247 0.826813 0.321716
0.328278 0.823883 0.314728
0.328247 0.823120 0.308655
0.333862 0.823212 0.306549
0.751953 0.862793 0.317078
0.857697 0.878235 0.324158
0.857697 0.878235 0.327789
0.326996 0.826782 0.326904
0.328247 0.826813 0.321259
0.328278 0.823975 0.314911
0.328278 0.823120 0.308990
0.328247 0.823120 0.306549
0.329224 0.823151 0.305939
0.733002 0.862183 0.316559
0.857697 0.878235 0.326569
0.857697 0.878235 0.326965
0.093597 0.272888 0.794067
0.093994 0.273041 0.794525
0.093536 0.272858 0.793976
0.235443 0.296906 0.799042
0.591797 0.397217 0.821808
0.856445 0.509430 0.847046
0.863312 0.511078 0.839783
0.863068 0.519073 0.865967
0.863129 0.516388 0.856750
0.093475 0.272888 0.794525
0.092407 0.272491 0.794067
0.090240 0.271362 0.791504
0.206329 0.289429 0.791595
0.580017 0.390381 0.814941
0.858612 0.509949 0.843933
0.863434 0.508240 0.829163
0.863251 0.513397 0.846954
0.863281 0.513031 0.846985
0.086304 0.268738 0.786224
0.084808 0.267639 0.783875
0.080872 0.264679 0.777679
0.123749 0.266571 0.769867
0.514282 0.362091 0.789642
0.845581 0.496643 0.817780
0.862915 0.495850 0.800446
0.863434 0.508179 0.828949
0.863556 0.505005 0.819885
0.019196 0.320648 0.775513
0.015717 0.317963 0.771332
0.024323 0.298706 0.758881
0.031952 0.276428 0.744568
0.429199 0.329895 0.756927
0.821228 0.469604 0.773956
0.860413 0.485138 0.768005
0.860992 0.493256 0.793304
0.860199 0.490570 0.785004
0.000000 0.515778 0.773438
0.000000 0.518250 0.768097
0.000000 0.503235 0.752655
0.000000 0.477783 0.733490
0.229736 0.457245 0.720520
0.759155 0.503571 0.730804
0.859436 0.491058 0.724426
0.860443 0.485962 0.741699
0.860474 0.485291 0.738281
0.107452 0.749664 0.770111
0.115540 0.754578 0.763611
0.123688 0.756653 0.744904
0.123871 0.748932 0.725800
0.106934 0.726013 0.702820
0.616089 0.724731 0.689636
0.861237 0.711334 0.674774
0.858124 0.689270 0.684906
0.857941 0.689056 0.696564
0.228333 0.874664 0.729675
0.236420 0.880249 0.719574
0.246796 0.885559 0.698517
0.253510 0.880798 0.676605
0.256409 0.870087 0.651489
0.384430 0.854065 0.626404
0.805450 0.860992 0.603180
0.854462 0.855469 0.647125
0.854736 0.848328 0.638977
0.261505 0.895081 0.681030
0.264099 0.892883 0.671875
0.269470 0.887299 0.646790
0.275146 0.882294 0.620270
0.281982 0.875336 0.595398
0.288635 0.870758 0.567474
0.733246 0.906036 0.549103
0.853577 0.936798 0.603607
0.853912 0.933563 0.595642
0.266327 0.890961 0.658722
0.269531 0.887238 0.646729
0.274811 0.882629 0.622406
0.281189 0.875977 0.598938
0.286133 0.871643 0.572540
0.291504 0.866455 0.546814
0.710632 0.898651 0.529327
0.856323 0.929413 0.571472
0.857025 0.930084 0.572845
0.145233 0.321564 0.908813
0.145233 0.321564 0.908813
0.145233 0.321564 0.908813
0.236633 0.337463 0.914764
0.584991 0.430725 0.944580
0.855621 0.547974 0.989929
0.867767 0.553009 0.989929
0.867767 0.553009 0.989929
0.867767 0.553009 0.989929
0.145233 0.321564 0.908813
0.145233 0.321564 0.908813
0.145233 0.321564 0.908813
0.209442 0.332367 0.908997
0.573303 0.426636 0.943024
0.858765 0.548920 0.989929
0.867767 0.553009 0.989929
0.867767 0.553009 0.989929
0.867767 0.553009 0.989929
0.145233 0.321564 0.908813
0.145233 0.321564 0.908813
0.145233 0.321564 0.908813
0.156250 0.321991 0.909058
0.506500 0.407349 0.937347
0.841553 0.542542 0.989838
0.867767 0.553009 0.989929
0.867767 0.553009 0.989929
0.867767 0.553009 0.989929
0.114441 0.370239 0.908539
0.114899 0.369232 0.908325
0.124603 0.355591 0.909515
0.132050 0.341919 0.905884
0.423645 0.385864 0.928528
0.813080 0.528839 0.989044
0.867676 0.552765 0.989807
0.867767 0.553009 0.989929
0.867767 0.553009 0.989929
0.022705 0.552795 0.936371
0.021606 0.556976 0.936127
0.021851 0.549744 0.935944
0.028717 0.531097 0.931091
0.220795 0.507904 0.928223
0.748871 0.554810 0.961456
0.865997 0.558350 0.981140
0.867035 0.552002 0.988586
0.866699 0.550781 0.987885
0.082275 0.770386 0.969513
0.087250 0.778046 0.969513
0.092072 0.783539 0.967957
0.089813 0.779358 0.958435
0.077179 0.764069 0.943024
0.576111 0.757660 0.941620
0.856659 0.753357 0.946228
0.857117 0.733002 0.969299
0.857208 0.729340 0.962952
0.171570 0.914093 0.959076
0.176666 0.922394 0.951477
0.184753 0.933411 0.937347
0.189484 0.935974 0.921875
0.188629 0.924530 0.906799
0.293732 0.904968 0.887268
0.779205 0.911102 0.873779
0.845856 0.899750 0.883789
0.845062 0.897919 0.906647
0.200745 0.955994 0.926361
0.202698 0.955780 0.917175
0.205078 0.954590 0.902313
0.205109 0.949219 0.886505
0.209778 0.944458 0.867462
0.215454 0.942230 0.848724
0.695190 0.976379 0.835693
0.842529 1.000000 0.837494
0.845123 1.000000 0.867462
0.204376 0.955719 0.908997
0.205200 0.953705 0.899689
0.204987 0.949493 0.887573
0.210052 0.944336 0.866547
0.214600 0.943268 0.852112
0.219452 0.936249 0.832367
0.668335 0.968445 0.817444
0.840607 1.000000 0.836700
0.843353 1.000000 0.852417
0.145233 0.321564 0.908813
0.145233 0.321564 0.908813
0.145233 0.321564 0.908813
0.222748 0.333740 0.910370
0.578339 0.428345 0.943329
0.856171 0.547607 0.989929
0.867767 0.553009 0.989929
0.849701 1.000000 1.000000
0.849701 1.000000 1.000000
0.145233 0.321564 0.908813
0.145233 0.321564 0.908813
0.145233 0.321564 0.908813
0.195160 0.329773 0.908966
0.562805 0.423553 0.943085
0.857391 0.548126 0.989929
0.867767 0.553009 0.989929
0.849701 1.000000 1.000000
0.849701 1.000000 1.000000
0.145233 0.321564 0.908813
0.145233 0.321564 0.908813
0.145233 0.321564 0.908813
0.150696 0.321777 0.908905
0.491333 0.402405 0.934601
0.837402 0.540741 0.989655
0.867767 0.553009 0.989929
0.849701 1.000000 1.000000
0.849701 1.000000 1.000000
0.115173 0.368805 0.908264
0.115631 0.368011 0.908234
0.125153 0.354950 0.909393
0.132172 0.341614 0.905884
0.402893 0.380280 0.928619
0.806030 0.525299 0.989044
0.867767 0.553009 0.989929
0.849701 1.000000 1.000000
0.849701 1.000000 1.000000
0.025940 0.548126 0.935822
0.025116 0.552521 0.936310
0.028046 0.543579 0.934875
0.033936 0.528015 0.930115
0.194183 0.502350 0.929108
0.737213 0.550079 0.974487
0.867371 0.562561 0.989838
0.849701 1.000000 1.000000
0.849701 1.000000 1.000000
0.079407 0.763184 0.969543
0.084503 0.771759 0.969513
0.090332 0.779602 0.969513
0.089050 0.777252 0.969543
0.077881 0.760437 0.969543
0.552917 0.757019 0.983612
0.854523 0.757019 0.985779
0.851105 0.799713 0.984009
0.857208 0.738892 0.986450
0.165527 0.909210 0.968475
0.168060 0.917297 0.968323
0.175171 0.935547 0.968018
0.177032 0.940125 0.967926
0.175110 0.933075 0.968079
0.249146 0.916229 0.969604
0.765930 0.927979 0.980133
0.843292 0.916382 0.980225
0.843353 0.907043 0.980438
0.190948 0.967316 0.967499
0.190948 0.967316 0.967499
0.190948 0.967316 0.967499
0.190948 0.967316 0.967499
0.190948 0.967316 0.967499
0.190704 0.967316 0.967499
0.671021 1.000000 0.980560
0.845917 1.000000 1.000000
0.846313 1.000000 1.000000
0.190948 0.967316 0.967499
0.190948 0.967316 0.967499
0.190948 0.967316 0.967499
0.190948 0.967316 0.967499
0.190948 0.967316 0.967499
0.188721 0.967285 0.967438
0.639404 1.000000 0.977386
0.837036 1.000000 1.000000
0.845917 1.000000 1.000000
0.145233 0.321564 0.908813
0.145233 0.321564 0.908813
0.145233 0.321564 0.908813
0.220001 0.333130 0.909698
0.576630 0.427673 0.943024
0.856964 0.547913 0.989929
0.867767 0.553009 0.989929
0.849701 1.000000 1.000000
0.849701 1.000000 1.000000
0.145233 0.321564 0.908813
0.145233 0.321564 0.908813
0.145233 0.321564 0.908813
0.191101 0.328430 0.909058
0.558746 0.422424 0.942993
0.857208 0.548096 0.989929
0.867767 0.553009 0.989929
0.849701 1.000000 1.000000
0.849701 1.000000 1.000000
0.145233 0.321564 0.908813
0.145233 0.321564 0.908813
0.145233 0.321564 0.908813
0.149597 0.321716 0.908905
0.485901 0.400757 0.933868
0.836151 0.540100 0.989563
0.867767 0.553009 0.989929
0.849701 1.000000 1.000000
0.849701 1.000000 1.000000
0.114746 0.369446 0.908325
0.115173 0.368774 0.908264
0.124420 0.355835 0.909515
0.131683 0.342468 0.905884
0.396912 0.378876 0.927856
0.803711 0.524078 0.989044
0.867767 0.553009 0.989929
0.849701 1.000000 1.000000
0.849701 1.000000 1.000000
0.026031 0.547394 0.935730
0.025269 0.551819 0.936218
0.028076 0.543335 0.934784
0.033966 0.527863 0.930084
0.186432 0.501160 0.928497
0.733307 0.548462 0.973572
0.867401 0.562012 0.989838
0.849701 1.000000 1.000000
0.849701 1.000000 1.000000
0.078033 0.760712 0.969543
0.083069 0.769470 0.969513
0.088928 0.777618 0.969513
0.087860 0.775543 0.969543
0.077057 0.759064 0.969543
0.546539 0.755554 0.983459
0.855011 0.755310 0.985840
0.849701 1.000000 1.000000
0.849701 1.000000 1.000000
0.164093 0.905914 0.968506
0.166962 0.913727 0.968353
0.173737 0.932098 0.968079
0.176300 0.937714 0.967957
0.174316 0.930725 0.968109
0.242462 0.913788 0.969543
0.763519 0.925415 0.980164
0.849701 1.000000 1.000000
0.849701 1.000000 1.000000
0.190948 0.967316 0.967499
0.190948 0.967316 0.967499
0.190948 0.967316 0.967499
0.190948 0.967316 0.967499
0.190948 0.967316 0.967499
0.190948 0.967316 0.967499
0.666870 1.000000 0.980316
0.844788 1.000000 1.000000
0.849701 1.000000 1.000000
0.190948 0.967316 0.967499
0.190948 0.967316 0.967499
0.190948 0.967316 0.967499
0.190948 0.967316 0.967499
0.190948 0.967316 0.967499
0.190948 0.967316 0.967499
0.630035 1.000000 0.975616
0.838440 1.000000 1.000000
0.849701 1.000000 1.000000
