example/assets/luts/lut7.cube
#LUT size
LUT_3D_SIZE 9
#LUT data points
0.019592 0.016388 0.019196
0.051422 0.020447 0.016022
0.137451 0.017365 0.000488
0.305664 0.000000 0.000458
0.459167 0.000000 0.000458
0.606659 0.000000 0.000519
0.712341 0.000000 0.000488
0.733612 0.000000 0.000366
0.741028 0.000000 0.000366
0.030914 0.031036 0.026886
0.049622 0.035126 0.028809
0.126556 0.037140 0.001404
0.286072 0.007843 0.000671
0.455597 0.000000 0.000458
0.604095 0.000000 0.000519
0.710114 0.000000 0.000488
0.731934 0.000000 0.000366
0.739288 0.000000 0.000366
0.075989 0.077332 0.055206
0.077057 0.078339 0.054565
0.151947 0.099426 0.042450
0.325714 0.095642 0.004761
0.478333 0.062927 0.002167
0.609192 0.000000 0.000885
0.702423 0.000000 0.000549
0.724457 0.000000 0.000488
0.736023 0.000000 0.000519
0.187378 0.190460 0.119690
0.187256 0.190399 0.119659
0.190796 0.194000 0.117340
0.413788 0.265472 0.036652
0.666626 0.256012 0.020721
0.779541 0.241272 0.014740
0.837311 0.222260 0.011658
0.851959 0.243347 0.013885
0.899017 0.318573 0.021027
0.316101 0.322784 0.155792
0.316101 0.322784 0.155792
0.316010 0.322632 0.155762
0.345642 0.360657 0.130646
0.659180 0.469971 0.010223
0.849701 0.492889 0.040192
0.985107 0.506622 0.040588
1.000000 0.544098 0.043243
1.000000 0.621887 0.046478
0.459778 0.475922 0.170013
0.459778 0.475983 0.169983
0.459747 0.475952 0.169983
0.459259 0.475311 0.169922
0.576874 0.617188 0.095001
0.795105 0.670166 0.086304
0.981537 0.719238 0.082886
0.993744 0.748169 0.138245
0.972046 0.786163 0.174988
0.609253 0.632690 0.206299
0.609192 0.632690 0.206268
0.609161 0.632538 0.206268
0.608917 0.632324 0.206146
0.632843 0.680450 0.182587
0.778900 0.785919 0.151367
0.910553 0.806946 0.184357
0.958557 0.822998 0.218903
0.958496 0.828857 0.226807
0.629425 0.653503 0.215576
0.629425 0.653503 0.215576
0.629425 0.653503 0.215576
0.629425 0.653503 0.215576
0.653809 0.702454 0.192169
0.787933 0.801239 0.167908
0.912964 0.822693 0.205017
0.958496 0.828766 0.226532
0.958496 0.828857 0.226807
0.629425 0.653503 0.215576
0.629425 0.653503 0.215576
0.629425 0.653503 0.215576
0.629425 0.653503 0.215576
0.680756 0.735474 0.181976
0.835388 0.810394 0.182587
0.945007 0.826904 0.210388
0.958496 0.828857 0.226807
0.958496 0.828857 0.226807
0.016571 0.019348 0.031830
0.048401 0.022888 0.036407
0.138092 0.023621 0.005371
0.321716 0.000000 0.000458
0.484619 0.000000 0.000458
0.634094 0.000000 0.000488
0.733490 0.000000 0.000366
0.748932 0.000000 0.000366
0.755646 0.000000 0.000366
0.023102 0.030518 0.039001
0.042114 0.034332 0.040680
0.123169 0.040619 0.020599
0.303589 0.008698 0.000671
0.487183 0.000000 0.000458
0.640137 0.000000 0.000427
0.737122 0.000000 0.000366
0.750702 0.000000 0.000366
0.755127 0.000000 0.000366
0.072998 0.075317 0.062134
0.074341 0.076508 0.063507
0.145111 0.098846 0.059387
0.332214 0.095917 0.004700
0.498413 0.062286 0.002106
0.646545 0.000000 0.000916
0.730957 0.000000 0.000366
0.747070 0.000000 0.000366
0.751465 0.000000 0.000366
0.186584 0.189575 0.119598
0.186401 0.189209 0.120117
0.190735 0.193970 0.117188
0.412445 0.264404 0.038452
0.669556 0.258667 0.021027
0.785156 0.246918 0.015320
0.848480 0.230438 0.012268
0.865692 0.248260 0.014374
0.904449 0.321686 0.021271
0.315735 0.322357 0.155731
0.315674 0.322235 0.155731
0.315491 0.322144 0.155701
0.347015 0.362854 0.128815
0.658936 0.469299 0.010376
0.849640 0.494995 0.040253
0.985901 0.510010 0.040894
1.000000 0.547302 0.043427
1.000000 0.622589 0.046478
0.459595 0.475677 0.169952
0.459534 0.475677 0.169952
0.459503 0.475494 0.169952
0.458801 0.474884 0.169891
0.580139 0.618042 0.094482
0.795013 0.669708 0.085999
0.981140 0.719879 0.082855
0.993622 0.748901 0.139130
0.971985 0.786224 0.175079
0.609070 0.632507 0.206207
0.609070 0.632477 0.206177
0.609009 0.632263 0.206146
0.608704 0.632050 0.206055
0.633911 0.682465 0.181671
0.779846 0.786072 0.151550
0.910522 0.806763 0.184204
0.958588 0.822998 0.219025
0.958496 0.828857 0.226807
0.629425 0.653503 0.215576
0.629425 0.653503 0.215576
0.629425 0.653503 0.215576
0.629425 0.653503 0.215576
0.654633 0.704041 0.191559
0.789001 0.801544 0.167999
0.913422 0.822723 0.205048
0.958435 0.828766 0.226593
0.958496 0.828857 0.226807
0.629425 0.653503 0.215576
0.629425 0.653503 0.215576
0.629425 0.653503 0.215576
0.629425 0.653503 0.215576
0.681488 0.736176 0.181641
0.835876 0.810425 0.182739
0.945129 0.826935 0.210327
0.958496 0.828857 0.226807
0.958496 0.828857 0.226807
0.009521 0.028564 0.065216
0.020782 0.033783 0.077667
0.118164 0.042358 0.102448
0.336609 0.004272 0.045715
0.540009 0.000000 0.000305
0.690247 0.000000 0.000336
0.765533 0.000000 0.000336
0.769623 0.000000 0.005066
0.770233 0.000000 0.065796
0.010956 0.030945 0.067749
0.020630 0.035889 0.074707
0.107758 0.045074 0.101410
0.328430 0.009735 0.054016
0.539734 0.000000 0.000275
0.692078 0.000000 0.000336
0.766479 0.000000 0.000305
0.769653 0.000000 0.006927
0.770203 0.000000 0.067535
0.034424 0.082550 0.116547
0.035980 0.082703 0.116547
0.113434 0.099640 0.120392
0.318390 0.108917 0.091064
0.531067 0.074615 0.053436
0.695831 0.018066 0.000397
0.771667 0.000000 0.000244
0.770111 0.000000 0.000092
0.770081 0.000000 0.021576
0.170685 0.192047 0.140808
0.166931 0.193420 0.140900
0.174377 0.198425 0.146027
0.380981 0.272003 0.152405
0.662323 0.281372 0.038666
0.790283 0.272980 0.017822
0.858002 0.259064 0.014282
0.863464 0.269073 0.015594
0.886444 0.326965 0.021271
0.314880 0.320587 0.158051
0.314667 0.320465 0.158997
0.314056 0.320099 0.164764
0.348907 0.367493 0.138062
0.652649 0.469971 0.067566
0.845245 0.507812 0.047729
0.981201 0.530304 0.042572
0.995850 0.563232 0.044617
1.000000 0.621979 0.047150
0.458405 0.474457 0.169830
0.458252 0.474243 0.169800
0.457733 0.473663 0.169769
0.457092 0.473022 0.169678
0.585541 0.618408 0.093231
0.794556 0.668030 0.084778
0.979889 0.720398 0.082611
0.993439 0.748993 0.139496
0.972961 0.784332 0.172974
0.608459 0.631836 0.205963
0.608429 0.631805 0.205902
0.608185 0.631470 0.205750
0.607849 0.631165 0.205658
0.635132 0.685059 0.179779
0.781067 0.785797 0.151520
0.910004 0.806122 0.183563
0.958740 0.822723 0.218658
0.958496 0.828857 0.226807
0.629425 0.653503 0.215576
0.629425 0.653503 0.215576
0.629425 0.653503 0.215576
0.629425 0.653503 0.215576
0.655029 0.704529 0.191681
0.789948 0.801697 0.167969
0.913483 0.822815 0.204987
0.958435 0.828735 0.226471
0.958496 0.828857 0.226807
0.629425 0.653503 0.215576
0.629425 0.653503 0.215576
0.629425 0.653503 0.215576
0.629425 0.653503 0.215576
0.677399 0.733337 0.182739
0.833801 0.810028 0.182068
0.944122 0.826782 0.210175
0.958496 0.828857 0.226807
0.958496 0.828857 0.226807
0.009521 0.052856 0.125397
0.010803 0.053711 0.126709
0.036896 0.074097 0.187317
0.255157 0.082245 0.264099
0.489349 0.065002 0.245941
0.671936 0.037415 0.230743
0.756500 0.027496 0.240143
0.752441 0.042084 0.278656
0.743561 0.056458 0.335938
0.009491 0.052734 0.125183
0.010437 0.053406 0.126190
0.035645 0.073334 0.184570
0.252289 0.082184 0.263062
0.486816 0.067047 0.249512
0.669830 0.039734 0.237457
0.755554 0.031036 0.247742
0.751617 0.043762 0.284027
0.743286 0.056763 0.337494
0.011841 0.061493 0.139862
0.012421 0.063324 0.142944
0.043732 0.086945 0.187347
0.243073 0.097137 0.265839
0.484772 0.084442 0.258698
0.668335 0.048920 0.250519
0.754486 0.035828 0.260162
0.751099 0.044678 0.288574
0.744965 0.054596 0.327911
0.069305 0.226532 0.326660
0.069244 0.226471 0.326813
0.075195 0.228119 0.327332
0.296448 0.277557 0.324860
0.582642 0.297150 0.315765
0.758240 0.288574 0.303741
0.841187 0.258118 0.295593
0.840393 0.234314 0.298462
0.840210 0.235657 0.304352
0.182037 0.384308 0.265594
0.176666 0.386963 0.270935
0.165100 0.392517 0.283356
0.285767 0.408478 0.285156
0.593109 0.504791 0.342377
0.805939 0.573547 0.375732
0.924591 0.597443 0.363312
0.936523 0.620514 0.375977
0.947632 0.661560 0.391541
0.420776 0.492493 0.236176
0.414948 0.496368 0.240326
0.401733 0.504791 0.249603
0.384308 0.514984 0.260742
0.597443 0.628113 0.280365
0.772339 0.698029 0.306519
0.940216 0.748413 0.344879
0.967712 0.769775 0.343689
0.958466 0.795441 0.325287
0.612000 0.628235 0.237640
0.612885 0.627930 0.243774
0.613281 0.628357 0.257385
0.610077 0.629974 0.264221
0.647980 0.679871 0.253448
0.773926 0.793823 0.228241
0.897491 0.816498 0.273041
0.952606 0.832916 0.289581
0.953400 0.839447 0.287781
0.628174 0.656281 0.238495
0.627563 0.657318 0.246307
0.626556 0.658569 0.254364
0.627655 0.656403 0.235931
0.657562 0.696747 0.223328
0.785645 0.804535 0.197205
0.907471 0.828125 0.241669
0.954193 0.835724 0.268311
0.953430 0.837067 0.275635
0.620209 0.668365 0.305573
0.618774 0.669647 0.306274
0.624695 0.664856 0.303802
0.629913 0.656647 0.253876
0.673035 0.716339 0.238525
0.819458 0.815643 0.229034
0.933746 0.834961 0.265930
0.952759 0.838470 0.283997
0.952087 0.839355 0.288879
0.015442 0.078888 0.182068
0.015442 0.078888 0.182098
0.020233 0.086487 0.200348
0.146362 0.117828 0.375183
0.387085 0.119141 0.407990
0.607971 0.108215 0.434296
0.725616 0.103149 0.448547
0.723877 0.107574 0.480591
0.716156 0.115234 0.533875
0.015411 0.078857 0.182037
0.015411 0.078857 0.182037
0.019989 0.086334 0.199829
0.147766 0.118073 0.374939
0.386139 0.119171 0.407501
0.606659 0.108582 0.435913
0.725250 0.103607 0.451447
0.723572 0.107910 0.483185
0.715973 0.115387 0.534607
0.015381 0.078735 0.181824
0.015381 0.078735 0.181824
0.019867 0.085480 0.197815
0.147034 0.118805 0.372925
0.382172 0.119171 0.405884
0.603333 0.109222 0.439148
0.724640 0.104370 0.456573
0.723419 0.108276 0.485535
0.717194 0.114532 0.531281
0.035828 0.163910 0.326843
0.037018 0.168427 0.333649
0.040710 0.178314 0.348267
0.203705 0.243652 0.424713
0.447693 0.221649 0.463104
0.686127 0.205963 0.479675
0.783691 0.180725 0.483704
0.771515 0.158783 0.501892
0.750183 0.144043 0.524017
0.124725 0.415833 0.547607
0.124664 0.415802 0.547638
0.124481 0.415588 0.547974
0.191101 0.435669 0.543549
0.542603 0.512543 0.528748
0.765259 0.540741 0.526703
0.878906 0.547211 0.518738
0.884674 0.539490 0.519562
0.884430 0.541351 0.522919
0.189270 0.621521 0.511963
0.189178 0.620941 0.516693
0.189087 0.619507 0.526703
0.189117 0.617249 0.537659
0.530853 0.657715 0.492554
0.744568 0.721893 0.539825
0.908417 0.777405 0.588745
0.935638 0.792633 0.592773
0.930725 0.808594 0.589905
0.385834 0.752441 0.422180
0.380707 0.754608 0.425812
0.370728 0.758575 0.432892
0.362244 0.761749 0.437683
0.477203 0.757202 0.434906
0.790131 0.798248 0.534637
0.863831 0.849274 0.543060
0.916840 0.869354 0.559998
0.917572 0.883270 0.559235
0.430176 0.773346 0.447540
0.424530 0.775482 0.450867
0.418671 0.777710 0.454987
0.421143 0.777313 0.448242
0.514252 0.759796 0.425873
0.799469 0.812531 0.520172
0.869995 0.872681 0.524414
0.917877 0.882721 0.547363
0.918457 0.883575 0.552155
0.352325 0.802307 0.538544
0.351257 0.802704 0.540619
0.354065 0.801697 0.533539
0.371765 0.795837 0.499329
0.488068 0.765411 0.426392
0.808960 0.827637 0.522217
0.890137 0.878296 0.539429
0.918182 0.883942 0.554016
0.917969 0.884094 0.556946
0.022034 0.103394 0.233276
0.022034 0.103394 0.233276
0.022034 0.103424 0.233307
0.088135 0.144531 0.394440
0.316986 0.150330 0.494354
0.540436 0.142090 0.542664
0.699493 0.128571 0.598755
0.695007 0.135254 0.618225
0.690094 0.145599 0.646545
0.022003 0.103363 0.233185
0.022003 0.103363 0.233215
0.022034 0.103394 0.233276
0.092163 0.144287 0.400360
0.318390 0.150299 0.494476
0.539886 0.142090 0.542419
0.699036 0.128784 0.599335
0.694641 0.135468 0.618835
0.690094 0.145660 0.646790
0.022003 0.103333 0.233124
0.022003 0.103333 0.233124
0.022308 0.103790 0.234100
0.096436 0.143738 0.409546
0.319885 0.150146 0.494385
0.537659 0.142151 0.541443
0.698517 0.129181 0.600220
0.694305 0.135742 0.619537
0.690155 0.145264 0.645691
0.023499 0.112122 0.250092
0.023834 0.114258 0.254181
0.024567 0.118439 0.262238
0.090027 0.164734 0.386078
0.321136 0.164368 0.508606
0.543274 0.153625 0.548950
0.703979 0.132965 0.603912
0.694855 0.134918 0.617340
0.691193 0.143707 0.640717
0.079071 0.363251 0.627686
0.080261 0.366669 0.630707
0.082703 0.373657 0.636749
0.116028 0.393372 0.647003
0.484344 0.477356 0.663055
0.686157 0.442871 0.659485
0.831696 0.433350 0.689056
0.833862 0.408356 0.708252
0.820129 0.383331 0.729950
0.230225 0.620758 0.724487
0.230225 0.620758 0.724548
0.230103 0.620697 0.724701
0.229584 0.620117 0.725220
0.469666 0.676392 0.713806
0.728668 0.720551 0.701904
0.874481 0.746582 0.706848
0.899170 0.746521 0.706146
0.898438 0.746490 0.707367
0.297211 0.768311 0.728302
0.297760 0.768097 0.729340
0.298676 0.767670 0.731049
0.299194 0.766968 0.732544
0.346436 0.775879 0.723236
0.744843 0.812347 0.652985
0.851440 0.852753 0.707153
0.900848 0.875092 0.721191
0.900452 0.889526 0.719482
0.335083 0.808380 0.747955
0.335602 0.808228 0.750275
0.336426 0.808136 0.753357
0.335785 0.808075 0.751648
0.344299 0.811188 0.735107
0.735046 0.835602 0.635040
0.870270 0.880737 0.707733
0.899231 0.905853 0.709778
0.901276 0.906799 0.712158
0.362885 0.807495 0.795502
0.362976 0.807495 0.795868
0.362274 0.807404 0.794800
0.358795 0.807098 0.790131
0.348419 0.807739 0.771179
0.722870 0.838501 0.636505
0.875153 0.888855 0.708405
0.900909 0.906525 0.713104
0.901215 0.907196 0.714539
0.028809 0.129089 0.285675
0.028809 0.129150 0.285675
0.028809 0.129150 0.285706
0.069580 0.161255 0.385742
0.296997 0.170807 0.604980
0.523041 0.168335 0.617371
0.683990 0.155060 0.668396
0.688385 0.158691 0.681671
0.687927 0.164154 0.696747
0.028809 0.129059 0.285614
0.028809 0.129089 0.285614
0.028809 0.129150 0.285645
0.071655 0.162048 0.392151
0.299652 0.170929 0.604431
0.523895 0.168213 0.617584
0.683960 0.154999 0.668304
0.688385 0.158691 0.681763
0.687927 0.164154 0.696777
0.028778 0.129028 0.285492
0.028778 0.129028 0.285492
0.028778 0.129028 0.285522
0.072052 0.163055 0.396179
0.302826 0.171082 0.603424
0.524231 0.168121 0.617432
0.683411 0.154999 0.667938
0.688385 0.158722 0.681824
0.687927 0.164062 0.696472
0.028687 0.128662 0.284760
0.028687 0.128632 0.284760
0.028656 0.128632 0.284698
0.058624 0.157135 0.356079
0.290100 0.170868 0.600952
0.515350 0.168304 0.614380
0.678864 0.155121 0.664948
0.688416 0.158234 0.680634
0.688080 0.163452 0.694855
0.051147 0.269440 0.535950
0.052338 0.276306 0.547180
0.054565 0.289825 0.569183
0.060944 0.301880 0.588257
0.367676 0.359894 0.699677
0.612061 0.336487 0.711304
0.765869 0.316467 0.743927
0.763824 0.283295 0.743774
0.748596 0.264740 0.741852
0.202209 0.609711 0.827881
0.203766 0.611511 0.828308
0.206665 0.614960 0.828918
0.207947 0.616455 0.829559
0.419983 0.678680 0.829803
0.715515 0.708710 0.802032
0.814819 0.666656 0.783600
0.841919 0.659363 0.797150
0.836853 0.654297 0.804291
0.351074 0.768677 0.832855
0.351044 0.768646 0.832947
0.350922 0.768616 0.833038
0.350739 0.768311 0.833344
0.386200 0.773499 0.831482
0.691833 0.813629 0.813080
0.839783 0.847534 0.808990
0.903870 0.866577 0.828796
0.904022 0.866821 0.829254
0.396057 0.814209 0.840454
0.396210 0.814331 0.840759
0.396423 0.814331 0.841187
0.396271 0.814087 0.841125
0.396881 0.814026 0.839661
0.646210 0.856445 0.820526
0.851715 0.893127 0.787689
0.913513 0.913116 0.823517
0.917023 0.918060 0.822968
0.412872 0.820251 0.864777
0.412994 0.820312 0.864777
0.412811 0.820251 0.864624
0.411896 0.820007 0.863190
0.409485 0.819061 0.859344
0.644775 0.855469 0.833191
0.844574 0.895203 0.787109
0.914978 0.915222 0.824432
0.917847 0.918549 0.823792
0.032135 0.142303 0.311768
0.032135 0.142303 0.311768
0.032135 0.142303 0.311768
0.076233 0.175964 0.416260
0.322815 0.181824 0.648285
0.557220 0.176819 0.664551
0.686768 0.165619 0.699890
0.687897 0.165466 0.700470
0.687897 0.165466 0.700470
0.032135 0.142303 0.311768
0.032135 0.142303 0.311768
0.032135 0.142303 0.311768
0.078186 0.177124 0.421600
0.326385 0.181732 0.648071
0.558441 0.176697 0.664825
0.686676 0.165588 0.700012
0.687897 0.165466 0.700470
0.687897 0.165466 0.700470
0.032135 0.142303 0.311768
0.032135 0.142303 0.311768
0.032135 0.142303 0.311768
0.079010 0.177399 0.420929
0.328094 0.181580 0.648010
0.558350 0.176758 0.664764
0.686401 0.165649 0.699768
0.687897 0.165466 0.700470
0.687897 0.165466 0.700470
0.032135 0.142303 0.311768
0.032135 0.142303 0.311768
0.032135 0.142303 0.311768
0.055237 0.162170 0.352722
0.304962 0.181396 0.647919
0.545807 0.177734 0.661804
0.684692 0.165802 0.699066
0.687897 0.165466 0.700470
0.687897 0.165466 0.700470
0.051178 0.261536 0.527222
0.051788 0.263611 0.530518
0.052124 0.265320 0.533234
0.050079 0.258270 0.522949
0.284241 0.285004 0.685455
0.581116 0.270874 0.713654
0.734741 0.254700 0.743561
0.741608 0.251495 0.745911
0.740021 0.248077 0.744568
0.222870 0.637268 0.881866
0.224762 0.639404 0.883148
0.227142 0.642273 0.884674
0.223724 0.638184 0.883301
0.357269 0.667908 0.875000
0.691345 0.673920 0.832825
0.806366 0.638702 0.812683
0.827057 0.637054 0.817261
0.826599 0.634674 0.817505
0.376740 0.789429 0.903198
0.376892 0.789612 0.903046
0.377228 0.789856 0.903351
0.376556 0.789154 0.903564
0.396240 0.790466 0.904053
0.716858 0.837982 0.896790
0.843079 0.853455 0.878082
0.877075 0.836548 0.857422
0.876190 0.836273 0.859985
0.419342 0.821686 0.886749
0.419342 0.821747 0.886658
0.419373 0.821808 0.886902
0.419128 0.821564 0.887299
0.418365 0.821198 0.888031
0.665466 0.855560 0.866791
0.813477 0.898193 0.861115
0.901489 0.915741 0.858795
0.913025 0.917725 0.868195
0.427643 0.826904 0.893768
0.427673 0.826935 0.893860
0.427704 0.826935 0.894012
0.427765 0.826965 0.893890
0.427734 0.826935 0.893890
0.662628 0.860809 0.871826
0.811005 0.906525 0.862762
0.901459 0.924133 0.856323
0.918915 0.926575 0.868103
0.032135 0.142303 0.311768
0.032135 0.142303 0.311768
0.032135 0.142303 0.311768
0.116425 0.175964 0.506500
0.392639 0.182220 0.645905
0.626953 0.171417 0.679688
0.687897 0.165466 0.700470
0.687897 0.165466 0.700470
0.687897 0.165466 0.700470
0.032135 0.142303 0.311768
0.032135 0.142303 0.311768
0.032135 0.142303 0.311768
0.116699 0.175781 0.507721
0.393188 0.182220 0.645935
0.627014 0.171387 0.679749
0.687897 0.165466 0.700470
0.687897 0.165466 0.700470
0.687897 0.165466 0.700470
0.032135 0.142303 0.311768
0.032135 0.142303 0.311768
0.032135 0.142303 0.311768
0.102386 0.175720 0.478577
0.385010 0.182281 0.646027
0.623505 0.171692 0.678772
0.687897 0.165466 0.700470
0.687897 0.165466 0.700470
0.687897 0.165466 0.700470
0.032135 0.142303 0.311768
0.032135 0.142303 0.311768
0.032135 0.142303 0.311768
0.053040 0.159821 0.346191
0.343536 0.181824 0.648163
0.605743 0.173218 0.674377
0.687897 0.165466 0.700470
0.687897 0.165466 0.700470
0.687897 0.165466 0.700470
0.078552 0.375275 0.698914
0.079346 0.377869 0.702209
0.075623 0.368134 0.690857
0.063446 0.320618 0.623077
0.273651 0.274963 0.677551
0.616333 0.258240 0.714233
0.737061 0.241211 0.742310
0.736664 0.240112 0.741669
0.737335 0.242065 0.742218
0.297058 0.716278 0.912079
0.297668 0.716736 0.912201
0.295349 0.714417 0.911957
0.282959 0.701752 0.908661
0.338379 0.691254 0.895508
0.684479 0.661835 0.830719
0.816498 0.629517 0.814789
0.825958 0.627625 0.817230
0.826080 0.629364 0.817200
0.405548 0.812256 0.914185
0.405518 0.812256 0.914185
0.405090 0.812012 0.914429
0.402863 0.810486 0.914948
0.407684 0.807922 0.916077
0.707489 0.846771 0.904510
0.842712 0.851990 0.885925
0.874664 0.833405 0.861389
0.874969 0.833984 0.861633
0.431152 0.828918 0.904816
0.431152 0.828918 0.904846
0.431152 0.828918 0.904846
0.430908 0.828766 0.905426
0.429840 0.828156 0.906311
0.669342 0.861267 0.883789
0.814087 0.898132 0.876923
0.886017 0.919037 0.869293
0.905090 0.920044 0.870850
0.431305 0.828949 0.903656
0.431305 0.828949 0.903229
0.431335 0.828979 0.903473
0.431427 0.829132 0.903900
0.431702 0.829254 0.904816
0.667908 0.863312 0.881805
0.811951 0.906006 0.875824
0.885651 0.931244 0.861572
0.914459 0.931030 0.870239
