example/assets/luts/lut7.cube
#LUT size
LUT_3D_SIZE 5
#LUT data points
0.019592 0.016388 0.019196
0.137451 0.017365 0.000488
0.459167 0.000000 0.000458
0.712341 0.000000 0.000488
0.741028 0.000000 0.000366
0.075989 0.077332 0.055206
0.151947 0.099426 0.042450
0.478333 0.062927 0.002167
0.702423 0.000000 0.000549
0.736023 0.000000 0.000519
0.316101 0.322784 0.155792
0.316010 0.322632 0.155762
0.659180 0.469971 0.010223
0.985107 0.506622 0.040588
1.000000 0.621887 0.046478
0.609253 0.632690 0.206299
0.609161 0.632538 0.206268
0.632843 0.680450 0.182587
0.910553 0.806946 0.184357
0.958496 0.828857 0.226807
0.629425 0.653503 0.215576
0.629425 0.653503 0.215576
0.680756 0.735474 0.181976
0.945007 0.826904 0.210388
0.958496 0.828857 0.226807
0.009521 0.028564 0.065216
0.118164 0.042358 0.102448
0.540009 0.000000 0.000305
0.765533 0.000000 0.000336
0.770233 0.000000 0.065796
0.034424 0.082550 0.116547
0.113434 0.099640 0.120392
0.531067 0.074615 0.053436
0.771667 0.000000 0.000244
0.770081 0.000000 0.021576
0.314880 0.320587 0.158051
0.314056 0.320099 0.164764
0.652649 0.469971 0.067566
0.981201 0.530304 0.042572
1.000000 0.621979 0.047150
0.608459 0.631836 0.205963
0.608185 0.631470 0.205750
0.635132 0.685059 0.179779
0.910004 0.806122 0.183563
0.958496 0.828857 0.226807
0.629425 0.653503 0.215576
0.629425 0.653503 0.215576
0.677399 0.733337 0.182739
0.944122 0.826782 0.210175
0.958496 0.828857 0.226807
0.015442 0.078888 0.182068
0.020233 0.086487 0.200348
0.387085 0.119141 0.407990
0.725616 0.103149 0.448547
0.716156 0.115234 0.533875
0.015381 0.078735 0.181824
0.019867 0.085480 0.197815
0.382172 0.119171 0.405884
0.724640 0.104370 0.456573
0.717194 0.114532 0.531281
0.124725 0.415833 0.547607
0.124481 0.415588 0.547974
0.542603 0.512543 0.528748
0.878906 0.547211 0.518738
0.884430 0.541351 0.522919
0.385834 0.752441 0.422180
0.370728 0.758575 0.432892
0.477203 0.757202 0.434906
0.863831 0.849274 0.543060
0.917572 0.883270 0.559235
0.352325 0.802307 0.538544
0.354065 0.801697 0.533539
0.488068 0.765411 0.426392
0.890137 0.878296 0.539429
0.917969 0.884094 0.556946
0.028809 0.129089 0.285675
0.028809 0.129150 0.285706
0.296997 0.170807 0.604980
0.683990 0.155060 0.668396
0.687927 0.164154 0.696747
0.028778 0.129028 0.285492
0.028778 0.129028 0.285522
0.302826 0.171082 0.603424
0.683411 0.154999 0.667938
0.687927 0.164062 0.696472
0.051147 0.269440 0.535950
0.054565 0.289825 0.569183
0.367676 0.359894 0.699677
0.765869 0.316467 0.743927
0.748596 0.264740 0.741852
0.351074 0.768677 0.832855
0.350922 0.768616 0.833038
0.386200 0.773499 0.831482
0.839783 0.847534 0.808990
0.904022 0.866821 0.829254
0.412872 0.820251 0.864777
0.412811 0.820251 0.864624
0.409485 0.819061 0.859344
0.844574 0.895203 0.787109
0.917847 0.918549 0.823792
0.032135 0.142303 0.311768
0.032135 0.142303 0.311768
0.392639 0.182220 0.645905
0.687897 0.165466 0.700470
0.687897 0.165466 0.700470
0.032135 0.142303 0.311768
0.032135 0.142303 0.311768
0.385010 0.182281 0.646027
0.687897 0.165466 0.700470
0.687897 0.165466 0.700470
0.078552 0.375275 0.698914
0.075623 0.368134 0.690857
0.273651 0.274963 0.677551
0.737061 0.241211 0.742310
0.737335 0.242065 0.742218
0.405548 0.812256 0.914185
0.405090 0.812012 0.914429
0.407684 0.807922 0.916077
0.842712 0.851990 0.885925
0.874969 0.833984 0.861633
0.431305 0.828949 0.903656
0.431335 0.828979 0.903473
0.431702 0.829254 0.904816
0.811951 0.906006 0.875824
0.914459 0.931030 0.870239
