example/assets/luts/lut7.cube
#LUT size
LUT_3D_SIZE 17
#LUT data points
0.019592 0.016388 0.019196
0.031494 0.018127 0.018921
0.051422 0.020447 0.016022
0.083374 0.021942 0.003357
0.137451 0.017365 0.000488
0.216187 0.004883 0.000458
0.305664 0.000000 0.000458
0.385895 0.000000 0.000458
0.459167 0.000000 0.000458
0.533081 0.000000 0.000488
0.606659 0.000000 0.000519
0.672394 0.000000 0.000549
0.712341 0.000000 0.000488
0.726044 0.000000 0.000366
0.733612 0.000000 0.000366
0.737976 0.000000 0.000366
0.741028 0.000000 0.000366
0.023712 0.021606 0.022247
0.030365 0.022919 0.022949
0.047729 0.024445 0.019012
0.077454 0.026123 0.003998
0.128418 0.024658 0.000671
0.207092 0.007080 0.000549
0.301178 0.000000 0.000488
0.384460 0.000000 0.000458
0.458344 0.000000 0.000458
0.532318 0.000000 0.000488
0.605865 0.000000 0.000519
0.671753 0.000000 0.000549
0.711853 0.000000 0.000488
0.725464 0.000000 0.000366
0.733246 0.000000 0.000366
0.737610 0.000000 0.000366
0.740540 0.000000 0.000366
0.030914 0.031036 0.026886
0.033722 0.032043 0.027405
0.049622 0.035126 0.028809
0.079529 0.036652 0.005859
0.126556 0.037140 0.001404
0.198639 0.031891 0.000916
0.286072 0.007843 0.000671
0.375336 0.000000 0.000519
0.455597 0.000000 0.000458
0.530670 0.000000 0.000488
0.604095 0.000000 0.000519
0.669891 0.000000 0.000549
0.710114 0.000000 0.000488
0.723999 0.000000 0.000366
0.731934 0.000000 0.000366
0.736176 0.000000 0.000366
0.739288 0.000000 0.000366
0.046875 0.047943 0.035767
0.047333 0.048218 0.035675
0.054535 0.052124 0.035095
0.086273 0.058258 0.035309
0.138123 0.058655 0.005798
0.207886 0.058594 0.002472
0.290802 0.050629 0.001526
0.371765 0.013123 0.001007
0.448547 0.000000 0.000671
0.525055 0.000000 0.000519
0.600769 0.000000 0.000519
0.666718 0.000000 0.000549
0.706848 0.000000 0.000488
0.721008 0.000000 0.000366
0.728973 0.000000 0.000366
0.733246 0.000000 0.000366
0.736267 0.000000 0.000366
0.075989 0.077332 0.055206
0.075958 0.077301 0.055115
0.077057 0.078339 0.054565
0.091431 0.087311 0.050598
0.151947 0.099426 0.042450
0.239594 0.096497 0.009125
0.325714 0.095642 0.004761
0.407776 0.088440 0.003235
0.478333 0.062927 0.002167
0.544830 0.023926 0.001404
0.609192 0.000000 0.000885
0.666107 0.000000 0.000641
0.702423 0.000000 0.000549
0.714600 0.000000 0.000488
0.724457 0.000000 0.000488
0.731689 0.000000 0.000519
0.736023 0.000000 0.000519
0.124115 0.125946 0.086578
0.124054 0.125946 0.086578
0.124023 0.125946 0.086395
0.126221 0.127899 0.085236
0.150238 0.146240 0.074402
0.266998 0.169403 0.046967
0.391479 0.163879 0.015625
0.492249 0.159790 0.010406
0.571228 0.152466 0.007904
0.633423 0.139008 0.005951
0.685699 0.104248 0.004395
0.725616 0.091461 0.003113
0.748138 0.079834 0.002441
0.751862 0.078522 0.002380
0.761841 0.092407 0.003021
0.782959 0.113281 0.004211
0.803528 0.139465 0.006195
0.187378 0.190460 0.119690
0.187347 0.190460 0.119659
0.187256 0.190399 0.119659
0.187286 0.190491 0.119537
0.190796 0.194000 0.117340
0.235657 0.229370 0.093170
0.413788 0.265472 0.036652
0.565857 0.261932 0.024292
0.666626 0.256012 0.020721
0.730927 0.248749 0.017517
0.779541 0.241272 0.014740
0.815918 0.232178 0.012665
0.837311 0.222260 0.011658
0.841400 0.222137 0.012024
0.851959 0.243347 0.013885
0.873962 0.276886 0.016937
0.899017 0.318573 0.021027
0.252167 0.256866 0.142731
0.252136 0.256866 0.142731
0.252106 0.256836 0.142731
0.252075 0.256775 0.142700
0.252075 0.256866 0.142578
0.260681 0.267487 0.135284
0.350525 0.326447 0.093781
0.550354 0.367371 0.020569
0.701843 0.373352 0.031921
0.776581 0.370392 0.032074
0.831207 0.367676 0.029694
0.887878 0.367645 0.027313
0.926178 0.369812 0.026337
0.933258 0.377808 0.027161
0.946960 0.400421 0.029602
0.964111 0.436584 0.033478
0.981903 0.478851 0.037811
0.316101 0.322784 0.155792
0.316101 0.322784 0.155792
0.316101 0.322784 0.155792
0.316071 0.322723 0.155762
0.316010 0.322632 0.155762
0.316650 0.324158 0.154572
0.345642 0.360657 0.130646
0.478912 0.432709 0.082458
0.659180 0.469971 0.010223
0.779968 0.488770 0.033936
0.849701 0.492889 0.040192
0.926178 0.498749 0.040985
0.985107 0.506622 0.040588
0.993683 0.518982 0.041412
1.000000 0.544098 0.043243
1.000000 0.582062 0.045410
1.000000 0.621887 0.046478
0.383698 0.393799 0.163116
0.383698 0.393799 0.163116
0.383698 0.393860 0.163086
0.383667 0.393829 0.163116
0.383667 0.393768 0.163055
0.383484 0.393555 0.163055
0.388611 0.402863 0.157104
0.450867 0.483276 0.107666
0.607788 0.545624 0.075653
0.738739 0.573517 0.033691
0.831970 0.601013 0.036255
0.927032 0.616028 0.043823
1.000000 0.629181 0.057129
1.000000 0.643250 0.070862
1.000000 0.666016 0.080994
1.000000 0.697388 0.089447
1.000000 0.726562 0.094849
0.459778 0.475922 0.170013
0.459778 0.475922 0.170013
0.459778 0.475983 0.169983
0.459747 0.475983 0.169983
0.459747 0.475952 0.169983
0.459595 0.475769 0.169952
0.459259 0.475311 0.169922
0.479370 0.510864 0.148743
0.576874 0.617188 0.095001
0.712402 0.652161 0.090607
0.795105 0.670166 0.086304
0.883667 0.698242 0.067383
0.981537 0.719238 0.082886
1.000000 0.732880 0.117004
0.993744 0.748169 0.138245
0.983307 0.767761 0.157745
0.972046 0.786163 0.174988
0.544464 0.566223 0.185089
0.544495 0.566223 0.185089
0.544464 0.566223 0.185089
0.544434 0.566162 0.185089
0.544434 0.566071 0.185059
0.544281 0.565979 0.185028
0.543976 0.565582 0.184937
0.547791 0.574646 0.179474
0.594543 0.650330 0.143219
0.694977 0.724335 0.113770
0.783173 0.740540 0.126160
0.851013 0.752808 0.135559
0.933197 0.771271 0.146179
0.971619 0.785553 0.173431
0.966125 0.795715 0.185547
0.960907 0.807678 0.199738
0.958618 0.818848 0.213409
0.609253 0.632690 0.206299
0.609253 0.632690 0.206299
0.609192 0.632690 0.206268
0.609161 0.632629 0.206268
0.609161 0.632538 0.206268
0.609070 0.632477 0.206207
0.608917 0.632324 0.206146
0.608765 0.632355 0.205750
0.632843 0.680450 0.182587
0.701996 0.757751 0.148865
0.778900 0.785919 0.151367
0.843414 0.797272 0.172516
0.910553 0.806946 0.184357
0.954865 0.815887 0.202881
0.958557 0.822998 0.218903
0.958496 0.827698 0.225189
0.958496 0.828857 0.226807
0.629425 0.653503 0.215576
0.629425 0.653503 0.215576
0.629425 0.653503 0.215576
0.629425 0.653503 0.215576
0.629425 0.653503 0.215576
0.629425 0.653503 0.215576
0.629425 0.653503 0.215576
0.629425 0.653503 0.215576
0.649292 0.694031 0.195496
0.706085 0.757416 0.169830
0.778564 0.799286 0.166779
0.843872 0.811707 0.185455
0.905945 0.821625 0.203400
0.949768 0.827423 0.211456
0.958496 0.828857 0.226807
0.958496 0.828857 0.226807
0.958496 0.828857 0.226807
0.629425 0.653503 0.215576
0.629425 0.653503 0.215576
0.629425 0.653503 0.215576
0.629425 0.653503 0.215576
0.629425 0.653503 0.215576
0.629425 0.653503 0.215576
0.629425 0.653503 0.215576
0.629425 0.653503 0.215576
0.653809 0.702454 0.192169
0.716217 0.765381 0.165344
0.787933 0.801239 0.167908
0.853943 0.813599 0.188293
0.912964 0.822693 0.205017
0.949677 0.827515 0.213623
0.958496 0.828766 0.226532
0.958496 0.828857 0.226807
0.958496 0.828857 0.226807
0.629425 0.653503 0.215576
0.629425 0.653503 0.215576
0.629425 0.653503 0.215576
0.629425 0.653503 0.215576
0.629425 0.653503 0.215576
0.629425 0.653503 0.215576
0.629425 0.653503 0.215576
0.630066 0.654816 0.214935
0.661957 0.715027 0.190216
0.735260 0.780487 0.165527
0.809875 0.805542 0.174500
0.875793 0.817169 0.194946
0.929810 0.825073 0.207977
0.955078 0.828369 0.219330
0.958496 0.828857 0.226807
0.958496 0.828857 0.226807
0.958496 0.828857 0.226807
0.629425 0.653503 0.215576
0.629425 0.653503 0.215576
0.629425 0.653503 0.215576
0.629425 0.653503 0.215576
0.629425 0.653503 0.215576
0.629425 0.653503 0.215576
0.629425 0.653503 0.215576
0.635101 0.665192 0.209961
0.680756 0.735474 0.181976
0.761261 0.795044 0.164856
0.835388 0.810394 0.182587
0.900391 0.821014 0.200714
0.945007 0.826904 0.210388
0.957581 0.828735 0.225037
0.958496 0.828857 0.226807
0.958496 0.828857 0.226807
0.958496 0.828857 0.226807
0.018646 0.017609 0.023956
0.029877 0.018921 0.024963
0.050903 0.021179 0.022980
0.083984 0.022736 0.011627
0.139832 0.017914 0.002167
0.219788 0.005035 0.000458
0.310608 0.000000 0.000458
0.391968 0.000000 0.000458
0.465576 0.000000 0.000458
0.540161 0.000000 0.000488
0.614227 0.000000 0.000519
0.679352 0.000000 0.000549
0.718628 0.000000 0.000488
0.731079 0.000000 0.000366
0.737885 0.000000 0.000366
0.741638 0.000000 0.000366
0.744354 0.000000 0.000366
0.021149 0.021515 0.026550
0.027985 0.022797 0.026947
0.045898 0.024841 0.025421
0.076630 0.027222 0.017609
0.128845 0.026367 0.003601
0.210144 0.007568 0.000549
0.306824 0.000000 0.000488
0.392395 0.000000 0.000458
0.467499 0.000000 0.000458
0.542603 0.000000 0.000488
0.616791 0.000000 0.000519
0.681854 0.000000 0.000458
0.720764 0.000000 0.000366
0.732788 0.000000 0.000366
0.739014 0.000000 0.000366
0.742340 0.000000 0.000366
0.744904 0.000000 0.000366
0.029388 0.029938 0.030365
0.032104 0.031036 0.031036
0.046906 0.034515 0.032318
0.077332 0.036743 0.019440
0.126099 0.037659 0.004303
0.201721 0.031067 0.000885
0.292725 0.007507 0.000641
0.383209 0.000000 0.000519
0.464111 0.000000 0.000458
0.540558 0.000000 0.000488
0.614716 0.000000 0.000519
0.680023 0.000000 0.000549
0.719238 0.000000 0.000488
0.731384 0.000000 0.000366
0.737823 0.000000 0.000366
0.741058 0.000000 0.000366
0.743622 0.000000 0.000366
0.046326 0.046692 0.039398
0.046753 0.046967 0.039825
0.053375 0.051300 0.038849
0.084045 0.057709 0.039368
0.136597 0.059052 0.008057
0.209564 0.058258 0.002411
0.294861 0.049194 0.001465
0.377075 0.012665 0.000977
0.455841 0.000000 0.000671
0.534668 0.000000 0.000519
0.610901 0.000000 0.000519
0.676331 0.000000 0.000549
0.716003 0.000000 0.000488
0.728516 0.000000 0.000366
0.735138 0.000000 0.000366
0.738281 0.000000 0.000366
0.740601 0.000000 0.000366
0.075531 0.076477 0.056427
0.075409 0.076233 0.056946
0.076569 0.077545 0.056244
0.090637 0.086792 0.052399
0.150269 0.098846 0.045746
0.239258 0.096527 0.009308
0.327148 0.095093 0.004700
0.410370 0.087738 0.003174
0.481995 0.062592 0.002136
0.551422 0.023743 0.001404
0.619446 0.000000 0.000885
0.676392 0.000000 0.000641
0.710815 0.000000 0.000488
0.722626 0.000000 0.000366
0.731903 0.000000 0.000366
0.737488 0.000000 0.000519
0.741058 0.000000 0.000519
0.123718 0.125488 0.086578
0.123535 0.125305 0.086700
0.123596 0.125397 0.086517
0.125824 0.127563 0.085266
0.150116 0.145844 0.074677
0.266083 0.168793 0.047485
0.391479 0.163849 0.015594
0.493378 0.159973 0.010437
0.573517 0.152924 0.007935
0.636597 0.139709 0.006012
0.690491 0.105316 0.004456
0.731903 0.092987 0.003204
0.753662 0.081970 0.002502
0.757996 0.080627 0.002380
0.769196 0.092896 0.002960
0.788300 0.113892 0.004211
0.806549 0.140350 0.006256
0.187103 0.190216 0.119537
0.186981 0.190125 0.119537
0.186951 0.190063 0.119507
0.186981 0.190216 0.119354
0.190704 0.193909 0.117065
0.235809 0.229309 0.092834
0.413544 0.265015 0.036163
0.565826 0.262085 0.024292
0.667084 0.256683 0.020813
0.731842 0.249817 0.017609
0.780914 0.242706 0.014893
0.818115 0.233978 0.012848
0.840302 0.224579 0.011841
0.844513 0.225037 0.012238
0.856018 0.244995 0.014008
0.876831 0.278076 0.017059
0.900452 0.319702 0.021149
0.251984 0.256683 0.142700
0.251923 0.256683 0.142670
0.251892 0.256653 0.142639
0.251831 0.256653 0.142639
0.251831 0.256683 0.142517
0.260651 0.267487 0.135040
0.351074 0.326538 0.093536
0.550323 0.367096 0.020386
0.701782 0.373596 0.031921
0.776703 0.371216 0.032166
0.831512 0.368835 0.029816
0.888641 0.369019 0.027496
0.927399 0.371368 0.026489
0.934845 0.379547 0.027313
0.948456 0.402252 0.029785
0.964813 0.437775 0.033630
0.982117 0.479675 0.037903
0.316010 0.322693 0.155762
0.315948 0.322662 0.155762
0.315979 0.322693 0.155731
0.315948 0.322662 0.155762
0.315887 0.322479 0.155762
0.316589 0.324036 0.154541
0.346008 0.361237 0.130096
0.479553 0.432709 0.082336
0.659149 0.469788 0.010284
0.779846 0.489014 0.033844
0.849731 0.493622 0.040222
0.926300 0.499634 0.041046
0.985291 0.507599 0.040649
0.993988 0.520081 0.041534
1.000000 0.545166 0.043304
1.000000 0.582794 0.045471
1.000000 0.622345 0.046509
0.383667 0.393829 0.163116
0.383575 0.393768 0.163055
0.383636 0.393799 0.163055
0.383606 0.393738 0.163086
0.383636 0.393616 0.163116
0.383423 0.393463 0.163055
0.388641 0.403046 0.156921
0.451630 0.484009 0.107178
0.608246 0.545593 0.075623
0.738739 0.573425 0.033691
0.831848 0.601227 0.036835
0.927063 0.616547 0.044037
1.000000 0.629822 0.057373
1.000000 0.643951 0.071198
1.000000 0.666656 0.081268
1.000000 0.697754 0.089508
1.000000 0.726685 0.094910
0.459778 0.475922 0.169983
0.459686 0.475922 0.169983
0.459747 0.475922 0.169983
0.459717 0.475891 0.169983
0.459717 0.475861 0.169952
0.459564 0.475677 0.169952
0.459106 0.475250 0.169891
0.479706 0.511627 0.148315
0.577728 0.617432 0.094849
0.712555 0.652161 0.090576
0.795074 0.670105 0.086243
0.883636 0.698273 0.068359
0.981567 0.719421 0.082886
1.000000 0.733185 0.117554
0.993683 0.748383 0.138580
0.983154 0.768036 0.157928
0.971985 0.786163 0.175079
0.544434 0.566132 0.185059
0.544403 0.566132 0.185059
0.544373 0.566071 0.185059
0.544373 0.566071 0.185059
0.544373 0.566040 0.185059
0.544250 0.565826 0.184998
0.543884 0.565460 0.184875
0.547882 0.574951 0.179138
0.595184 0.651276 0.142670
0.695465 0.724365 0.113770
0.783203 0.740540 0.126160
0.850891 0.752625 0.135498
0.933136 0.771240 0.146240
0.971649 0.785522 0.173523
0.966187 0.795776 0.185669
0.960876 0.807892 0.199799
0.958649 0.818878 0.213470
0.609161 0.632568 0.206268
0.609161 0.632629 0.206207
0.609161 0.632568 0.206268
0.609161 0.632538 0.206268
0.609100 0.632507 0.206207
0.609039 0.632355 0.206177
0.608887 0.632202 0.206116
0.608704 0.632324 0.205750
0.633179 0.681000 0.182312
0.702454 0.758087 0.148773
0.779175 0.785980 0.151428
0.843506 0.797302 0.172516
0.910400 0.806915 0.184326
0.954834 0.815857 0.202881
0.958557 0.822906 0.218903
0.958496 0.827728 0.225220
0.958496 0.828857 0.226807
0.629425 0.653503 0.215576
0.629425 0.653503 0.215576
0.629425 0.653503 0.215576
0.629425 0.653503 0.215576
0.629425 0.653503 0.215576
0.629425 0.653503 0.215576
0.629425 0.653503 0.215576
0.629425 0.653503 0.215576
0.649689 0.694733 0.195099
0.706665 0.758118 0.169434
0.778900 0.799377 0.166809
0.844147 0.811798 0.185455
0.906006 0.821655 0.203400
0.949707 0.827423 0.211426
0.958496 0.828857 0.226807
0.958496 0.828857 0.226807
0.958496 0.828857 0.226807
0.629425 0.653503 0.215576
0.629425 0.653503 0.215576
0.629425 0.653503 0.215576
0.629425 0.653503 0.215576
0.629425 0.653503 0.215576
0.629425 0.653503 0.215576
0.629425 0.653503 0.215576
0.629425 0.653503 0.215576
0.654083 0.703003 0.191895
0.716705 0.765869 0.165009
0.788208 0.801239 0.167938
0.854065 0.813599 0.188354
0.913025 0.822601 0.204987
0.949890 0.827545 0.213623
0.958496 0.828766 0.226532
0.958496 0.828857 0.226807
0.958496 0.828857 0.226807
0.629425 0.653503 0.215576
0.629425 0.653503 0.215576
0.629425 0.653503 0.215576
0.629425 0.653503 0.215576
0.629425 0.653503 0.215576
0.629425 0.653503 0.215576
0.629425 0.653503 0.215576
0.630096 0.654846 0.214905
0.662109 0.715485 0.190125
0.735535 0.781006 0.165497
0.810089 0.805603 0.174561
0.875946 0.817169 0.194977
0.929810 0.825104 0.207947
0.954926 0.828369 0.219330
0.958496 0.828857 0.226807
0.958496 0.828857 0.226807
0.958496 0.828857 0.226807
0.629425 0.653503 0.215576
0.629425 0.653503 0.215576
0.629425 0.653503 0.215576
0.629425 0.653503 0.215576
0.629425 0.653503 0.215576
0.629425 0.653503 0.215576
0.629425 0.653503 0.215576
0.635284 0.665649 0.209686
0.681000 0.735748 0.181793
0.761505 0.795105 0.164856
0.835663 0.810425 0.182648
0.900574 0.820923 0.200714
0.944977 0.826935 0.210358
0.957642 0.828766 0.225006
0.958496 0.828857 0.226807
0.958496 0.828857 0.226807
0.958496 0.828857 0.226807
0.016571 0.019348 0.031830
0.024811 0.020569 0.034851
0.048401 0.022888 0.036407
0.083130 0.024750 0.030975
0.138092 0.023621 0.005371
0.222748 0.006409 0.000427
0.321716 0.000000 0.000458
0.408600 0.000000 0.000427
0.484619 0.000000 0.000458
0.559814 0.000000 0.000458
0.634094 0.000000 0.000488
0.697723 0.000000 0.000458
0.733490 0.000000 0.000366
0.743073 0.000000 0.000366
0.748932 0.000000 0.000366
0.752380 0.000000 0.000366
0.755646 0.000000 0.000366
0.017944 0.021637 0.033417
0.024017 0.023132 0.034790
0.042664 0.025330 0.036835
0.075531 0.028015 0.032959
0.129425 0.028290 0.009094
0.215729 0.008026 0.001190
0.318909 0.000000 0.000458
0.408661 0.000000 0.000427
0.485718 0.000000 0.000458
0.561279 0.000000 0.000458
0.635620 0.000000 0.000488
0.699158 0.000000 0.000458
0.734558 0.000000 0.000366
0.744049 0.000000 0.000366
0.749481 0.000000 0.000366
0.752899 0.000000 0.000366
0.755707 0.000000 0.000366
0.023102 0.030518 0.039001
0.026428 0.031128 0.039246
0.042114 0.034332 0.040680
0.072754 0.038025 0.037415
0.123169 0.040619 0.020599
0.203247 0.035217 0.004059
0.303589 0.008698 0.000671
0.401581 0.000000 0.000519
0.487183 0.000000 0.000458
0.565735 0.000000 0.000458
0.640137 0.000000 0.000427
0.702698 0.000000 0.000366
0.737122 0.000000 0.000366
0.745911 0.000000 0.000366
0.750702 0.000000 0.000366
0.753235 0.000000 0.000366
0.755127 0.000000 0.000366
0.040192 0.047485 0.044037
0.040527 0.047760 0.044556
0.050354 0.050629 0.048004
0.078644 0.057800 0.050171
0.132294 0.061096 0.011139
0.211304 0.059937 0.003448
0.305023 0.049469 0.001465
0.396423 0.012573 0.000977
0.481445 0.000000 0.000671
0.561432 0.000000 0.000519
0.636536 0.000000 0.000427
0.699493 0.000000 0.000366
0.734741 0.000000 0.000366
0.743744 0.000000 0.000366
0.748505 0.000000 0.000366
0.750824 0.000000 0.000366
0.752625 0.000000 0.000366
0.072998 0.075317 0.062134
0.072510 0.075348 0.062317
0.074341 0.076508 0.063507
0.089050 0.086212 0.061523
0.145111 0.098846 0.059387
0.237854 0.098358 0.010529
0.332214 0.095917 0.004700
0.420227 0.087646 0.003113
0.498413 0.062286 0.002106
0.575012 0.023621 0.001404
0.646545 0.000000 0.000916
0.701050 0.000000 0.000549
0.730957 0.000000 0.000366
0.740814 0.000000 0.000366
0.747070 0.000000 0.000366
0.749756 0.000000 0.000366
0.751465 0.000000 0.000366
0.122742 0.124390 0.088348
0.122589 0.124237 0.088867
0.122742 0.124084 0.090179
0.125366 0.126678 0.089172
0.149689 0.145569 0.078949
0.262817 0.168732 0.059326
0.393341 0.164612 0.016479
0.499481 0.161072 0.010468
0.581970 0.154694 0.008026
0.647736 0.142059 0.006134
0.704742 0.108215 0.004639
0.747498 0.096985 0.003357
0.769409 0.086975 0.002655
0.776520 0.084351 0.002472
0.787628 0.093384 0.002899
0.799896 0.114899 0.004150
0.812866 0.141388 0.006195
0.186584 0.189575 0.119598
0.186523 0.189453 0.119751
0.186401 0.189209 0.120117
0.186523 0.189423 0.119934
0.190735 0.193970 0.117188
0.236053 0.229401 0.093628
0.412445 0.264404 0.038452
0.566864 0.262665 0.024261
0.669556 0.258667 0.021027
0.735321 0.252960 0.017975
0.785156 0.246918 0.015320
0.824493 0.238892 0.013245
0.848480 0.230438 0.012268
0.853851 0.230896 0.012665
0.865692 0.248260 0.014374
0.883148 0.280884 0.017334
0.904449 0.321686 0.021271
0.251648 0.256348 0.142578
0.251556 0.256256 0.142578
0.251465 0.256134 0.142548
0.251404 0.256073 0.142517
0.251556 0.256439 0.142242
0.260620 0.267792 0.134460
0.352448 0.326721 0.092865
0.550110 0.366455 0.019989
0.701630 0.374268 0.031952
0.777130 0.373016 0.032349
0.832428 0.371552 0.030151
0.890778 0.372650 0.027893
0.931152 0.375366 0.026886
0.938629 0.383575 0.027740
0.950989 0.405823 0.030151
0.966064 0.440094 0.033844
0.983307 0.480713 0.037994
0.315735 0.322357 0.155731
0.315735 0.322296 0.155731
0.315674 0.322235 0.155731
0.315674 0.322174 0.155731
0.315491 0.322144 0.155701
0.316223 0.323792 0.154388
0.347015 0.362854 0.128815
0.481262 0.432770 0.082031
0.658936 0.469299 0.010376
0.779602 0.489532 0.033752
0.849640 0.494995 0.040253
0.926270 0.501648 0.041229
0.985901 0.510010 0.040894
0.994690 0.522583 0.041748
1.000000 0.547302 0.043427
1.000000 0.583984 0.045532
1.000000 0.622589 0.046478
0.383423 0.393494 0.163055
0.383423 0.393524 0.163055
0.383392 0.393433 0.163025
0.383423 0.393341 0.163025
0.383301 0.393311 0.163055
0.382996 0.393066 0.163055
0.388702 0.403351 0.156494
0.453766 0.485718 0.106079
0.609375 0.545471 0.075470
0.738586 0.572968 0.033600
0.831512 0.601501 0.037842
0.926514 0.617584 0.044342
1.000000 0.631104 0.057861
1.000000 0.645416 0.071930
1.000000 0.667847 0.081604
1.000000 0.698334 0.089600
1.000000 0.726929 0.094910
0.459595 0.475677 0.169952
0.459564 0.475739 0.169952
0.459534 0.475677 0.169952
0.459503 0.475586 0.169952
0.459503 0.475494 0.169952
0.459290 0.475311 0.169952
0.458801 0.474884 0.169891
0.480896 0.513336 0.147125
0.580139 0.618042 0.094482
0.713287 0.652069 0.090515
0.795013 0.669708 0.085999
0.883331 0.698334 0.069977
0.981140 0.719879 0.082855
1.000000 0.733795 0.118744
0.993622 0.748901 0.139130
0.983154 0.768158 0.158081
0.971985 0.786224 0.175079
0.544281 0.565979 0.185028
0.544281 0.565948 0.184998
0.544220 0.565857 0.184998
0.544128 0.565735 0.184998
0.544098 0.565674 0.184967
0.543976 0.565582 0.184937
0.543610 0.565155 0.184845
0.548157 0.575928 0.178406
0.596771 0.653687 0.141418
0.696930 0.724548 0.113770
0.783630 0.740479 0.126129
0.850891 0.752411 0.135315
0.933167 0.771210 0.146271
0.971527 0.785706 0.173706
0.966217 0.796051 0.185913
0.960907 0.807922 0.199860
0.958649 0.818817 0.213440
0.609070 0.632507 0.206207
0.609070 0.632507 0.206207
0.609070 0.632477 0.206177
0.609039 0.632324 0.206177
0.609009 0.632263 0.206146
0.608887 0.632202 0.206116
0.608704 0.632050 0.206055
0.608582 0.632172 0.205688
0.633911 0.682465 0.181671
0.703522 0.758881 0.148590
0.779846 0.786072 0.151550
0.843750 0.797302 0.172516
0.910522 0.806763 0.184204
0.954681 0.815857 0.202789
0.958588 0.822998 0.219025
0.958496 0.827728 0.225159
0.958496 0.828857 0.226807
0.629425 0.653503 0.215576
0.629425 0.653503 0.215576
0.629425 0.653503 0.215576
0.629425 0.653503 0.215576
0.629425 0.653503 0.215576
0.629425 0.653503 0.215576
0.629425 0.653503 0.215576
0.629425 0.653503 0.215576
0.650482 0.696411 0.194305
0.708038 0.759735 0.168488
0.779724 0.799561 0.166931
0.844635 0.811920 0.185638
0.906006 0.821655 0.203400
0.949615 0.827423 0.211487
0.958496 0.828857 0.226807
0.958496 0.828857 0.226807
0.958496 0.828857 0.226807
0.629425 0.653503 0.215576
0.629425 0.653503 0.215576
0.629425 0.653503 0.215576
0.629425 0.653503 0.215576
0.629425 0.653503 0.215576
0.629425 0.653503 0.215576
0.629425 0.653503 0.215576
0.629425 0.653503 0.215576
0.654633 0.704041 0.191559
0.717743 0.766846 0.164612
0.789001 0.801544 0.167999
0.854645 0.813812 0.188568
0.913422 0.822723 0.205048
0.949921 0.827545 0.213623
0.958435 0.828766 0.226593
0.958496 0.828857 0.226807
0.958496 0.828857 0.226807
0.629425 0.653503 0.215576
0.629425 0.653503 0.215576
0.629425 0.653503 0.215576
0.629425 0.653503 0.215576
0.629425 0.653503 0.215576
0.629425 0.653503 0.215576
0.629425 0.653503 0.215576
0.630096 0.654938 0.214905
0.662567 0.716034 0.189941
0.736237 0.781525 0.165375
0.810669 0.805725 0.174683
0.876282 0.817352 0.195068
0.929840 0.825134 0.207947
0.955017 0.828369 0.219330
0.958496 0.828857 0.226807
0.958496 0.828857 0.226807
0.958496 0.828857 0.226807
0.629425 0.653503 0.215576
0.629425 0.653503 0.215576
0.629425 0.653503 0.215576
0.629425 0.653503 0.215576
0.629425 0.653503 0.215576
0.629425 0.653503 0.215576
0.629425 0.653503 0.215576
0.635468 0.666107 0.209503
0.681488 0.736176 0.181641
0.761841 0.795166 0.164917
0.835876 0.810425 0.182739
0.900757 0.820953 0.200745
0.945129 0.826935 0.210327
0.957672 0.828766 0.225006
0.958496 0.828857 0.226807
0.958496 0.828857 0.226807
0.958496 0.828857 0.226807
0.013000 0.022644 0.045654
0.018127 0.024139 0.048645
0.035675 0.026855 0.058136
0.075470 0.030212 0.059387
0.136841 0.028961 0.047302
0.224945 0.008087 0.006470
0.332062 0.000000 0.000366
0.430511 0.000000 0.000397
0.516907 0.000000 0.000366
0.594116 0.000000 0.000336
0.664307 0.000000 0.000366
0.722198 0.000000 0.000366
0.752533 0.000000 0.000366
0.758545 0.000000 0.000366
0.761749 0.000000 0.000366
0.764160 0.000000 0.000366
0.766327 0.000000 0.000366
0.013275 0.023224 0.045807
0.017822 0.024872 0.048004
0.032593 0.027435 0.056335
