example/assets/luts/lut8.cube
#LUT size
LUT_3D_SIZE 5
#LUT data points
0.000732 0.000732 0.000732
0.046082 0.008575 0.014435
0.293610 0.052643 0.046875
0.780640 0.139771 0.048859
0.835419 0.148956 0.054230
0.020477 0.023987 0.012695
0.088654 0.039764 0.023438
0.566193 0.129089 0.039612
0.816681 0.172485 0.046875
0.839081 0.167358 0.047852
0.037170 0.180084 0.095612
0.262634 0.399445 0.246033
0.497498 0.358734 0.052673
0.877655 0.350281 0.036865
0.888611 0.320984 0.039520
0.391388 0.594635 0.441040
0.397064 0.602203 0.443970
0.470428 0.654358 0.454590
0.946381 0.797302 0.378418
0.973907 0.751434 0.118927
0.378754 0.592926 0.444214
0.387817 0.602203 0.447388
0.417328 0.630707 0.454956
0.701294 0.731293 0.494263
0.926727 0.826111 0.629303
0.002197 0.002930 0.008331
0.059021 0.012726 0.034790
0.337189 0.026154 0.079010
0.808380 0.121399 0.108063
0.835358 0.111877 0.120972
0.009033 0.031647 0.043365
0.061615 0.058075 0.075867
0.502258 0.075134 0.086639
0.821808 0.153290 0.100983
0.842987 0.150360 0.101959
0.007721 0.145874 0.095245
0.051178 0.240814 0.158203
0.447723 0.355042 0.101318
0.896942 0.404968 0.062592
0.906219 0.366882 0.059174
0.298309 0.522705 0.407715
0.349518 0.559845 0.433655
0.486053 0.662170 0.463623
0.939148 0.815186 0.497711
0.959717 0.806580 0.346741
0.286377 0.528473 0.412537
0.337097 0.560333 0.433899
0.423218 0.633942 0.463287
0.711182 0.734985 0.495758
0.925751 0.827332 0.636902
0.019836 0.045135 0.104614
0.031830 0.053894 0.139069
0.321625 0.042786 0.177795
0.756226 0.046265 0.290405
0.765442 0.050415 0.318420
0.027588 0.134521 0.222015
0.029816 0.159943 0.259399
0.396118 0.059357 0.249969
0.712250 0.080353 0.368622
0.729553 0.078705 0.377411
0.012848 0.267395 0.268799
0.013397 0.287323 0.276337
0.338013 0.428375 0.422241
0.854553 0.383972 0.436737
0.849548 0.338440 0.431854
0.085999 0.393890 0.340790
0.096924 0.403290 0.344360
0.246368 0.506744 0.424133
0.938385 0.821411 0.545654
0.955872 0.818878 0.449524
0.095215 0.418945 0.373199
0.099854 0.417450 0.364624
0.180664 0.466675 0.389679
0.749603 0.764374 0.541870
0.924347 0.840363 0.686279
0.032013 0.174805 0.286438
0.033264 0.177582 0.295563
0.323334 0.098328 0.274384
0.551605 0.154022 0.393372
0.561127 0.173035 0.405823
0.036652 0.238159 0.347534
0.038361 0.244781 0.354645
0.496155 0.305023 0.482819
0.562927 0.261871 0.443787
0.566345 0.259216 0.443054
0.068176 0.356171 0.419373
0.102814 0.401611 0.459473
0.105865 0.386658 0.467560
0.670471 0.448059 0.574097
0.664368 0.434906 0.564575
0.093292 0.474609 0.468750
0.096710 0.480164 0.473572
0.145294 0.507812 0.500519
0.820435 0.828735 0.817017
0.859711 0.811218 0.818848
0.095245 0.492096 0.483795
0.099884 0.493561 0.485260
0.160645 0.523407 0.514618
0.605225 0.804504 0.789398
0.916748 0.867889 0.829803
0.037140 0.231995 0.346527
0.040802 0.244019 0.362213
0.165558 0.287964 0.444916
0.564117 0.270813 0.450806
0.570465 0.270569 0.451538
0.038116 0.243042 0.353638
0.039581 0.249664 0.360260
0.457489 0.336639 0.512695
0.567078 0.275513 0.454010
0.571960 0.273315 0.453522
0.064026 0.348602 0.415710
0.103821 0.401642 0.462219
0.094849 0.378845 0.461945
0.652863 0.424805 0.557434
0.657257 0.425781 0.559143
0.095490 0.483856 0.480896
0.098907 0.488922 0.485260
0.135864 0.508911 0.505493
0.800812 0.827789 0.832581
0.844543 0.800781 0.824158
0.099152 0.500854 0.495239
0.102325 0.502075 0.496460
0.162537 0.530426 0.524567
0.634857 0.826263 0.817261
0.857635 0.864716 0.853729
