example/assets/luts/lut8.cube
#LUT size
LUT_3D_SIZE 9
#LUT data points
0.000732 0.000732 0.000732
0.009064 0.001709 0.003174
0.046082 0.008575 0.014435
0.146423 0.027405 0.036682
0.293610 0.052643 0.046875
0.526123 0.090363 0.043976
0.780640 0.139771 0.048859
0.823029 0.147278 0.051788
0.835419 0.148956 0.054230
0.003906 0.004395 0.003906
0.017395 0.006866 0.007111
0.096039 0.022308 0.026672
0.276489 0.054596 0.045410
0.603485 0.109192 0.042755
0.799561 0.149231 0.047394
0.812042 0.151184 0.047638
0.824249 0.153625 0.048126
0.836395 0.155792 0.048370
0.020477 0.023987 0.012695
0.020721 0.031128 0.010773
0.088654 0.039764 0.023438
0.275970 0.075684 0.038330
0.566193 0.129089 0.039612
0.805939 0.175690 0.046173
0.816681 0.172485 0.046875
0.827454 0.169800 0.047394
0.839081 0.167358 0.047852
0.011993 0.064270 0.026062
0.018463 0.111572 0.054749
0.021484 0.106750 0.042297
0.246582 0.157806 0.019104
0.571869 0.200348 0.035187
0.826263 0.242767 0.043213
0.835327 0.236145 0.043945
0.844116 0.229248 0.044678
0.852844 0.220764 0.045654
0.037170 0.180084 0.095612
0.206238 0.355835 0.211182
0.262634 0.399445 0.246033
0.276398 0.361877 0.212341
0.497498 0.358734 0.052673
0.868408 0.370667 0.034943
0.877655 0.350281 0.036865
0.882538 0.333832 0.038300
0.888611 0.320984 0.039520
0.388794 0.497284 0.341370
0.417847 0.584991 0.417328
0.405579 0.600525 0.436707
0.430756 0.613586 0.431885
0.555878 0.614532 0.436554
0.826660 0.623566 0.092163
0.931061 0.578857 0.040344
0.935516 0.531799 0.037231
0.940643 0.495880 0.035706
0.391388 0.594635 0.441040
0.393127 0.598541 0.442993
0.397064 0.602203 0.443970
0.409790 0.614471 0.446655
0.470428 0.654358 0.454590
0.660156 0.703003 0.483185
0.946381 0.797302 0.378418
0.958374 0.771729 0.207245
0.973907 0.751434 0.118927
0.383606 0.593658 0.442993
0.388245 0.598297 0.444702
0.392639 0.602448 0.445923
0.399261 0.608826 0.447662
0.437012 0.644287 0.451843
0.581818 0.694641 0.488678
0.826935 0.750671 0.483490
0.932312 0.820312 0.566467
0.935944 0.825653 0.572327
0.378754 0.592926 0.444214
0.383392 0.597565 0.445923
0.387817 0.602203 0.447388
0.392487 0.606873 0.449097
0.417328 0.630707 0.454956
0.504456 0.680847 0.471558
0.701294 0.731293 0.494263
0.931580 0.830017 0.608429
0.926727 0.826111 0.629303
0.000977 0.001221 0.002441
0.012238 0.003418 0.009552
0.056610 0.010529 0.021301
0.167938 0.025909 0.045715
0.319336 0.047028 0.055725
0.562286 0.091095 0.062592
0.798279 0.137512 0.070892
0.824982 0.141388 0.076263
0.837128 0.142365 0.081116
0.003174 0.006134 0.009796
0.016632 0.010040 0.016663
0.091125 0.019348 0.029877
0.266907 0.048218 0.052307
0.585205 0.102112 0.054749
0.800812 0.146545 0.059387
0.813019 0.148987 0.059631
0.824982 0.151398 0.060120
0.837372 0.153107 0.062775
0.006104 0.017395 0.013947
0.012665 0.026459 0.013245
0.083740 0.039246 0.021698
0.252441 0.077911 0.040802
0.528839 0.126190 0.043274
0.808136 0.181305 0.051544
0.818420 0.176422 0.052277
0.828918 0.172729 0.052765
0.840088 0.169342 0.053497
0.004669 0.055206 0.032135
0.012543 0.098297 0.055420
0.020233 0.105286 0.044495
0.227997 0.161987 0.019196
0.537415 0.215057 0.038147
0.826141 0.264313 0.047607
0.843414 0.257690 0.048828
0.850708 0.246918 0.049805
0.858490 0.236694 0.050781
0.026581 0.162628 0.095703
0.176666 0.331512 0.209137
0.236633 0.383636 0.233368
0.315857 0.399902 0.246979
0.469025 0.368011 0.092133
0.868561 0.413788 0.041077
0.891815 0.392426 0.041046
0.897675 0.375519 0.042023
0.902557 0.358490 0.043457
0.343597 0.480927 0.324402
0.404938 0.577362 0.415619
0.402863 0.595154 0.435730
0.432037 0.618713 0.435303
0.559998 0.640717 0.456909
0.793274 0.636139 0.160706
0.938141 0.646088 0.056427
0.947418 0.607117 0.047028
0.954254 0.569122 0.044495
0.375702 0.578217 0.438324
0.382141 0.586792 0.442505
0.391663 0.596344 0.444214
0.412964 0.617157 0.448120
0.480194 0.658508 0.458496
0.663055 0.704224 0.484192
0.942993 0.812988 0.465576
0.952972 0.798798 0.345947
0.967041 0.788483 0.244965
0.364990 0.576508 0.439301
0.376251 0.586060 0.443237
0.386780 0.595856 0.445923
0.400269 0.609558 0.449127
0.443909 0.648956 0.453552
0.584320 0.695862 0.490173
0.813324 0.747894 0.485809
0.931824 0.821045 0.570404
0.935455 0.826141 0.576233
0.358429 0.575073 0.439301
0.370209 0.584839 0.443481
0.381439 0.594879 0.447388
0.390289 0.604218 0.449371
0.422485 0.635132 0.457153
0.521973 0.686676 0.478119
0.705994 0.733276 0.495270
0.931091 0.830750 0.612366
0.926239 0.826599 0.633209
0.002197 0.002930 0.008331
0.009796 0.007111 0.023743
0.059021 0.012726 0.034790
0.178711 0.026855 0.068481
0.337189 0.026154 0.079010
0.590149 0.057404 0.088593
0.808380 0.121399 0.108063
0.823975 0.117188 0.114655
0.835358 0.111877 0.120972
0.008331 0.014954 0.032104
0.011017 0.019623 0.045349
0.087463 0.019836 0.054871
0.251923 0.030762 0.084900
0.536194 0.036926 0.087891
0.801483 0.123566 0.107819
0.813690 0.125488 0.109772
0.825897 0.126953 0.111481
0.837799 0.125763 0.115387
0.009033 0.031647 0.043365
0.009033 0.037537 0.045105
0.061615 0.058075 0.075867
0.244568 0.070740 0.089569
0.502258 0.075134 0.086639
0.809113 0.156219 0.100006
0.821808 0.153290 0.100983
0.832306 0.151581 0.101471
0.842987 0.150360 0.101959
0.000977 0.076233 0.064941
0.000763 0.094086 0.069336
0.008087 0.091644 0.064453
0.210388 0.150970 0.027130
0.496094 0.206512 0.066345
0.814331 0.258026 0.078247
0.845367 0.250854 0.078735
0.852448 0.237366 0.080170
0.859955 0.225708 0.081635
0.007721 0.145874 0.095245
0.041565 0.231384 0.158173
0.051178 0.240814 0.158203
0.234283 0.350189 0.203125
0.447723 0.355042 0.101318
0.848755 0.417542 0.066284
0.896942 0.404968 0.062592
0.902588 0.387787 0.059906
0.906219 0.366882 0.059174
0.179352 0.376984 0.275116
0.348969 0.528900 0.407349
0.374786 0.559143 0.427368
0.425873 0.601929 0.430298
0.557831 0.635681 0.455017
0.764404 0.624023 0.199860
0.940308 0.667969 0.074463
0.951080 0.638092 0.062378
0.961273 0.614838 0.054718
0.298309 0.522705 0.407715
0.321808 0.541718 0.421143
0.349518 0.559845 0.433655
0.400513 0.602234 0.452789
0.486053 0.662170 0.463623
0.666748 0.705933 0.485657
0.939148 0.815186 0.497711
0.949097 0.810181 0.423859
0.959717 0.806580 0.346741
0.290497 0.526550 0.411102
0.315704 0.542450 0.422119
0.343384 0.560089 0.433899
0.382599 0.589966 0.450073
0.446808 0.649719 0.459930
0.601379 0.701263 0.495026
0.819855 0.750061 0.486816
0.931335 0.821533 0.573334
0.935211 0.826630 0.579163
0.286377 0.528473 0.412537
0.309906 0.543182 0.422821
0.337097 0.560333 0.433899
0.367065 0.580750 0.446655
0.423218 0.633942 0.463287
0.537628 0.692291 0.485413
0.711182 0.734985 0.495758
0.931580 0.831696 0.612152
0.925751 0.827332 0.636902
0.010040 0.014709 0.038544
0.012726 0.019135 0.054657
0.059509 0.021545 0.074188
0.173553 0.031769 0.094238
0.341095 0.030029 0.129272
0.602997 0.030121 0.155457
0.796295 0.040558 0.166016
0.803619 0.041290 0.181183
0.810394 0.042267 0.196442
0.022247 0.058350 0.121490
0.024200 0.065674 0.134674
0.046967 0.062164 0.160522
0.245728 0.039612 0.137360
0.524292 0.033539 0.188599
0.778412 0.045227 0.204651
0.788879 0.045959 0.208069
0.797943 0.046692 0.210510
0.806915 0.047150 0.214142
0.018341 0.067169 0.107544
0.019775 0.088684 0.132965
0.024170 0.092072 0.156647
0.224884 0.055054 0.142944
0.449524 0.047485 0.177094
0.772461 0.068237 0.205383
0.794067 0.068970 0.211517
0.800201 0.063904 0.216156
0.807709 0.060028 0.218842
0.003662 0.128876 0.137146
0.000488 0.153076 0.150360
0.001221 0.143555 0.144745
0.105988 0.177948 0.182800
0.472992 0.188904 0.211884
0.793121 0.195129 0.210358
0.829620 0.177277 0.207458
0.832581 0.161621 0.206726
0.838867 0.154083 0.205994
0.005707 0.206543 0.183289
0.018738 0.233215 0.190216
0.015320 0.221741 0.182129
0.036713 0.237457 0.187775
0.438202 0.356018 0.180847
0.821503 0.412964 0.148315
0.904327 0.400085 0.145782
0.908234 0.375061 0.142853
0.912354 0.345673 0.142853
0.046234 0.291931 0.235229
0.107452 0.371124 0.290497
0.134705 0.389130 0.304626
0.241669 0.457031 0.356415
0.514618 0.609955 0.442291
0.735992 0.605286 0.224213
0.946136 0.672638 0.132751
0.957397 0.651245 0.124390
0.966370 0.621246 0.117493
0.139008 0.416351 0.327057
0.164490 0.436951 0.342804
0.189362 0.453766 0.356415
0.272583 0.511322 0.403473
0.443665 0.639435 0.473389
0.664612 0.713287 0.504028
0.938873 0.817169 0.512482
0.948120 0.812408 0.449036
0.958496 0.810272 0.381348
0.137268 0.423615 0.334381
0.154755 0.434540 0.341400
0.188385 0.456940 0.358612
0.252808 0.502045 0.395660
0.400970 0.604675 0.467194
0.596863 0.707428 0.508545
0.829315 0.756439 0.498169
0.929871 0.823730 0.588806
0.933746 0.829071 0.596313
0.130737 0.423859 0.337067
0.148010 0.434326 0.342865
0.189575 0.461548 0.362274
0.239227 0.496948 0.390564
0.359161 0.576721 0.451904
0.518768 0.694580 0.492615
0.732788 0.746185 0.506104
0.930115 0.832947 0.624664
0.924286 0.829071 0.647247
0.019836 0.045135 0.104614
0.021759 0.051483 0.117798
0.031830 0.053894 0.139069
0.177399 0.041840 0.129211
0.321625 0.042786 0.177795
0.580994 0.037506 0.254669
0.756226 0.046265 0.290405
0.761108 0.048218 0.304596
0.765442 0.050415 0.318420
0.031036 0.158173 0.266388
0.031525 0.164276 0.273712
0.032776 0.157532 0.276276
0.257172 0.068237 0.213074
0.465851 0.059174 0.286102
0.682648 0.063751 0.364319
0.701477 0.063507 0.364624
0.716644 0.063965 0.366394
0.729523 0.064941 0.370056
0.027588 0.134521 0.222015
0.027374 0.158264 0.245483
0.029816 0.159943 0.259399
0.081665 0.127747 0.290894
0.396118 0.059357 0.249969
0.685730 0.073242 0.362000
0.712250 0.080353 0.368622
0.720093 0.079926 0.373535
0.729553 0.078705 0.377411
0.019318 0.184418 0.238892
0.016693 0.229553 0.263977
0.020599 0.222015 0.277954
0.028961 0.224030 0.303650
0.415283 0.145966 0.290680
0.695068 0.124268 0.370239
0.758911 0.169464 0.399048
0.761810 0.171143 0.405823
0.769562 0.178406 0.413818
0.012848 0.267395 0.268799
0.014374 0.293182 0.277802
0.013397 0.287323 0.276337
0.014648 0.281525 0.273193
0.338013 0.428375 0.422241
0.759216 0.409210 0.443542
0.854553 0.383972 0.436737
0.851288 0.360016 0.435272
0.849548 0.338440 0.431854
0.029846 0.319397 0.292511
0.062500 0.354523 0.308655
0.060852 0.350891 0.305511
0.067688 0.352295 0.307373
0.251282 0.472809 0.411987
0.732391 0.619690 0.406219
0.956177 0.678345 0.329193
0.964813 0.646698 0.311584
0.969940 0.600220 0.304871
0.085999 0.393890 0.340790
0.092285 0.400635 0.344147
0.096924 0.403290 0.344360
0.117523 0.417725 0.353912
0.246368 0.506744 0.424133
0.639008 0.729095 0.551147
0.938385 0.821411 0.545654
0.947388 0.819794 0.492493
0.955872 0.818878 0.449524
0.091827 0.408997 0.358856
0.094269 0.409454 0.357361
0.095245 0.408234 0.352722
0.113861 0.418945 0.357086
0.201813 0.478363 0.399414
0.506042 0.689728 0.528809
0.833160 0.771118 0.533600
0.927032 0.830902 0.632446
0.932587 0.838928 0.632721
0.095215 0.418945 0.373199
0.097168 0.418213 0.369049
0.099854 0.417450 0.364624
0.113373 0.423096 0.361938
0.180664 0.466675 0.389679
0.412781 0.619904 0.506073
0.749603 0.764374 0.541870
0.927521 0.840149 0.664154
0.924347 0.840363 0.686279
0.028351 0.097534 0.188751
0.029327 0.106628 0.203949
0.030060 0.101929 0.209015
0.079651 0.074219 0.225739
0.308319 0.061676 0.206085
0.509949 0.063873 0.315155
0.652618 0.077515 0.390564
0.657227 0.081970 0.399078
0.657227 0.088745 0.408051
0.035919 0.221771 0.335785
0.035919 0.223236 0.337280
0.039368 0.235504 0.354462
0.096863 0.272827 0.421021
0.479004 0.162659 0.355255
0.540497 0.165497 0.389801
0.552124 0.154236 0.393646
0.563538 0.147156 0.398682
0.574921 0.144226 0.404724
0.035675 0.233795 0.342194
0.036163 0.244812 0.349030
0.037872 0.242340 0.352203
0.055267 0.277527 0.406006
0.442108 0.163757 0.353912
0.545135 0.163086 0.392029
0.557251 0.152344 0.396332
0.565247 0.149384 0.400421
0.572754 0.148895 0.404999
0.032349 0.259033 0.344208
0.039246 0.299744 0.372711
0.039948 0.293335 0.374115
0.046783 0.295044 0.390747
0.196716 0.299713 0.451294
0.549164 0.171265 0.397583
0.594452 0.204163 0.434143
0.607574 0.218262 0.445526
0.617249 0.232025 0.454956
0.049896 0.334045 0.387482
0.054993 0.357178 0.372803
0.061066 0.362518 0.386902
0.074738 0.369141 0.422241
0.123596 0.385498 0.457672
0.651184 0.413055 0.542938
0.712677 0.419250 0.580627
0.705322 0.404541 0.570374
0.697296 0.388794 0.559662
0.059814 0.371246 0.366852
0.072937 0.396942 0.382812
0.074188 0.396210 0.380646
0.071869 0.387024 0.373871
0.097137 0.395508 0.383575
0.636780 0.665192 0.657837
0.888885 0.646210 0.700409
0.881561 0.614655 0.701752
0.867035 0.585297 0.694702
0.086273 0.434845 0.415894
0.089417 0.437012 0.415649
0.090881 0.435577 0.413208
0.105133 0.440247 0.416199
0.174744 0.488312 0.459442
0.491333 0.693481 0.652649
0.913513 0.836060 0.735657
0.924744 0.834137 0.710480
0.934692 0.828827 0.675903
0.090607 0.460846 0.445038
0.092834 0.458649 0.441650
0.094299 0.455994 0.437775
0.102478 0.455353 0.435181
0.149109 0.478241 0.453461
0.355743 0.620087 0.580719
0.848114 0.822327 0.721039
0.928925 0.856232 0.727997
0.936188 0.861298 0.725098
0.091583 0.476807 0.463165
0.092834 0.475342 0.460999
0.094055 0.473419 0.458099
0.100037 0.468658 0.450897
0.141357 0.480164 0.456818
0.271667 0.567383 0.530212
0.703888 0.804688 0.687134
0.928955 0.863495 0.745819
0.935028 0.864014 0.729126
0.032013 0.174805 0.286438
0.033508 0.195709 0.310242
0.033264 0.177582 0.295563
0.040131 0.184509 0.328644
0.323334 0.098328 0.274384
0.474121 0.123138 0.333527
0.551605 0.154022 0.393372
0.556274 0.163818 0.399506
0.561127 0.173035 0.405823
0.036407 0.225677 0.339722
0.036652 0.227142 0.341187
0.039856 0.238678 0.357361
0.096832 0.283569 0.425415
0.537170 0.259613 0.442261
0.557037 0.258179 0.440338
0.560211 0.257935 0.440582
0.562927 0.257690 0.441315
0.564880 0.254822 0.439880
0.036652 0.238159 0.347534
0.037140 0.247742 0.353180
0.038361 0.244781 0.354645
0.055450 0.280457 0.406738
0.496155 0.305023 0.482819
0.559753 0.261871 0.443298
0.562927 0.261871 0.443787
0.564392 0.260437 0.443298
0.566345 0.259216 0.443054
0.039856 0.280304 0.371552
0.045776 0.309174 0.388214
0.044067 0.300873 0.384064
0.049194 0.299866 0.396790
0.183075 0.329529 0.453033
0.578033 0.292206 0.465729
0.583405 0.295166 0.468445
0.588745 0.303223 0.473541
0.588531 0.300598 0.471619
0.068176 0.356171 0.419373
0.101349 0.399414 0.458008
0.102814 0.401611 0.459473
0.089081 0.383453 0.445099
0.105865 0.386658 0.467560
0.654694 0.463104 0.581116
0.670471 0.448059 0.574097
0.669220 0.444366 0.571136
0.664368 0.434906 0.564575
0.098358 0.416382 0.439911
0.091858 0.442352 0.445190
0.092834 0.453247 0.451752
0.099243 0.444580 0.449371
0.116455 0.448975 0.469513
0.446838 0.621124 0.660339
0.789551 0.649475 0.731445
0.786682 0.635498 0.720734
0.773651 0.614868 0.701843
0.093292 0.474609 0.468750
0.095734 0.479919 0.473572
0.096710 0.480164 0.473572
0.111481 0.486328 0.479492
0.145294 0.507812 0.500519
0.397156 0.676483 0.666473
0.820435 0.828735 0.817017
0.854767 0.829041 0.826050
0.859711 0.811218 0.818848
0.094757 0.485779 0.478455
0.096710 0.486511 0.478943
0.098663 0.487244 0.479675
0.116333 0.494598 0.487030
0.163788 0.522675 0.514618
0.345001 0.647888 0.637634
0.756073 0.834167 0.821198
0.879456 0.857666 0.837952
0.899078 0.862518 0.841125
0.095245 0.492096 0.483795
0.097198 0.492828 0.484528
0.099884 0.493561 0.485260
0.111023 0.498016 0.489471
0.160645 0.523407 0.514618
0.296265 0.619171 0.608429
0.605225 0.804504 0.789398
0.877319 0.866180 0.838715
0.916748 0.867889 0.829803
0.036652 0.227631 0.342163
0.037140 0.229340 0.344604
0.040314 0.240387 0.359039
0.053680 0.270935 0.401611
0.152710 0.255371 0.432556
0.520142 0.224243 0.410492
0.557343 0.251038 0.435364
0.562714 0.257294 0.440887
0.566833 0.260895 0.444275
0.036896 0.229584 0.343872
0.037140 0.230804 0.345093
0.040314 0.241364 0.359070
0.093658 0.286957 0.426300
0.542267 0.274017 0.453247
0.559479 0.265747 0.445953
0.562897 0.265503 0.446442
0.565857 0.265015 0.446686
0.569244 0.266205 0.448395
0.037384 0.240601 0.350708
0.037872 0.250397 0.356354
0.038849 0.247223 0.357330
0.055634 0.282135 0.407440
0.486938 0.323547 0.499603
0.562195 0.269684 0.448914
0.565369 0.269440 0.449158
0.567596 0.268219 0.448914
0.570251 0.268707 0.449890
0.040344 0.279297 0.372284
0.045532 0.306702 0.388184
0.044769 0.300842 0.385742
0.049683 0.299377 0.397034
0.172485 0.329742 0.450043
0.580902 0.299500 0.470581
0.584351 0.300507 0.471802
0.590454 0.308075 0.477417
0.594086 0.312653 0.480560
0.066223 0.352753 0.417664
0.097717 0.394348 0.454681
0.105011 0.403564 0.463135
0.087646 0.381531 0.443695
0.098267 0.382233 0.463898
0.650513 0.467163 0.583740
0.659180 0.432831 0.563293
0.662842 0.435516 0.565491
0.663086 0.435028 0.565002
0.101776 0.420319 0.446503
0.094513 0.444794 0.451538
0.095032 0.461029 0.460999
0.100952 0.449463 0.456451
0.118225 0.450348 0.474548
0.422882 0.607483 0.648438
0.767181 0.630798 0.712463
0.774261 0.624207 0.710754
0.769470 0.614746 0.701813
0.094513 0.479248 0.474854
0.096710 0.484314 0.479187
0.097931 0.484802 0.479675
0.109985 0.489716 0.484833
0.140259 0.508698 0.503571
0.331512 0.640167 0.633789
0.809998 0.829468 0.827484
0.838715 0.821259 0.825073
0.851349 0.813812 0.825836
0.096710 0.490173 0.484070
0.098175 0.490662 0.484802
0.099640 0.491150 0.485046
0.116577 0.498016 0.491913
0.156464 0.520966 0.514374
0.332001 0.642487 0.634186
0.761322 0.839996 0.832123
0.844299 0.851868 0.840637
0.863953 0.856476 0.848145
0.097198 0.496490 0.489410
0.098663 0.496979 0.490143
0.100861 0.497711 0.490631
0.116089 0.503632 0.496521
0.166229 0.529724 0.522156
0.318115 0.636414 0.627136
0.664398 0.830627 0.818909
0.842865 0.861084 0.847900
0.867065 0.866150 0.852753
0.037140 0.231995 0.346527
0.037628 0.233704 0.348724
0.040802 0.244019 0.362213
0.055389 0.277710 0.406952
0.165558 0.287964 0.444916
0.551270 0.282898 0.459747
0.564117 0.270813 0.450806
0.567322 0.270813 0.451050
0.570465 0.270569 0.451538
0.037384 0.233704 0.347992
0.037628 0.234680 0.348969
0.040558 0.243805 0.361023
0.081970 0.287445 0.422638
0.542999 0.293365 0.467773
0.562653 0.273987 0.452515
0.565094 0.272522 0.451782
0.568024 0.271790 0.451782
0.571198 0.271790 0.452271
0.038116 0.243042 0.353638
0.038605 0.252106 0.358765
0.039581 0.249664 0.360260
0.055115 0.282135 0.406464
0.457489 0.336639 0.512695
0.565094 0.277924 0.455200
0.567078 0.275513 0.454010
0.569519 0.274536 0.453766
0.571960 0.273315 0.453522
0.041077 0.279297 0.374725
0.045776 0.304779 0.388916
0.045013 0.300842 0.387451
0.049683 0.299133 0.397491
0.162109 0.330200 0.449493
0.584290 0.309448 0.477356
0.586273 0.307495 0.476166
0.592377 0.314575 0.481781
0.597198 0.319427 0.485657
0.064026 0.348602 0.415710
0.092896 0.388306 0.449371
0.103821 0.401642 0.462219
0.085968 0.379120 0.442017
0.094849 0.378845 0.461945
0.641815 0.475616 0.589294
0.652863 0.424805 0.557434
0.653656 0.422913 0.556732
0.657257 0.425781 0.559143
0.107117 0.422241 0.454987
0.097900 0.444092 0.456146
0.096954 0.465637 0.468018
0.102631 0.452362 0.462250
0.121094 0.451782 0.480835
0.397919 0.591736 0.634399
0.756042 0.624481 0.703979
0.750549 0.602875 0.687256
0.755890 0.600403 0.687500
0.095490 0.483856 0.480896
0.097687 0.488434 0.484772
0.098907 0.488922 0.485260
0.108032 0.492615 0.488953
0.135864 0.508911 0.505493
0.301819 0.623138 0.618988
0.800812 0.827789 0.832581
0.832153 0.805115 0.824158
0.844543 0.800781 0.824158
0.097687 0.494537 0.489899
0.099396 0.495026 0.490387
0.100647 0.495514 0.490875
0.112701 0.500214 0.495544
0.150604 0.520203 0.515320
0.277283 0.608490 0.602844
0.684540 0.830566 0.825165
0.839935 0.853088 0.846954
0.854980 0.852844 0.847443
0.099152 0.500854 0.495239
0.100616 0.501343 0.495728
0.102325 0.502075 0.496460
0.111755 0.505554 0.499939
0.162537 0.530426 0.524567
0.299255 0.625885 0.618561
0.634857 0.826263 0.817261
0.836578 0.862061 0.852753
0.857635 0.864716 0.853729
