example/assets/luts/lut8.cube
#LUT size
LUT_3D_SIZE 17
#LUT data points
0.000732 0.000732 0.000732
0.003418 0.000977 0.001465
0.009064 0.001709 0.003174
0.021301 0.003906 0.007111
0.046082 0.008575 0.014435
0.086731 0.015686 0.024475
0.146423 0.027405 0.036682
0.214935 0.039886 0.044708
0.293610 0.052643 0.046875
0.395508 0.068329 0.045898
0.526123 0.090363 0.043976
0.664490 0.116241 0.045471
0.780640 0.139771 0.048859
0.816925 0.146271 0.050812
0.823029 0.147278 0.051788
0.829376 0.148224 0.053009
0.835419 0.148956 0.054230
0.001709 0.001953 0.001709
0.005615 0.002441 0.002686
0.015930 0.004150 0.005646
0.043152 0.009064 0.013702
0.099487 0.019348 0.027161
0.189270 0.037201 0.042755
0.295532 0.054596 0.046143
0.430756 0.075867 0.044189
0.563507 0.099609 0.042511
0.697266 0.126160 0.044708
0.787476 0.144104 0.047150
0.805206 0.147278 0.047638
0.811310 0.148499 0.047882
0.817413 0.149475 0.047882
0.823517 0.150696 0.048126
0.829620 0.151672 0.049103
0.835663 0.152618 0.050049
0.003906 0.004395 0.003906
0.007599 0.006134 0.005371
0.017395 0.006866 0.007111
0.046082 0.012726 0.014679
0.096039 0.022308 0.026672
0.176544 0.038696 0.041534
0.276489 0.054596 0.045410
0.417603 0.075928 0.043701
0.603485 0.109192 0.042755
0.767822 0.142914 0.046417
0.799561 0.149231 0.047394
0.805695 0.150208 0.047394
0.812042 0.151184 0.047638
0.818146 0.152405 0.047882
0.824249 0.153625 0.048126
0.830353 0.154602 0.048126
0.836395 0.155792 0.048370
0.010040 0.010773 0.007812
0.017090 0.016876 0.010498
0.021515 0.016632 0.011475
0.043121 0.018127 0.015656
0.100677 0.030884 0.028107
0.178253 0.046997 0.040527
0.270355 0.061462 0.043457
0.397552 0.080627 0.041748
0.576202 0.113403 0.041290
0.749420 0.148346 0.045197
0.801300 0.156830 0.046906
0.807159 0.156586 0.047150
0.813019 0.156097 0.047394
0.818878 0.156067 0.047638
0.824738 0.156342 0.047882
0.830872 0.157532 0.048126
0.836884 0.158508 0.048340
0.020477 0.023987 0.012695
0.019257 0.028900 0.011261
0.020721 0.031128 0.010773
0.032013 0.028198 0.008545
0.088654 0.039764 0.023438
0.180450 0.061981 0.034912
0.275970 0.075684 0.038330
0.402130 0.096069 0.037872
0.566193 0.129089 0.039612
0.734253 0.164062 0.043976
0.805939 0.175690 0.046173
0.811310 0.173737 0.046631
0.816681 0.172485 0.046875
0.822052 0.171265 0.047119
0.827454 0.169800 0.047394
0.833313 0.168579 0.047638
0.839081 0.167358 0.047852
0.014893 0.036285 0.013489
0.012695 0.050018 0.018677
0.014435 0.060089 0.021149
0.018311 0.059326 0.017487
0.045288 0.058380 0.007141
0.156494 0.086060 0.021240
0.276428 0.106110 0.031494
0.403839 0.125458 0.034454
0.572052 0.158691 0.037872
0.739655 0.192230 0.042755
0.814270 0.204071 0.045166
0.819153 0.202118 0.045410
0.824036 0.199646 0.045654
0.828674 0.196716 0.045898
0.833588 0.193787 0.046387
0.838715 0.191101 0.046661
0.843506 0.188690 0.047119
0.011993 0.064270 0.026062
0.014709 0.088257 0.040527
0.018463 0.111572 0.054749
0.018738 0.109436 0.051605
0.021484 0.106750 0.042297
0.081116 0.114075 0.016449
0.246582 0.157806 0.019104
0.399658 0.174927 0.029572
0.571869 0.200348 0.035187
0.745148 0.231171 0.040558
0.826263 0.242767 0.043213
0.830658 0.239319 0.043701
0.835327 0.236145 0.043945
0.839722 0.233185 0.044189
0.844116 0.229248 0.044678
0.848511 0.224854 0.045166
0.852844 0.220764 0.045654
0.017700 0.110626 0.055481
0.025543 0.142059 0.073120
0.040131 0.184204 0.097351
0.053528 0.202393 0.109680
0.051025 0.194275 0.101318
0.069031 0.195343 0.087341
0.193115 0.203308 0.070801
0.361389 0.251312 0.028961
0.561615 0.266907 0.032013
0.750671 0.287292 0.037354
0.844910 0.296631 0.040283
0.849060 0.290009 0.040771
0.852234 0.284363 0.041260
0.856140 0.279724 0.041748
0.860046 0.274811 0.042236
0.863922 0.270142 0.042725
0.867554 0.265350 0.043213
0.037170 0.180084 0.095612
0.104553 0.258881 0.152740
0.206238 0.355835 0.211182
0.280060 0.413788 0.259644
0.262634 0.399445 0.246033
0.254944 0.383850 0.232147
0.276398 0.361877 0.212341
0.334198 0.320953 0.170197
0.497498 0.358734 0.052673
0.739441 0.370361 0.034698
0.868408 0.370667 0.034943
0.875458 0.359833 0.035889
0.877655 0.350281 0.036865
0.879852 0.341461 0.037598
0.882538 0.333832 0.038300
0.885468 0.327240 0.039032
0.888611 0.320984 0.039520
0.196320 0.346130 0.207031
0.312347 0.438904 0.283752
0.396759 0.503082 0.347168
0.427155 0.552063 0.390625
0.427917 0.549194 0.388458
0.430450 0.540039 0.381165
0.444397 0.530914 0.373444
0.461487 0.505249 0.345123
0.473816 0.445984 0.283630
0.659576 0.483978 0.072449
0.881989 0.481415 0.037659
0.903076 0.460327 0.035706
0.904785 0.441681 0.034943
0.907227 0.428436 0.034210
0.909668 0.415192 0.033966
0.911865 0.403198 0.033722
0.914520 0.394043 0.034210
0.388794 0.497284 0.341370
0.424683 0.554260 0.391876
0.417847 0.584991 0.417328
0.406982 0.597839 0.433044
0.405579 0.600525 0.436707
0.413147 0.604950 0.434784
0.430756 0.613586 0.431885
0.480164 0.619385 0.439270
0.555878 0.614532 0.436554
0.598297 0.560242 0.376160
0.826660 0.623566 0.092163
0.928345 0.607819 0.043457
0.931061 0.578857 0.040344
0.933044 0.550842 0.038513
0.935516 0.531799 0.037231
0.938232 0.513214 0.036438
0.940643 0.495880 0.035706
0.415619 0.581573 0.414917
0.402069 0.595367 0.434753
0.396301 0.598297 0.441284
0.397308 0.600250 0.442505
0.399261 0.602203 0.442749
0.403412 0.606140 0.443726
0.415924 0.618134 0.445190
0.439972 0.637939 0.445496
0.507324 0.661926 0.463837
0.606720 0.682465 0.480133
0.712097 0.664520 0.431580
0.933228 0.736176 0.154541
0.942963 0.712311 0.093109
0.948334 0.695526 0.071960
0.953278 0.674622 0.056427
0.958435 0.656860 0.047852
0.962982 0.638824 0.042297
0.391388 0.594635 0.441040
0.390930 0.596588 0.442505
0.393127 0.598541 0.442993
0.395111 0.600494 0.443481
0.397064 0.602203 0.443970
0.399261 0.604431 0.444458
0.409790 0.614471 0.446655
0.427948 0.631592 0.446930
0.470428 0.654358 0.454590
0.564941 0.681702 0.480652
0.660156 0.703003 0.483185
0.844574 0.742371 0.461304
0.946381 0.797302 0.378418
0.952515 0.779724 0.263458
0.958374 0.771729 0.207245
0.966431 0.761536 0.154297
0.973907 0.751434 0.118927
0.386292 0.593903 0.442261
0.388489 0.596344 0.443237
0.390686 0.598541 0.443970
0.392883 0.600494 0.444458
0.394867 0.602448 0.444946
0.396820 0.604187 0.445190
0.404175 0.611511 0.447174
0.420105 0.626709 0.449127
0.450989 0.650177 0.451385
0.521515 0.673889 0.471649
0.622162 0.699768 0.490082
0.727234 0.722626 0.474365
0.934448 0.812988 0.507263
0.934998 0.817627 0.534943
0.943939 0.819824 0.493713
0.949036 0.818146 0.459717
0.955048 0.815979 0.410370
0.383606 0.593658 0.442993
0.386047 0.595856 0.443726
0.388245 0.598297 0.444702
0.390686 0.600494 0.445435
0.392639 0.602448 0.445923
0.394623 0.604401 0.446411
0.399261 0.608826 0.447662
0.413208 0.622528 0.450806
0.437012 0.644287 0.451843
0.484589 0.667053 0.462158
0.581818 0.694641 0.488678
0.678986 0.716705 0.488586
0.826935 0.750671 0.483490
0.934753 0.822479 0.555939
0.932312 0.820312 0.566467
0.934021 0.822998 0.569427
0.935944 0.825653 0.572327
0.381165 0.593170 0.443726
0.383362 0.595612 0.444458
0.385803 0.597809 0.445190
0.388000 0.600250 0.445923
0.390442 0.602448 0.446899
0.392426 0.604401 0.447388
0.394897 0.606873 0.448151
0.406128 0.617889 0.451080
0.425507 0.636261 0.453766
0.462769 0.662140 0.457977
0.535492 0.685883 0.479492
0.640533 0.712769 0.496674
0.747742 0.737793 0.482727
0.928558 0.815216 0.543823
0.932068 0.825195 0.587769
0.929382 0.823242 0.598022
0.931305 0.825897 0.600922
0.378754 0.592926 0.444214
0.380951 0.595367 0.444946
0.383392 0.597565 0.445923
0.385590 0.600006 0.446655
0.387817 0.602203 0.447388
0.390259 0.604401 0.448364
0.392487 0.606873 0.449097
0.400116 0.614288 0.451324
0.417328 0.630707 0.454956
0.446899 0.656372 0.457275
0.504456 0.680847 0.471558
0.598419 0.707214 0.496185
0.701294 0.731293 0.494263
0.843628 0.766846 0.497131
0.931580 0.830017 0.608429
0.929138 0.828033 0.618958
0.926727 0.826111 0.629303
0.000977 0.000977 0.001221
0.004150 0.001709 0.003662
0.010529 0.002441 0.005371
0.023773 0.004669 0.009308
0.050995 0.009552 0.017395
0.094818 0.016418 0.027893
0.156952 0.026917 0.040588
0.225464 0.038422 0.047882
0.306854 0.051422 0.050812
0.412415 0.068817 0.051544
0.546173 0.092072 0.051575
0.685394 0.118408 0.053772
0.791748 0.139740 0.057434
0.817657 0.144318 0.059631
0.823761 0.145294 0.061096
0.830109 0.146027 0.062805
0.836151 0.147003 0.064484
0.001465 0.002441 0.003418
0.005615 0.003418 0.005615
0.015686 0.004395 0.007599
0.042175 0.008820 0.014923
0.097290 0.018127 0.027893
0.185364 0.035004 0.043732
0.289215 0.052399 0.048340
0.435181 0.075867 0.046661
0.576691 0.100830 0.045471
0.711578 0.128113 0.048157
0.792786 0.144104 0.051056
0.805450 0.146301 0.052032
0.811798 0.147522 0.053009
0.817902 0.148499 0.054230
0.824005 0.149475 0.055206
0.830139 0.150452 0.056183
0.836395 0.151398 0.057404
0.003174 0.004639 0.005615
0.006378 0.006378 0.006836
0.017395 0.007599 0.008820
0.041901 0.012268 0.014679
0.091370 0.021088 0.026428
0.171173 0.037720 0.041534
0.271118 0.053619 0.046631
0.411469 0.074707 0.045898
0.598602 0.107727 0.044983
0.765381 0.141724 0.048859
0.799805 0.148499 0.050079
0.805939 0.149719 0.050079
0.812042 0.150940 0.050323
0.818146 0.151917 0.050568
0.824249 0.153137 0.050812
0.830353 0.154358 0.051056
0.836395 0.155304 0.051056
0.005402 0.009064 0.007812
0.013184 0.015167 0.010742
0.020538 0.017120 0.012207
0.042633 0.018860 0.016388
0.095520 0.031860 0.028107
0.167267 0.046783 0.040314
0.258118 0.061462 0.044434
0.386261 0.080109 0.043457
0.562775 0.112183 0.043030
0.741455 0.148865 0.047638
0.802277 0.158783 0.049591
0.807892 0.158051 0.049835
0.813507 0.157562 0.050079
0.819366 0.157318 0.050323
0.825226 0.157043 0.050568
0.831116 0.157074 0.050812
0.837128 0.158264 0.051056
0.013885 0.020538 0.012207
0.016083 0.028381 0.011993
0.019501 0.029663 0.011017
0.029785 0.029907 0.008301
0.085693 0.040009 0.021210
0.175079 0.065643 0.033936
0.265900 0.079132 0.038574
0.381836 0.097290 0.039093
0.541809 0.129120 0.041077
0.722382 0.166290 0.045929
0.807648 0.180328 0.048859
0.812775 0.178375 0.049103
0.817932 0.176178 0.049347
0.823303 0.174469 0.049591
0.828674 0.172729 0.050079
0.834290 0.171021 0.050323
0.839844 0.169586 0.050537
0.010254 0.032135 0.015198
0.010254 0.047333 0.020630
0.012726 0.057159 0.021881
0.017334 0.060547 0.018707
0.040405 0.063538 0.008881
0.147675 0.088043 0.017090
0.270050 0.114929 0.031738
0.390381 0.131592 0.035431
0.548859 0.161896 0.039124
0.717651 0.195984 0.044220
0.815033 0.212891 0.047363
0.821838 0.209442 0.047852
0.826233 0.205780 0.048340
0.830872 0.202850 0.048584
0.835541 0.199890 0.048859
0.840424 0.196472 0.049316
0.845245 0.193604 0.049561
0.009796 0.061066 0.028992
0.013000 0.085815 0.041962
0.017212 0.109131 0.054962
0.018494 0.110168 0.053314
0.022034 0.111938 0.046509
0.075623 0.122711 0.019989
0.237549 0.162720 0.019165
0.391815 0.188660 0.030548
0.554993 0.209900 0.036682
0.729431 0.239807 0.042511
0.828278 0.254761 0.045410
0.835327 0.251801 0.045898
0.839478 0.247894 0.046387
0.843384 0.243256 0.046875
0.847290 0.238098 0.047119
0.851440 0.233185 0.047852
0.855530 0.228607 0.048096
0.015472 0.107147 0.057404
0.023224 0.138306 0.073578
0.039581 0.185638 0.099518
0.051117 0.201691 0.109680
0.058655 0.205780 0.109894
0.083771 0.214417 0.105469
0.202240 0.224884 0.090637
0.351807 0.258148 0.036652
0.549133 0.285034 0.034241
0.735931 0.301270 0.039551
0.847900 0.312073 0.042480
0.855408 0.305695 0.042969
0.858826 0.300293 0.043701
0.862244 0.295135 0.043945
0.865662 0.289978 0.044434
0.869080 0.283875 0.044922
0.871979 0.276886 0.045654
0.032349 0.170471 0.093872
0.085510 0.245514 0.143982
0.207397 0.357544 0.214569
0.275421 0.412598 0.258453
0.279358 0.412598 0.258453
0.276825 0.401154 0.247742
0.302734 0.386993 0.235046
0.352325 0.352234 0.195160
0.483032 0.366058 0.069336
0.726593 0.392914 0.038635
0.869934 0.391022 0.037628
0.882782 0.380951 0.038116
0.884735 0.370636 0.038849
0.887421 0.361786 0.039551
0.890106 0.354431 0.040039
0.893036 0.347076 0.040771
0.895935 0.340088 0.041718
0.176758 0.328369 0.202850
0.296783 0.431091 0.276215
0.395996 0.504517 0.348633
0.424469 0.554230 0.392334
0.426453 0.555237 0.393311
0.433868 0.549988 0.389404
0.452820 0.543579 0.384857
0.479675 0.525452 0.364349
0.497192 0.478668 0.312897
0.639832 0.492310 0.094299
0.879364 0.511505 0.042847
0.909393 0.488770 0.040131
0.911621 0.470856 0.039124
0.914062 0.456146 0.038605
0.916504 0.441711 0.037872
0.919434 0.430145 0.037384
0.922333 0.420044 0.037140
0.370819 0.489227 0.333374
0.418854 0.548889 0.387756
0.415405 0.584503 0.417816
0.403839 0.596832 0.435242
0.403137 0.599304 0.437683
0.412445 0.605927 0.437195
0.430054 0.617462 0.434540
0.475586 0.627869 0.442657
0.559021 0.628845 0.447693
0.612854 0.589203 0.397125
0.810944 0.633606 0.122437
0.931030 0.640198 0.053711
0.935699 0.615143 0.046661
0.938873 0.589844 0.043304
0.942078 0.569122 0.041962
0.945038 0.549133 0.040680
0.947693 0.530853 0.039948
0.409515 0.576447 0.412262
0.400360 0.591949 0.434052
0.394836 0.596588 0.441284
0.395599 0.598541 0.442505
0.397797 0.600494 0.442993
0.403442 0.606140 0.444214
0.417389 0.619110 0.445679
0.443390 0.639893 0.446472
0.508057 0.662415 0.464569
0.607941 0.686340 0.483276
0.716339 0.683350 0.446625
0.931763 0.748138 0.202972
0.945587 0.732758 0.124878
0.950745 0.719391 0.096680
0.956146 0.703094 0.075256
0.961548 0.689240 0.062714
0.966370 0.673828 0.054077
0.386719 0.588745 0.440552
0.388000 0.593140 0.442505
0.391418 0.596588 0.442993
0.393616 0.598541 0.443481
0.395599 0.600494 0.443970
0.398773 0.603699 0.444702
0.411499 0.615936 0.447388
0.430420 0.633820 0.447662
0.474792 0.656067 0.456299
0.565704 0.682434 0.481384
0.661102 0.703491 0.483917
0.834412 0.741608 0.467072
0.944214 0.806488 0.431519
0.950531 0.793243 0.335083
0.956146 0.786255 0.276093
0.963715 0.778046 0.215088
0.972412 0.771790 0.173004
0.380188 0.588013 0.441284
0.385071 0.592651 0.442749
0.389221 0.596588 0.443970
0.391418 0.598785 0.444458
0.393372 0.600739 0.444946
0.395355 0.602478 0.445221
0.404907 0.611786 0.447876
0.422302 0.628418 0.450104
0.455902 0.651642 0.453339
0.522034 0.674164 0.472412
0.623627 0.700531 0.490570
0.724701 0.722382 0.475586
0.931549 0.808655 0.505371
0.934753 0.817871 0.536896
0.938416 0.820312 0.528015
0.944702 0.822754 0.503876
0.951202 0.822998 0.468506
0.377228 0.587524 0.441528
0.382385 0.592163 0.443237
0.386536 0.596100 0.444702
0.388977 0.598785 0.445435
0.391174 0.600739 0.445923
0.393158 0.602692 0.446411
0.399780 0.609070 0.448395
0.414703 0.623505 0.451080
0.440674 0.646271 0.452820
0.492126 0.669739 0.464844
0.582825 0.695129 0.489410
0.681213 0.717438 0.489105
0.817017 0.748688 0.484894
0.934509 0.822723 0.557892
0.932068 0.820801 0.568451
0.933777 0.823242 0.571381
0.935699 0.825897 0.574280
0.374298 0.586792 0.442017
0.379456 0.591431 0.443726
0.383850 0.595581 0.445190
0.386536 0.598541 0.445923
0.388977 0.600739 0.446899
0.390961 0.602692 0.447388
0.394653 0.606384 0.448639
0.407837 0.619354 0.452057
0.428192 0.638702 0.454498
0.467438 0.665100 0.459229
0.542297 0.688080 0.481934
0.641754 0.713257 0.497162
0.750214 0.738525 0.483704
0.924713 0.809692 0.540741
0.931580 0.825684 0.589722
0.929138 0.823486 0.599976
0.931061 0.826141 0.602875
0.371674 0.586060 0.442505
0.376801 0.590973 0.444458
0.381195 0.595123 0.445923
0.384125 0.598053 0.446655
0.386322 0.600494 0.447388
0.388794 0.602692 0.448364
0.391510 0.605682 0.449341
0.401123 0.615021 0.452301
0.419769 0.632935 0.456177
0.450378 0.659058 0.458282
0.513184 0.683746 0.474945
0.600616 0.707947 0.497162
0.703766 0.732269 0.494751
0.847717 0.768097 0.497894
0.931335 0.830475 0.610413
0.928894 0.828278 0.620911
0.926483 0.826355 0.631256
0.000977 0.001221 0.002441
0.004883 0.001953 0.005371
0.012238 0.003418 0.009552
0.025970 0.005646 0.012970
0.056610 0.010529 0.021301
0.103882 0.016876 0.032318
0.167938 0.025909 0.045715
0.236511 0.035217 0.051819
0.319336 0.047028 0.055725
0.427826 0.066132 0.059387
0.562286 0.091095 0.062592
0.700439 0.118164 0.066254
0.798279 0.137512 0.070892
0.818634 0.140900 0.073822
0.824982 0.141388 0.076263
0.831085 0.141876 0.078705
0.837128 0.142365 0.081116
0.001953 0.003174 0.006622
0.004150 0.004150 0.009308
0.017151 0.005859 0.013947
0.039948 0.009064 0.018127
0.094086 0.016418 0.030853
0.179718 0.029114 0.047424
0.279388 0.045044 0.053528
0.417664 0.069031 0.056213
0.572327 0.096924 0.057434
0.710632 0.123962 0.059906
0.793793 0.140930 0.063293
0.806671 0.143341 0.065002
0.812775 0.144318 0.066467
0.819122 0.145050 0.067932
0.825226 0.145782 0.069641
0.831360 0.146515 0.071350
0.837616 0.147247 0.073059
0.003174 0.006134 0.009796
0.005127 0.007599 0.011261
0.016632 0.010040 0.016663
0.041901 0.012482 0.019836
0.091125 0.019348 0.029877
0.170654 0.033264 0.045471
0.266907 0.048218 0.052307
0.401917 0.069794 0.054260
0.585205 0.102112 0.054749
0.757660 0.137573 0.057922
0.800812 0.146545 0.059387
0.806915 0.147766 0.059387
0.813019 0.148987 0.059631
0.818878 0.150177 0.059875
0.824982 0.151398 0.060120
0.831116 0.152374 0.061340
0.837372 0.153107 0.062775
0.003906 0.010529 0.012482
0.005371 0.012970 0.013458
0.014923 0.016663 0.015411
0.042633 0.019836 0.019318
0.091125 0.030396 0.029846
0.161346 0.044830 0.042999
0.252472 0.059235 0.048859
0.378906 0.077179 0.049347
0.557159 0.108276 0.048889
0.738556 0.145447 0.053284
0.802521 0.156342 0.055695
0.808380 0.155853 0.056183
0.813995 0.155365 0.056702
0.819855 0.155334 0.057190
0.825500 0.155334 0.057678
0.831604 0.155823 0.058136
0.837616 0.157043 0.058136
0.006104 0.017395 0.013947
0.007812 0.024719 0.015167
0.012665 0.026459 0.013245
0.027344 0.028442 0.008820
0.083740 0.039246 0.021698
0.166992 0.064453 0.036163
0.252441 0.077911 0.040802
0.366150 0.095337 0.041534
0.528839 0.126190 0.043274
0.710999 0.164612 0.048157
0.808136 0.181305 0.051544
0.813263 0.178864 0.051788
0.818420 0.176422 0.052277
0.823792 0.174469 0.052521
0.828918 0.172729 0.052765
0.834534 0.170776 0.053253
0.840088 0.169342 0.053497
0.005371 0.027740 0.017914
0.005371 0.040985 0.023804
0.007080 0.047119 0.024811
0.012939 0.052734 0.020172
0.035736 0.060822 0.009857
0.141327 0.085846 0.015411
0.261261 0.116638 0.032715
0.375427 0.132568 0.037140
0.524200 0.161682 0.040588
0.696075 0.196259 0.045959
0.814087 0.216583 0.050079
0.823578 0.213867 0.050568
0.828186 0.210449 0.050812
0.832581 0.207245 0.051300
0.837006 0.203827 0.051544
0.841644 0.200134 0.052032
0.846466 0.196533 0.052277
0.004669 0.055206 0.032135
0.008362 0.080658 0.045868
0.012543 0.098297 0.055420
0.014526 0.100037 0.052765
0.020233 0.105286 0.044495
0.072693 0.123962 0.020721
0.227997 0.161987 0.019196
0.382721 0.196472 0.031311
0.537415 0.215057 0.038147
0.708588 0.244507 0.044220
0.826141 0.264313 0.047607
0.839508 0.262817 0.048340
0.843414 0.257690 0.048828
0.847076 0.252289 0.049316
0.850708 0.246918 0.049805
0.854614 0.241760 0.050293
0.858490 0.236694 0.050781
0.010834 0.102478 0.060547
0.018097 0.132019 0.076355
0.031433 0.171509 0.097198
0.034943 0.176880 0.097351
0.041168 0.184265 0.096405
0.082306 0.211029 0.101318
0.210571 0.237396 0.101685
0.341766 0.259094 0.046478
0.537628 0.301178 0.036957
0.720398 0.314270 0.041779
0.847717 0.325806 0.044678
0.862244 0.322327 0.045410
0.865662 0.317200 0.045898
0.868835 0.311310 0.046387
0.871277 0.303955 0.046875
0.873718 0.296112 0.047607
0.876373 0.288422 0.048096
0.026581 0.162628 0.095703
0.054199 0.221344 0.131042
0.176666 0.331512 0.209137
0.224884 0.375854 0.233337
0.236633 0.383636 0.233368
0.264923 0.391174 0.238739
0.315857 0.399902 0.246979
0.371368 0.380310 0.219055
0.469025 0.368011 0.092133
0.714203 0.416656 0.044250
0.868561 0.413788 0.041077
0.889618 0.403229 0.040833
0.891815 0.392426 0.041046
0.894745 0.383850 0.041534
0.897675 0.375519 0.042023
0.900391 0.367645 0.042755
0.902557 0.358490 0.043457
0.132660 0.298492 0.191620
0.265381 0.415253 0.267670
0.370972 0.494751 0.338928
0.408936 0.536957 0.377808
0.416992 0.539215 0.379974
0.431213 0.541992 0.382874
0.455994 0.545776 0.386810
0.492004 0.543213 0.381104
0.518585 0.508423 0.337708
0.618103 0.493042 0.127319
0.874542 0.542969 0.049011
0.915466 0.518829 0.044556
0.917938 0.501221 0.043793
0.920654 0.484802 0.043030
0.923340 0.470612 0.042297
0.926514 0.458832 0.041534
0.929413 0.447540 0.041077
0.343597 0.480927 0.324402
0.401337 0.540802 0.381226
0.404938 0.577362 0.415619
0.399170 0.590240 0.434998
0.402863 0.595154 0.435730
0.414368 0.605438 0.435516
0.432037 0.618713 0.435303
0.476593 0.633209 0.445801
0.559998 0.640717 0.456909
0.624481 0.615204 0.414368
0.793274 0.636139 0.160706
0.932983 0.667938 0.067688
0.938141 0.646088 0.056427
0.943268 0.626587 0.050354
0.947418 0.607117 0.047028
0.950867 0.585968 0.045441
0.954254 0.569122 0.044495
0.398499 0.570007 0.410767
0.392456 0.582397 0.434509
0.386749 0.587280 0.441528
0.389221 0.591431 0.442749
0.394135 0.596588 0.443237
0.403687 0.606140 0.444733
0.419098 0.620819 0.446442
0.447571 0.642090 0.447479
0.508575 0.662903 0.465332
0.609161 0.688751 0.485199
0.717682 0.696381 0.456818
0.930542 0.757843 0.256042
0.947510 0.749298 0.165192
0.952881 0.738861 0.127930
0.958496 0.727203 0.101440
0.964142 0.716248 0.084106
0.969696 0.703522 0.070618
0.375702 0.578217 0.438324
0.376495 0.582153 0.440765
0.382141 0.586792 0.442505
0.386780 0.591187 0.443481
0.391663 0.596344 0.444214
0.398529 0.603180 0.445435
0.412964 0.617157 0.448120
0.433350 0.635529 0.448669
0.480194 0.658508 0.458496
0.566925 0.682922 0.482117
0.663055 0.704224 0.484192
0.824463 0.738892 0.470917
0.942993 0.812988 0.465576
0.947845 0.803619 0.399658
0.952972 0.798798 0.345947
0.959808 0.792328 0.286591
0.967041 0.788483 0.244965
0.368408 0.577240 0.439056
0.373566 0.581665 0.441010
0.379181 0.586548 0.442993
0.384338 0.590942 0.444458
0.389221 0.596100 0.444946
0.393402 0.600525 0.445465
0.405884 0.612274 0.448395
0.424500 0.630371 0.450592
0.460327 0.653870 0.455048
0.528839 0.676575 0.475067
0.625092 0.701019 0.491302
0.725891 0.722839 0.476318
0.928650 0.804321 0.502991
0.934509 0.818359 0.538849
0.936462 0.820801 0.541779
0.939880 0.823242 0.534302
0.945892 0.825409 0.511688
0.364990 0.576508 0.439301
0.370636 0.581177 0.441254
0.376251 0.586060 0.443237
0.381897 0.590698 0.445190
0.386780 0.595856 0.445923
0.390717 0.600006 0.446442
0.400269 0.609558 0.449127
0.416901 0.625244 0.452057
0.443909 0.648956 0.453552
0.499725 0.672180 0.467773
0.584320 0.695862 0.490173
0.682922 0.718170 0.489594
0.813324 0.747894 0.485809
0.934265 0.822968 0.559845
0.931824 0.821045 0.570404
0.933533 0.823730 0.573334
0.935455 0.826141 0.576233
0.361786 0.575775 0.439301
0.367432 0.580658 0.441254
0.373077 0.585571 0.443237
0.378937 0.590454 0.445190
0.384338 0.595581 0.446899
0.388489 0.599762 0.447388
0.394867 0.606384 0.449371
0.409790 0.620819 0.453033
0.431610 0.641632 0.455475
0.473328 0.667297 0.461670
0.551331 0.691010 0.484833
0.643005 0.713989 0.497894
0.752899 0.739532 0.484680
0.919678 0.803925 0.537384
0.931335 0.825928 0.591431
0.928894 0.823975 0.601929
0.930817 0.826385 0.604828
0.358429 0.575073 0.439301
0.364288 0.579956 0.441498
0.370209 0.584839 0.443481
0.375824 0.589752 0.445435
0.381439 0.594879 0.447388
0.386078 0.599762 0.448364
0.390289 0.604218 0.449371
0.402344 0.615997 0.453033
0.422485 0.635132 0.457153
0.454315 0.661774 0.459259
0.521973 0.686676 0.478119
0.608368 0.710388 0.499084
0.705994 0.733276 0.495270
0.851562 0.769287 0.498627
0.931091 0.830750 0.612366
0.928650 0.828766 0.622864
0.926239 0.826599 0.633209
0.001465 0.001709 0.004395
0.003906 0.002686 0.008820
0.012970 0.004639 0.014923
0.028412 0.006866 0.019104
0.057587 0.011505 0.026947
0.107330 0.018341 0.040649
0.176758 0.025177 0.053802
0.245300 0.028351 0.059174
0.329132 0.035004 0.062836
0.441772 0.053436 0.068237
0.579651 0.085724 0.076050
0.717194 0.115417 0.082642
0.804810 0.133789 0.087769
0.818878 0.135712 0.090942
0.824982 0.135223 0.094116
0.831085 0.134491 0.097534
0.837372 0.133759 0.100922
0.003418 0.005157 0.012756
0.004181 0.006622 0.015930
0.013702 0.009796 0.028900
